(G-CODE GENERATED BY FLATCAM v8.994 - www.flatcam.org - Version Date: 2020/11/7)

(Name: epaper_clock-Edge_Cuts.gbr_cutout_cnc)
(Type: G-code from Geometry)
(Units: MM)

(Created on Saturday, 26 February 2022 at 12:27)

(This preprocessor is the default preprocessor used by FlatCAM.)
(It is made to work with MACH3 compatible motion controllers.)

(TOOL DIAMETER: 2.0 mm)
(Feedrate_XY: 120.0 mm/min)
(Feedrate_Z: 60.0 mm/min)
(Feedrate rapids 1500.0 mm/min)

(Z_Cut: -1.8 mm)
(DepthPerCut: 0.6 mm <=>3 passes)
(Z_Move: 2.0 mm)
(Z Start: None mm)
(Z End: 15.0 mm)
(X,Y End: 0.0000, 0.0000 mm)
(Steps per circle: 64)
(Preprocessor Geometry: mattwach)

(X range:   -1.1500 ...   77.3500  mm)
(Y range:  -50.0450 ...    1.1500  mm)

(Spindle Speed: 10000.0 RPM)
G21
G90
G94

G01 F120.00
(mattwach: Tool change disabled)
M03 S10000.0
G01 F120.00
G00 X-1.1487 Y-48.9490
G01 F60.00
G01 Z-0.6000
G01 F120.00
G01 X-1.1500 Y-48.8950
G01 X-1.1500 Y-0.0000
G01 X-1.1485 Y0.0589
G01 X-1.1379 Y0.1663
G01 X-1.1149 Y0.2818
G01 X-1.0819 Y0.3897
G01 X-1.0406 Y0.4895
G01 X-0.9876 Y0.5891
G01 X-0.9251 Y0.6831
G01 X-0.8504 Y0.7741
G01 X-0.7705 Y0.8537
G01 X-0.6831 Y0.9251
G01 X-0.5933 Y0.9851
G01 X-0.4895 Y1.0406
G01 X-0.3851 Y1.0836
G01 X-0.2818 Y1.1149
G01 X-0.1663 Y1.1379
G01 X-0.0589 Y1.1485
G01 X0.0000 Y1.1500
G01 X76.2000 Y1.1500
G01 X76.2589 Y1.1485
G01 X76.3663 Y1.1379
G01 X76.4818 Y1.1149
G01 X76.5897 Y1.0819
G01 X76.6895 Y1.0406
G01 X76.7891 Y0.9876
G01 X76.8831 Y0.9251
G01 X76.9741 Y0.8504
G01 X77.0537 Y0.7705
G01 X77.1251 Y0.6831
G01 X77.1851 Y0.5933
G01 X77.2406 Y0.4895
G01 X77.2836 Y0.3851
G01 X77.3149 Y0.2818
G01 X77.3379 Y0.1663
G01 X77.3485 Y0.0589
G01 X77.3500 Y-0.0000
G01 X77.3500 Y-48.8950
G01 X77.3485 Y-48.9539
G01 X77.3379 Y-49.0613
G01 X77.3149 Y-49.1768
G01 X77.2819 Y-49.2847
G01 X77.2406 Y-49.3845
G01 X77.1876 Y-49.4841
G01 X77.1251 Y-49.5781
G01 X77.0504 Y-49.6691
G01 X76.9705 Y-49.7487
G01 X76.8831 Y-49.8201
G01 X76.7933 Y-49.8801
G01 X76.6895 Y-49.9356
G01 X76.5851 Y-49.9786
G01 X76.4818 Y-50.0099
G01 X76.3663 Y-50.0329
G01 X76.2589 Y-50.0435
G01 X76.2000 Y-50.0450
G01 X0.0000 Y-50.0450
G01 X-0.0589 Y-50.0435
G01 X-0.1712 Y-50.0322
G01 X-0.2818 Y-50.0099
G01 X-0.3897 Y-49.9769
G01 X-0.4939 Y-49.9335
G01 X-0.5933 Y-49.8801
G01 X-0.6870 Y-49.8172
G01 X-0.7741 Y-49.7454
G01 X-0.8537 Y-49.6655
G01 X-0.9251 Y-49.5781
G01 X-0.9876 Y-49.4841
G01 X-1.0406 Y-49.3845
G01 X-1.0836 Y-49.2801
G01 X-1.1161 Y-49.1720
G01 X-1.1379 Y-49.0613
G01 X-1.1487 Y-48.9490
G00 X-1.1487 Y-48.9490
G01 F60.00
G01 Z-1.2000
G01 F120.00
G01 X-1.1379 Y-49.0613
G01 X-1.1161 Y-49.1720
G01 X-1.0836 Y-49.2801
G01 X-1.0406 Y-49.3845
G01 X-0.9876 Y-49.4841
G01 X-0.9251 Y-49.5781
G01 X-0.8537 Y-49.6655
G01 X-0.7741 Y-49.7454
G01 X-0.6870 Y-49.8172
G01 X-0.5933 Y-49.8801
G01 X-0.4939 Y-49.9335
G01 X-0.3897 Y-49.9769
G01 X-0.2818 Y-50.0099
G01 X-0.1712 Y-50.0322
G01 X-0.0589 Y-50.0435
G01 X0.0000 Y-50.0450
G01 X76.2000 Y-50.0450
G01 X76.2589 Y-50.0435
G01 X76.3663 Y-50.0329
G01 X76.4818 Y-50.0099
G01 X76.5851 Y-49.9786
G01 X76.6895 Y-49.9356
G01 X76.7933 Y-49.8801
G01 X76.8831 Y-49.8201
G01 X76.9705 Y-49.7487
G01 X77.0504 Y-49.6691
G01 X77.1251 Y-49.5781
G01 X77.1876 Y-49.4841
G01 X77.2406 Y-49.3845
G01 X77.2819 Y-49.2847
G01 X77.3149 Y-49.1768
G01 X77.3379 Y-49.0613
G01 X77.3485 Y-48.9539
G01 X77.3500 Y-48.8950
G01 X77.3500 Y-0.0000
G01 X77.3485 Y0.0589
G01 X77.3379 Y0.1663
G01 X77.3149 Y0.2818
G01 X77.2836 Y0.3851
G01 X77.2406 Y0.4895
G01 X77.1851 Y0.5933
G01 X77.1251 Y0.6831
G01 X77.0537 Y0.7705
G01 X76.9741 Y0.8504
G01 X76.8831 Y0.9251
G01 X76.7891 Y0.9876
G01 X76.6895 Y1.0406
G01 X76.5897 Y1.0819
G01 X76.4818 Y1.1149
G01 X76.3663 Y1.1379
G01 X76.2589 Y1.1485
G01 X76.2000 Y1.1500
G01 X0.0000 Y1.1500
G01 X-0.0589 Y1.1485
G01 X-0.1663 Y1.1379
G01 X-0.2818 Y1.1149
G01 X-0.3851 Y1.0836
G01 X-0.4895 Y1.0406
G01 X-0.5933 Y0.9851
G01 X-0.6831 Y0.9251
G01 X-0.7705 Y0.8537
G01 X-0.8504 Y0.7741
G01 X-0.9251 Y0.6831
G01 X-0.9876 Y0.5891
G01 X-1.0406 Y0.4895
G01 X-1.0819 Y0.3897
G01 X-1.1149 Y0.2818
G01 X-1.1379 Y0.1663
G01 X-1.1485 Y0.0589
G01 X-1.1500 Y-0.0000
G01 X-1.1500 Y-48.8950
G01 X-1.1487 Y-48.9490
G00 X-1.1487 Y-48.9490
G01 F60.00
G01 Z-1.8000
G01 F120.00
G01 X-1.1500 Y-48.8950
G01 X-1.1500 Y-0.0000
G01 X-1.1485 Y0.0589
G01 X-1.1379 Y0.1663
G01 X-1.1149 Y0.2818
G01 X-1.0819 Y0.3897
G01 X-1.0406 Y0.4895
G01 X-0.9876 Y0.5891
G01 X-0.9251 Y0.6831
G01 X-0.8504 Y0.7741
G01 X-0.7705 Y0.8537
G01 X-0.6831 Y0.9251
G01 X-0.5933 Y0.9851
G01 X-0.4895 Y1.0406
G01 X-0.3851 Y1.0836
G01 X-0.2818 Y1.1149
G01 X-0.1663 Y1.1379
G01 X-0.0589 Y1.1485
G01 X0.0000 Y1.1500
G01 X76.2000 Y1.1500
G01 X76.2589 Y1.1485
G01 X76.3663 Y1.1379
G01 X76.4818 Y1.1149
G01 X76.5897 Y1.0819
G01 X76.6895 Y1.0406
G01 X76.7891 Y0.9876
G01 X76.8831 Y0.9251
G01 X76.9741 Y0.8504
G01 X77.0537 Y0.7705
G01 X77.1251 Y0.6831
G01 X77.1851 Y0.5933
G01 X77.2406 Y0.4895
G01 X77.2836 Y0.3851
G01 X77.3149 Y0.2818
G01 X77.3379 Y0.1663
G01 X77.3485 Y0.0589
G01 X77.3500 Y-0.0000
G01 X77.3500 Y-48.8950
G01 X77.3485 Y-48.9539
G01 X77.3379 Y-49.0613
G01 X77.3149 Y-49.1768
G01 X77.2819 Y-49.2847
G01 X77.2406 Y-49.3845
G01 X77.1876 Y-49.4841
G01 X77.1251 Y-49.5781
G01 X77.0504 Y-49.6691
G01 X76.9705 Y-49.7487
G01 X76.8831 Y-49.8201
G01 X76.7933 Y-49.8801
G01 X76.6895 Y-49.9356
G01 X76.5851 Y-49.9786
G01 X76.4818 Y-50.0099
G01 X76.3663 Y-50.0329
G01 X76.2589 Y-50.0435
G01 X76.2000 Y-50.0450
G01 X0.0000 Y-50.0450
G01 X-0.0589 Y-50.0435
G01 X-0.1712 Y-50.0322
G01 X-0.2818 Y-50.0099
G01 X-0.3897 Y-49.9769
G01 X-0.4939 Y-49.9335
G01 X-0.5933 Y-49.8801
G01 X-0.6870 Y-49.8172
G01 X-0.7741 Y-49.7454
G01 X-0.8537 Y-49.6655
G01 X-0.9251 Y-49.5781
G01 X-0.9876 Y-49.4841
G01 X-1.0406 Y-49.3845
G01 X-1.0836 Y-49.2801
G01 X-1.1161 Y-49.1720
G01 X-1.1379 Y-49.0613
G01 X-1.1487 Y-48.9490
G00 Z2.0000
M05
G00 Z2.0000
G00 Z15.00
G00 X0.0 Y0.0


