(G-CODE GENERATED BY FLATCAM v8.994 - www.flatcam.org - Version Date: 2020/11/7)

(Name: epaper_clock-PTH.drl_edit_6_cnc)
(Type: G-code from Geometry)
(Units: MM)

(Created on Friday, 25 February 2022 at 22:33)

(This preprocessor is the default preprocessor used by FlatCAM.)
(It is made to work with MACH3 compatible motion controllers.)


(TOOLS DIAMETER: )
(Tool: 1 -> Dia: 0.7)
(Tool: 2 -> Dia: 1.0)

(FEEDRATE Z: )
(Tool: 1 -> Feedrate: 200.0)
(Tool: 2 -> Feedrate: 200.0)

(FEEDRATE RAPIDS: )
(Tool: 1 -> Feedrate Rapids: 1500)
(Tool: 2 -> Feedrate Rapids: 1500)

(Z_CUT: )
(Tool: 1 -> Z_Cut: -1.7)
(Tool: 2 -> Z_Cut: -1.7)

(Tools Offset: )
(Tool: 1 -> Offset Z: 0.0)
(Tool: 2 -> Offset Z: 0.0)

(Z_MOVE: )
(Tool: 1 -> Z_Move: 1.0)
(Tool: 2 -> Z_Move: 1.0)

(Z Toolchange: 10.0 mm)
(X,Y Toolchange: 0.0000, 0.0000 mm)
(Z Start: None mm)
(Z End: 0.5 mm)
(X,Y End: 0.0000, 0.0000 mm)
(Steps per circle: 64)
(Preprocessor Excellon: mattwach)

(X range:    4.5800 ...   74.6450  mm)
(Y range:  -45.5850 ...   -1.5260  mm)

(Spindle Speed: 10000 RPM)
G21
G90
G94

G01 F200.00
(mattwach: Tool change disabled)
G01 F200.00
M03 S10000
G00 X12.7000 Y-19.6850
G01 Z-1.7000
G01 Z0
G00 Z1.0000
G00 X5.0800 Y-12.0650
G01 Z-1.7000
G01 Z0
G00 Z1.0000
G00 X7.6200 Y-12.0650
G01 Z-1.7000
G01 Z0
G00 Z1.0000
G00 X12.7000 Y-12.0650
G01 Z-1.7000
G01 Z0
G00 Z1.0000
G00 X15.2400 Y-7.6200
G01 Z-1.7000
G01 Z0
G00 Z1.0000
G00 X17.7800 Y-12.0650
G01 Z-1.7000
G01 Z0
G00 Z1.0000
G00 X20.3200 Y-12.0650
G01 Z-1.7000
G01 Z0
G00 Z1.0000
G00 X21.5900 Y-7.6200
G01 Z-1.7000
G01 Z0
G00 Z1.0000
G00 X25.4000 Y-6.9850
G01 Z-1.7000
G01 Z0
G00 Z1.0000
G00 X27.9400 Y-6.9850
G01 Z-1.7000
G01 Z0
G00 Z1.0000
G00 X27.9400 Y-12.0650
G01 Z-1.7000
G01 Z0
G00 Z1.0000
G00 X27.9400 Y-14.6050
G01 Z-1.7000
G01 Z0
G00 Z1.0000
G00 X27.9400 Y-17.1450
G01 Z-1.7000
G01 Z0
G00 Z1.0000
G00 X27.9400 Y-19.6850
G01 Z-1.7000
G01 Z0
G00 Z1.0000
G00 X35.5600 Y-22.2250
G01 Z-1.7000
G01 Z0
G00 Z1.0000
G00 X35.5600 Y-19.6850
G01 Z-1.7000
G01 Z0
G00 Z1.0000
G00 X35.5600 Y-17.1450
G01 Z-1.7000
G01 Z0
G00 Z1.0000
G00 X35.5600 Y-14.6050
G01 Z-1.7000
G01 Z0
G00 Z1.0000
G00 X35.5600 Y-12.0650
G01 Z-1.7000
G01 Z0
G00 Z1.0000
G00 X33.0200 Y-6.9850
G01 Z-1.7000
G01 Z0
G00 Z1.0000
G00 X40.6400 Y-6.9850
G01 Z-1.7000
G01 Z0
G00 Z1.0000
G00 X45.7200 Y-9.5250
G01 Z-1.7000
G01 Z0
G00 Z1.0000
G00 X45.7200 Y-5.0250
G01 Z-1.7000
G01 Z0
G00 Z1.0000
G00 X52.2200 Y-5.0250
G01 Z-1.7000
G01 Z0
G00 Z1.0000
G00 X55.2450 Y-1.8760
G01 Z-1.7000
G01 Z0
G00 Z1.0000
G00 X57.7100 Y-4.7350
G01 Z-1.7000
G01 Z0
G00 Z1.0000
G00 X64.2100 Y-4.7350
G01 Z-1.7000
G01 Z0
G00 Z1.0000
G00 X67.3100 Y-4.4450
G01 Z-1.7000
G01 Z0
G00 Z1.0000
G00 X69.8500 Y-7.0000
G01 Z-1.7000
G01 Z0
G00 Z1.0000
G00 X69.8500 Y-4.4600
G01 Z-1.7000
G01 Z0
G00 Z1.0000
G00 X72.3900 Y-4.4600
G01 Z-1.7000
G01 Z0
G00 Z1.0000
G00 X72.3900 Y-7.0000
G01 Z-1.7000
G01 Z0
G00 Z1.0000
G00 X72.3900 Y-9.5400
G01 Z-1.7000
G01 Z0
G00 Z1.0000
G00 X69.8500 Y-9.5400
G01 Z-1.7000
G01 Z0
G00 Z1.0000
G00 X64.2100 Y-9.2350
G01 Z-1.7000
G01 Z0
G00 Z1.0000
G00 X67.3100 Y-12.7000
G01 Z-1.7000
G01 Z0
G00 Z1.0000
G00 X68.5800 Y-17.1450
G01 Z-1.7000
G01 Z0
G00 Z1.0000
G00 X68.5800 Y-19.6850
G01 Z-1.7000
G01 Z0
G00 Z1.0000
G00 X74.2950 Y-19.6850
G01 Z-1.7000
G01 Z0
G00 Z1.0000
G00 X68.5800 Y-24.7650
G01 Z-1.7000
G01 Z0
G00 Z1.0000
G00 X68.5800 Y-27.3050
G01 Z-1.7000
G01 Z0
G00 Z1.0000
G00 X68.5800 Y-29.8450
G01 Z-1.7000
G01 Z0
G00 Z1.0000
G00 X68.5800 Y-32.3850
G01 Z-1.7000
G01 Z0
G00 Z1.0000
G00 X68.5800 Y-34.9250
G01 Z-1.7000
G01 Z0
G00 Z1.0000
G00 X68.5800 Y-37.4650
G01 Z-1.7000
G01 Z0
G00 Z1.0000
G00 X68.5800 Y-40.0050
G01 Z-1.7000
G01 Z0
G00 Z1.0000
G00 X68.5800 Y-42.5450
G01 Z-1.7000
G01 Z0
G00 Z1.0000
G00 X58.4200 Y-40.0050
G01 Z-1.7000
G01 Z0
G00 Z1.0000
G00 X58.4200 Y-37.4650
G01 Z-1.7000
G01 Z0
G00 Z1.0000
G00 X52.7050 Y-38.1480
G01 Z-1.7000
G01 Z0
G00 Z1.0000
G00 X52.7050 Y-35.6480
G01 Z-1.7000
G01 Z0
G00 Z1.0000
G00 X58.4200 Y-34.9250
G01 Z-1.7000
G01 Z0
G00 Z1.0000
G00 X58.4200 Y-32.3850
G01 Z-1.7000
G01 Z0
G00 Z1.0000
G00 X58.4200 Y-29.8450
G01 Z-1.7000
G01 Z0
G00 Z1.0000
G00 X58.4200 Y-22.2250
G01 Z-1.7000
G01 Z0
G00 Z1.0000
G00 X57.7100 Y-9.2350
G01 Z-1.7000
G01 Z0
G00 Z1.0000
G00 X52.2200 Y-9.5250
G01 Z-1.7000
G01 Z0
G00 Z1.0000
G00 X48.2600 Y-15.2400
G01 Z-1.7000
G01 Z0
G00 Z1.0000
G00 X43.1800 Y-19.6850
G01 Z-1.7000
G01 Z0
G00 Z1.0000
G00 X48.2600 Y-29.8450
G01 Z-1.7000
G01 Z0
G00 Z1.0000
G00 X44.4500 Y-29.8450
G01 Z-1.7000
G01 Z0
G00 Z1.0000
G00 X41.9500 Y-29.8450
G01 Z-1.7000
G01 Z0
G00 Z1.0000
G00 X39.3700 Y-30.4800
G01 Z-1.7000
G01 Z0
G00 Z1.0000
G00 X35.5600 Y-29.8450
G01 Z-1.7000
G01 Z0
G00 Z1.0000
G00 X39.3700 Y-34.9250
G01 Z-1.7000
G01 Z0
G00 Z1.0000
G00 X39.3700 Y-37.4650
G01 Z-1.7000
G01 Z0
G00 Z1.0000
G00 X39.3700 Y-40.0050
G01 Z-1.7000
G01 Z0
G00 Z1.0000
G00 X35.5600 Y-42.5450
G01 Z-1.7000
G01 Z0
G00 Z1.0000
G00 X35.5600 Y-45.0850
G01 Z-1.7000
G01 Z0
G00 Z1.0000
G00 X27.9400 Y-45.0850
G01 Z-1.7000
G01 Z0
G00 Z1.0000
G00 X27.9400 Y-42.5450
G01 Z-1.7000
G01 Z0
G00 Z1.0000
G00 X27.9400 Y-40.0050
G01 Z-1.7000
G01 Z0
G00 Z1.0000
G00 X27.9400 Y-34.9250
G01 Z-1.7000
G01 Z0
G00 Z1.0000
G00 X27.9400 Y-32.3850
G01 Z-1.7000
G01 Z0
G00 Z1.0000
G00 X27.9400 Y-29.8450
G01 Z-1.7000
G01 Z0
G00 Z1.0000
G00 X27.9400 Y-27.3050
G01 Z-1.7000
G01 Z0
G00 Z1.0000
G00 X23.4950 Y-24.8050
G01 Z-1.7000
G01 Z0
G00 Z1.0000
G00 X23.4950 Y-27.3050
G01 Z-1.7000
G01 Z0
G00 Z1.0000
G00 X12.7000 Y-30.4800
G01 Z-1.7000
G01 Z0
G00 Z1.0000
M05
G00 Z0.50
G00 X0.0 Y0.0


