(G-CODE GENERATED BY FLATCAM v8.994 - www.flatcam.org - Version Date: 2020/11/7)

(Name: epaper_clock-F_Cu.gbr_iso_combined_cnc)
(Type: G-code from Geometry)
(Units: MM)

(Created on Friday, 25 February 2022 at 21:46)

(This preprocessor is the default preprocessor used by FlatCAM.)
(It is made to work with MACH3 compatible motion controllers.)

(TOOL DIAMETER: 0.39 mm)
(Feedrate_XY: 180.0 mm/min)
(Feedrate_Z: 60.0 mm/min)
(Feedrate rapids 1500.0 mm/min)

(Z_Cut: -0.05 mm)
(Z_Move: 1.0 mm)
(Z Start: None mm)
(Z End: 10.0 mm)
(X,Y End: 0.0000, 0.0000 mm)
(Steps per circle: 64)
(Preprocessor Geometry: mattwach)

(X range:   -0.3110 ...   76.5110  mm)
(Y range:  -49.2060 ...    0.3110  mm)

(Spindle Speed: 10000.0 RPM)
G21
G90
G94

G01 F180.00
(mattwach: Tool change disabled)
M03 S10000.0
G01 F180.00
G00 X0.0046 Y-0.5738
G01 F60.00
G01 Z-0.0500
G01 F180.00
G01 X0.0023 Y-0.5978
G01 X0.0016 Y-0.6099
G01 X0.0010 Y-0.6340
G01 X0.0010 Y-48.2610
G01 X0.0016 Y-48.2851
G01 X0.0023 Y-48.2972
G01 X0.0033 Y-48.3092
G01 X0.0062 Y-48.3332
G01 X0.0102 Y-48.3569
G01 X0.0126 Y-48.3688
G01 X0.0268 Y-48.4335
G01 X0.0334 Y-48.4579
G01 X0.0372 Y-48.4700
G01 X0.0456 Y-48.4939
G01 X0.0552 Y-48.5173
G01 X0.0605 Y-48.5289
G01 X0.0660 Y-48.5403
G01 X0.0779 Y-48.5626
G01 X0.0843 Y-48.5736
G01 X0.0978 Y-48.5950
G01 X0.1050 Y-48.6055
G01 X0.1201 Y-48.6258
G01 X0.1362 Y-48.6454
G01 X0.1827 Y-48.6990
G01 X0.1997 Y-48.7176
G01 X0.2085 Y-48.7266
G01 X0.2268 Y-48.7439
G01 X0.2459 Y-48.7603
G01 X0.2658 Y-48.7757
G01 X0.2761 Y-48.7830
G01 X0.2971 Y-48.7969
G01 X0.3078 Y-48.8034
G01 X0.3298 Y-48.8157
G01 X0.3524 Y-48.8269
G01 X0.3755 Y-48.8369
G01 X0.3872 Y-48.8415
G01 X0.4110 Y-48.8498
G01 X0.4912 Y-48.8735
G01 X0.5028 Y-48.8767
G01 X0.5262 Y-48.8824
G01 X0.5499 Y-48.8870
G01 X0.5618 Y-48.8888
G01 X0.5738 Y-48.8904
G01 X0.5978 Y-48.8927
G01 X0.6099 Y-48.8934
G01 X0.6340 Y-48.8940
G01 X75.5660 Y-48.8940
G01 X75.5901 Y-48.8934
G01 X75.6022 Y-48.8927
G01 X75.6142 Y-48.8917
G01 X75.6382 Y-48.8888
G01 X75.6501 Y-48.8870
G01 X75.6738 Y-48.8824
G01 X75.7385 Y-48.8682
G01 X75.7629 Y-48.8616
G01 X75.7750 Y-48.8578
G01 X75.7870 Y-48.8537
G01 X75.8107 Y-48.8447
G01 X75.8339 Y-48.8345
G01 X75.8565 Y-48.8232
G01 X75.8676 Y-48.8171
G01 X75.8894 Y-48.8041
G01 X75.9000 Y-48.7972
G01 X75.9207 Y-48.7826
G01 X75.9308 Y-48.7749
G01 X75.9504 Y-48.7588
G01 X76.0040 Y-48.7123
G01 X76.0226 Y-48.6953
G01 X76.0316 Y-48.6865
G01 X76.0489 Y-48.6682
G01 X76.0653 Y-48.6491
G01 X76.0731 Y-48.6392
G01 X76.0880 Y-48.6189
G01 X76.1019 Y-48.5979
G01 X76.1147 Y-48.5762
G01 X76.1264 Y-48.5539
G01 X76.1319 Y-48.5426
G01 X76.1419 Y-48.5195
G01 X76.1465 Y-48.5078
G01 X76.1548 Y-48.4840
G01 X76.1785 Y-48.4038
G01 X76.1847 Y-48.3805
G01 X76.1874 Y-48.3688
G01 X76.1898 Y-48.3569
G01 X76.1938 Y-48.3332
G01 X76.1967 Y-48.3092
G01 X76.1977 Y-48.2972
G01 X76.1989 Y-48.2731
G01 X76.1990 Y-48.2610
G01 X76.1990 Y-0.6340
G01 X76.1989 Y-0.6219
G01 X76.1977 Y-0.5978
G01 X76.1954 Y-0.5738
G01 X76.1938 Y-0.5618
G01 X76.1920 Y-0.5499
G01 X76.1874 Y-0.5262
G01 X76.1732 Y-0.4615
G01 X76.1666 Y-0.4371
G01 X76.1628 Y-0.4250
G01 X76.1544 Y-0.4011
G01 X76.1497 Y-0.3893
G01 X76.1395 Y-0.3661
G01 X76.1282 Y-0.3435
G01 X76.1221 Y-0.3324
G01 X76.1091 Y-0.3106
G01 X76.1022 Y-0.3000
G01 X76.0950 Y-0.2895
G01 X76.0799 Y-0.2692
G01 X76.0638 Y-0.2496
G01 X76.0173 Y-0.1960
G01 X76.0003 Y-0.1774
G01 X75.9825 Y-0.1596
G01 X75.9638 Y-0.1428
G01 X75.9541 Y-0.1347
G01 X75.9442 Y-0.1269
G01 X75.9239 Y-0.1120
G01 X75.9029 Y-0.0981
G01 X75.8812 Y-0.0853
G01 X75.8702 Y-0.0793
G01 X75.8476 Y-0.0681
G01 X75.8245 Y-0.0581
G01 X75.8009 Y-0.0492
G01 X75.7890 Y-0.0452
G01 X75.7088 Y-0.0215
G01 X75.6855 Y-0.0153
G01 X75.6738 Y-0.0126
G01 X75.6501 Y-0.0080
G01 X75.6382 Y-0.0062
G01 X75.6262 Y-0.0046
G01 X75.6022 Y-0.0023
G01 X75.5901 Y-0.0016
G01 X75.5660 Y-0.0010
G01 X0.6340 Y-0.0010
G01 X0.6219 Y-0.0011
G01 X0.5978 Y-0.0023
G01 X0.5738 Y-0.0046
G01 X0.5499 Y-0.0080
G01 X0.5262 Y-0.0126
G01 X0.4615 Y-0.0268
G01 X0.4371 Y-0.0334
G01 X0.4130 Y-0.0413
G01 X0.4011 Y-0.0456
G01 X0.3777 Y-0.0552
G01 X0.3547 Y-0.0660
G01 X0.3324 Y-0.0779
G01 X0.3106 Y-0.0909
G01 X0.2895 Y-0.1050
G01 X0.2692 Y-0.1201
G01 X0.2593 Y-0.1280
G01 X0.1866 Y-0.1911
G01 X0.1684 Y-0.2085
G01 X0.1511 Y-0.2268
G01 X0.1347 Y-0.2459
G01 X0.1193 Y-0.2658
G01 X0.1049 Y-0.2865
G01 X0.0916 Y-0.3078
G01 X0.0793 Y-0.3298
G01 X0.0681 Y-0.3524
G01 X0.0581 Y-0.3755
G01 X0.0492 Y-0.3991
G01 X0.0415 Y-0.4230
G01 X0.0215 Y-0.4912
G01 X0.0153 Y-0.5145
G01 X0.0102 Y-0.5381
G01 X0.0080 Y-0.5499
G01 X0.0046 Y-0.5738
G00 Z1.0000
G00 X0.3144 Y-0.6108
G01 F60.00
G01 Z-0.0500
G01 F180.00
G01 X0.3135 Y-0.6201
G01 X0.3130 Y-0.6340
G01 X0.3130 Y-48.2610
G01 X0.3135 Y-48.2749
G01 X0.3157 Y-48.2933
G01 X0.3299 Y-48.3595
G01 X0.3339 Y-48.3736
G01 X0.3372 Y-48.3828
G01 X0.3429 Y-48.3962
G01 X0.3496 Y-48.4092
G01 X0.3572 Y-48.4217
G01 X0.3689 Y-48.4373
G01 X0.4217 Y-48.4983
G01 X0.4284 Y-48.5053
G01 X0.4391 Y-48.5152
G01 X0.4505 Y-48.5242
G01 X0.4625 Y-48.5323
G01 X0.4708 Y-48.5373
G01 X0.4838 Y-48.5439
G01 X0.5017 Y-48.5511
G01 X0.5791 Y-48.5741
G01 X0.5926 Y-48.5775
G01 X0.6062 Y-48.5800
G01 X0.6201 Y-48.5815
G01 X0.6340 Y-48.5820
G01 X75.5660 Y-48.5820
G01 X75.5799 Y-48.5815
G01 X75.5983 Y-48.5793
G01 X75.6645 Y-48.5651
G01 X75.6739 Y-48.5625
G01 X75.6878 Y-48.5578
G01 X75.7012 Y-48.5521
G01 X75.7142 Y-48.5454
G01 X75.7267 Y-48.5378
G01 X75.7423 Y-48.5261
G01 X75.8033 Y-48.4733
G01 X75.8137 Y-48.4631
G01 X75.8202 Y-48.4559
G01 X75.8292 Y-48.4445
G01 X75.8373 Y-48.4325
G01 X75.8468 Y-48.4156
G01 X75.8527 Y-48.4023
G01 X75.8561 Y-48.3933
G01 X75.8791 Y-48.3159
G01 X75.8825 Y-48.3024
G01 X75.8850 Y-48.2888
G01 X75.8865 Y-48.2749
G01 X75.8870 Y-48.2610
G01 X75.8870 Y-0.6340
G01 X75.8861 Y-0.6155
G01 X75.8843 Y-0.6017
G01 X75.8701 Y-0.5355
G01 X75.8675 Y-0.5261
G01 X75.8628 Y-0.5122
G01 X75.8571 Y-0.4988
G01 X75.8504 Y-0.4858
G01 X75.8428 Y-0.4733
G01 X75.8311 Y-0.4577
G01 X75.7783 Y-0.3967
G01 X75.7681 Y-0.3863
G01 X75.7572 Y-0.3767
G01 X75.7456 Y-0.3680
G01 X75.7375 Y-0.3627
G01 X75.7249 Y-0.3554
G01 X75.7162 Y-0.3511
G01 X75.6983 Y-0.3439
G01 X75.6209 Y-0.3209
G01 X75.6074 Y-0.3175
G01 X75.5938 Y-0.3150
G01 X75.5799 Y-0.3135
G01 X75.5660 Y-0.3130
G01 X0.6340 Y-0.3130
G01 X0.6201 Y-0.3135
G01 X0.6017 Y-0.3157
G01 X0.5402 Y-0.3288
G01 X0.5214 Y-0.3339
G01 X0.5122 Y-0.3372
G01 X0.4988 Y-0.3429
G01 X0.4816 Y-0.3520
G01 X0.4733 Y-0.3572
G01 X0.4615 Y-0.3658
G01 X0.3967 Y-0.4217
G01 X0.3830 Y-0.4355
G01 X0.3708 Y-0.4505
G01 X0.3601 Y-0.4666
G01 X0.3532 Y-0.4794
G01 X0.3491 Y-0.4882
G01 X0.3423 Y-0.5063
G01 X0.3209 Y-0.5791
G01 X0.3175 Y-0.5926
G01 X0.3144 Y-0.6108
G00 Z1.0000
G00 X-0.3052 Y-0.5368
G01 F60.00
G01 Z-0.0500
G01 F180.00
G01 X-0.3089 Y-0.5756
G01 X-0.3108 Y-0.6145
G01 X-0.3110 Y-0.6340
G01 X-0.3110 Y-48.2610
G01 X-0.3108 Y-48.2805
G01 X-0.3089 Y-48.3194
G01 X-0.3052 Y-48.3582
G01 X-0.3027 Y-48.3776
G01 X-0.2997 Y-48.3968
G01 X-0.2923 Y-48.4351
G01 X-0.2809 Y-48.4874
G01 X-0.2763 Y-48.5074
G01 X-0.2712 Y-48.5272
G01 X-0.2656 Y-48.5469
G01 X-0.2595 Y-48.5664
G01 X-0.2530 Y-48.5858
G01 X-0.2459 Y-48.6050
G01 X-0.2384 Y-48.6241
G01 X-0.2304 Y-48.6429
G01 X-0.2219 Y-48.6615
G01 X-0.2130 Y-48.6799
G01 X-0.2036 Y-48.6981
G01 X-0.1938 Y-48.7161
G01 X-0.1835 Y-48.7338
G01 X-0.1727 Y-48.7512
G01 X-0.1616 Y-48.7684
G01 X-0.1500 Y-48.7852
G01 X-0.1380 Y-48.8018
G01 X-0.1256 Y-48.8181
G01 X-0.1128 Y-48.8340
G01 X-0.0996 Y-48.8497
G01 X-0.0531 Y-48.9033
G01 X-0.0396 Y-48.9185
G01 X-0.0257 Y-48.9334
G01 X-0.0114 Y-48.9479
G01 X0.0032 Y-48.9621
G01 X0.0181 Y-48.9759
G01 X0.0334 Y-48.9893
G01 X0.0490 Y-49.0023
G01 X0.0650 Y-49.0149
G01 X0.0812 Y-49.0272
G01 X0.0977 Y-49.0390
G01 X0.1146 Y-49.0504
G01 X0.1317 Y-49.0614
G01 X0.1491 Y-49.0720
G01 X0.1667 Y-49.0821
G01 X0.1846 Y-49.0918
G01 X0.2027 Y-49.1011
G01 X0.2210 Y-49.1099
G01 X0.2396 Y-49.1182
G01 X0.2583 Y-49.1261
G01 X0.2773 Y-49.1335
G01 X0.2964 Y-49.1404
G01 X0.3157 Y-49.1469
G01 X0.4033 Y-49.1728
G01 X0.4409 Y-49.1829
G01 X0.4599 Y-49.1873
G01 X0.4790 Y-49.1912
G01 X0.5174 Y-49.1977
G01 X0.5561 Y-49.2023
G01 X0.5756 Y-49.2039
G01 X0.5950 Y-49.2051
G01 X0.6340 Y-49.2060
G01 X75.5660 Y-49.2060
G01 X75.5855 Y-49.2058
G01 X75.6244 Y-49.2039
G01 X75.6438 Y-49.2023
G01 X75.6826 Y-49.1977
G01 X75.7210 Y-49.1912
G01 X75.7401 Y-49.1873
G01 X75.7924 Y-49.1759
G01 X75.8124 Y-49.1713
G01 X75.8322 Y-49.1662
G01 X75.8519 Y-49.1606
G01 X75.8714 Y-49.1545
G01 X75.8908 Y-49.1480
G01 X75.9100 Y-49.1409
G01 X75.9291 Y-49.1334
G01 X75.9479 Y-49.1254
G01 X75.9665 Y-49.1169
G01 X75.9849 Y-49.1080
G01 X76.0031 Y-49.0986
G01 X76.0211 Y-49.0888
G01 X76.0388 Y-49.0785
G01 X76.0562 Y-49.0677
G01 X76.0734 Y-49.0566
G01 X76.0902 Y-49.0450
G01 X76.1068 Y-49.0330
G01 X76.1231 Y-49.0206
G01 X76.1390 Y-49.0078
G01 X76.1547 Y-48.9946
G01 X76.2083 Y-48.9481
G01 X76.2235 Y-48.9346
G01 X76.2384 Y-48.9207
G01 X76.2529 Y-48.9064
G01 X76.2671 Y-48.8918
G01 X76.2809 Y-48.8769
G01 X76.2943 Y-48.8616
G01 X76.3073 Y-48.8460
G01 X76.3199 Y-48.8300
G01 X76.3322 Y-48.8138
G01 X76.3440 Y-48.7973
G01 X76.3554 Y-48.7804
G01 X76.3664 Y-48.7633
G01 X76.3770 Y-48.7459
G01 X76.3871 Y-48.7283
G01 X76.3968 Y-48.7104
G01 X76.4061 Y-48.6923
G01 X76.4149 Y-48.6740
G01 X76.4232 Y-48.6554
G01 X76.4311 Y-48.6367
G01 X76.4385 Y-48.6177
G01 X76.4454 Y-48.5986
G01 X76.4519 Y-48.5793
G01 X76.4778 Y-48.4917
G01 X76.4879 Y-48.4541
G01 X76.4923 Y-48.4351
G01 X76.4997 Y-48.3968
G01 X76.5027 Y-48.3776
G01 X76.5052 Y-48.3582
G01 X76.5089 Y-48.3194
G01 X76.5101 Y-48.3000
G01 X76.5110 Y-48.2610
G01 X76.5110 Y-0.6340
G01 X76.5108 Y-0.6145
G01 X76.5089 Y-0.5756
G01 X76.5073 Y-0.5562
G01 X76.5027 Y-0.5174
G01 X76.4962 Y-0.4790
G01 X76.4923 Y-0.4599
G01 X76.4809 Y-0.4076
G01 X76.4763 Y-0.3876
G01 X76.4712 Y-0.3678
G01 X76.4656 Y-0.3481
G01 X76.4595 Y-0.3286
G01 X76.4530 Y-0.3092
G01 X76.4459 Y-0.2900
G01 X76.4384 Y-0.2709
G01 X76.4304 Y-0.2521
G01 X76.4219 Y-0.2335
G01 X76.4130 Y-0.2151
G01 X76.4036 Y-0.1969
G01 X76.3938 Y-0.1789
G01 X76.3835 Y-0.1612
G01 X76.3727 Y-0.1438
G01 X76.3616 Y-0.1266
G01 X76.3500 Y-0.1098
G01 X76.3380 Y-0.0932
G01 X76.3256 Y-0.0769
G01 X76.3128 Y-0.0610
G01 X76.2996 Y-0.0453
G01 X76.2531 Y0.0083
G01 X76.2396 Y0.0235
G01 X76.2257 Y0.0384
G01 X76.2114 Y0.0529
G01 X76.1968 Y0.0671
G01 X76.1819 Y0.0809
G01 X76.1666 Y0.0943
G01 X76.1510 Y0.1073
G01 X76.1350 Y0.1199
G01 X76.1188 Y0.1322
G01 X76.1023 Y0.1440
G01 X76.0854 Y0.1554
G01 X76.0683 Y0.1664
G01 X76.0509 Y0.1770
G01 X76.0333 Y0.1871
G01 X76.0154 Y0.1968
G01 X75.9973 Y0.2061
G01 X75.9790 Y0.2149
G01 X75.9604 Y0.2232
G01 X75.9417 Y0.2311
G01 X75.9227 Y0.2385
G01 X75.9036 Y0.2454
G01 X75.8843 Y0.2519
G01 X75.7967 Y0.2778
G01 X75.7780 Y0.2831
G01 X75.7401 Y0.2923
G01 X75.7018 Y0.2997
G01 X75.6826 Y0.3027
G01 X75.6439 Y0.3073
G01 X75.6244 Y0.3089
G01 X75.6050 Y0.3101
G01 X75.5660 Y0.3110
G01 X0.6340 Y0.3110
G01 X0.5950 Y0.3101
G01 X0.5562 Y0.3073
G01 X0.5174 Y0.3027
G01 X0.4790 Y0.2962
G01 X0.4076 Y0.2809
G01 X0.3876 Y0.2763
G01 X0.3678 Y0.2712
G01 X0.3481 Y0.2656
G01 X0.3286 Y0.2595
G01 X0.3092 Y0.2530
G01 X0.2900 Y0.2459
G01 X0.2709 Y0.2384
G01 X0.2521 Y0.2304
G01 X0.2335 Y0.2219
G01 X0.2151 Y0.2130
G01 X0.1969 Y0.2036
G01 X0.1789 Y0.1938
G01 X0.1612 Y0.1835
G01 X0.1438 Y0.1727
G01 X0.1266 Y0.1616
G01 X0.1098 Y0.1500
G01 X0.0932 Y0.1380
G01 X0.0769 Y0.1256
G01 X0.0610 Y0.1128
G01 X0.0453 Y0.0996
G01 X-0.0235 Y0.0396
G01 X-0.0384 Y0.0257
G01 X-0.0529 Y0.0114
G01 X-0.0671 Y-0.0032
G01 X-0.0809 Y-0.0181
G01 X-0.0943 Y-0.0334
G01 X-0.1073 Y-0.0490
G01 X-0.1199 Y-0.0650
G01 X-0.1322 Y-0.0812
G01 X-0.1440 Y-0.0977
G01 X-0.1554 Y-0.1146
G01 X-0.1664 Y-0.1317
G01 X-0.1770 Y-0.1491
G01 X-0.1871 Y-0.1667
G01 X-0.1968 Y-0.1846
G01 X-0.2061 Y-0.2027
G01 X-0.2149 Y-0.2210
G01 X-0.2232 Y-0.2396
G01 X-0.2311 Y-0.2583
G01 X-0.2385 Y-0.2773
G01 X-0.2454 Y-0.2964
G01 X-0.2519 Y-0.3157
G01 X-0.2578 Y-0.3351
G01 X-0.2778 Y-0.4033
G01 X-0.2879 Y-0.4409
G01 X-0.2962 Y-0.4790
G01 X-0.3027 Y-0.5174
G01 X-0.3052 Y-0.5368
G00 Z1.0000
G00 X1.8692 Y-10.8709
G01 F60.00
G01 Z-0.0500
G01 F180.00
G01 X1.8666 Y-10.8874
G01 X1.8592 Y-10.9270
G01 X1.8614 Y-10.9657
G01 X1.8620 Y-10.9842
G01 X1.8620 Y-13.0023
G01 X1.8612 Y-13.0241
G01 X1.8589 Y-13.0582
G01 X1.8676 Y-13.1095
G01 X1.8737 Y-13.1591
G01 X1.8784 Y-13.1765
G01 X1.8985 Y-13.2223
G01 X1.9187 Y-13.2751
G01 X1.9202 Y-13.2778
G01 X1.9275 Y-13.2909
G01 X1.9578 Y-13.3306
G01 X1.9875 Y-13.3733
G01 X2.0164 Y-13.3990
G01 X2.0298 Y-13.4117
G01 X23.8858 Y-35.2676
G01 X23.9007 Y-35.2836
G01 X23.9232 Y-35.3094
G01 X23.9655 Y-35.3395
G01 X24.0049 Y-35.3703
G01 X24.0206 Y-35.3792
G01 X24.0671 Y-35.3974
G01 X24.1188 Y-35.4205
G01 X24.1218 Y-35.4214
G01 X24.1362 Y-35.4254
G01 X24.1857 Y-35.4320
G01 X24.2368 Y-35.4413
G01 X24.2755 Y-35.4390
G01 X24.2939 Y-35.4385
G01 X26.5929 Y-35.4385
G01 X26.6069 Y-35.4390
G01 X26.6207 Y-35.4405
G01 X26.6344 Y-35.4430
G01 X26.6479 Y-35.4464
G01 X26.7160 Y-35.4664
G01 X26.7339 Y-35.4726
G01 X26.7469 Y-35.4784
G01 X26.7635 Y-35.4876
G01 X26.7791 Y-35.4983
G01 X26.7901 Y-35.5073
G01 X26.8004 Y-35.5171
G01 X26.8397 Y-35.5573
G01 X26.8526 Y-35.5719
G01 X26.8640 Y-35.5877
G01 X26.9169 Y-35.6738
G01 X27.0529 Y-35.8308
G01 X27.2128 Y-35.9636
G01 X27.3922 Y-36.0684
G01 X27.5863 Y-36.1425
G01 X27.7899 Y-36.1839
G01 X27.9975 Y-36.1915
G01 X28.2036 Y-36.1651
G01 X28.4026 Y-36.1054
G01 X28.5892 Y-36.0140
G01 X28.7583 Y-35.8934
G01 X28.9055 Y-35.7467
G01 X29.0268 Y-35.5780
G01 X29.1188 Y-35.3917
G01 X29.1792 Y-35.1929
G01 X29.2071 Y-34.9813
G01 X29.2083 Y-34.9306
G01 X29.1908 Y-34.7179
G01 X29.1402 Y-34.5164
G01 X29.0574 Y-34.3259
G01 X28.9445 Y-34.1514
G01 X28.8047 Y-33.9978
G01 X28.6895 Y-33.9068
G01 X28.6789 Y-33.8978
G01 X28.6689 Y-33.8880
G01 X28.6597 Y-33.8776
G01 X28.6540 Y-33.8703
G01 X28.6048 Y-33.8006
G01 X28.5998 Y-33.7923
G01 X28.5931 Y-33.7794
G01 X28.5857 Y-33.7615
G01 X28.5826 Y-33.7523
G01 X28.5789 Y-33.7383
G01 X28.5757 Y-33.7192
G01 X28.5745 Y-33.7047
G01 X28.5710 Y-33.6241
G01 X28.5716 Y-33.6096
G01 X28.5726 Y-33.6000
G01 X28.5761 Y-33.5809
G01 X28.5799 Y-33.5669
G01 X28.5830 Y-33.5577
G01 X28.5885 Y-33.5443
G01 X28.5950 Y-33.5313
G01 X28.6355 Y-33.4614
G01 X28.6438 Y-33.4491
G01 X28.6530 Y-33.4374
G01 X28.6595 Y-33.4300
G01 X28.6701 Y-33.4196
G01 X28.6947 Y-33.3990
G01 X28.7583 Y-33.3534
G01 X28.9055 Y-33.2067
G01 X29.0268 Y-33.0380
G01 X29.1188 Y-32.8517
G01 X29.1792 Y-32.6529
G01 X29.1929 Y-32.5492
G01 X29.1956 Y-32.5355
G01 X29.1992 Y-32.5221
G01 X29.2054 Y-32.5046
G01 X29.2360 Y-32.4354
G01 X29.2424 Y-32.4224
G01 X29.2523 Y-32.4058
G01 X29.2608 Y-32.3940
G01 X29.2702 Y-32.3829
G01 X29.2804 Y-32.3725
G01 X29.2913 Y-32.3630
G01 X29.3069 Y-32.3515
G01 X29.3662 Y-32.3124
G01 X29.3829 Y-32.3026
G01 X29.4005 Y-32.2944
G01 X29.4187 Y-32.2881
G01 X29.4328 Y-32.2845
G01 X29.4423 Y-32.2827
G01 X29.4568 Y-32.2809
G01 X29.4664 Y-32.2803
G01 X29.5471 Y-32.2794
G01 X29.5662 Y-32.2806
G01 X29.5851 Y-32.2836
G01 X29.5945 Y-32.2859
G01 X29.6083 Y-32.2901
G01 X29.6172 Y-32.2934
G01 X29.6304 Y-32.2993
G01 X29.6431 Y-32.3061
G01 X29.7024 Y-32.3409
G01 X29.7107 Y-32.3463
G01 X29.7227 Y-32.3553
G01 X29.7303 Y-32.3618
G01 X29.7375 Y-32.3687
G01 X30.0964 Y-32.7276
G01 X30.1114 Y-32.7436
G01 X30.1339 Y-32.7694
G01 X30.1762 Y-32.7995
G01 X30.2156 Y-32.8303
G01 X30.2313 Y-32.8392
G01 X30.2778 Y-32.8574
G01 X30.3295 Y-32.8805
G01 X30.3325 Y-32.8814
G01 X30.3469 Y-32.8854
G01 X30.3964 Y-32.8920
G01 X30.4475 Y-32.9013
G01 X30.4862 Y-32.8990
G01 X30.5046 Y-32.8985
G01 X39.0243 Y-32.8985
G01 X39.0383 Y-32.8990
G01 X39.0567 Y-32.9012
G01 X39.0748 Y-32.9051
G01 X39.1520 Y-32.9278
G01 X39.1699 Y-32.9345
G01 X39.1871 Y-32.9430
G01 X39.2033 Y-32.9531
G01 X39.2111 Y-32.9587
G01 X39.2358 Y-32.9786
G01 X39.2476 Y-32.9889
G01 X42.2491 Y-35.9903
G01 X42.2640 Y-36.0062
G01 X42.2865 Y-36.0320
G01 X42.3289 Y-36.0621
G01 X42.3682 Y-36.0929
G01 X42.3812 Y-36.1003
G01 X42.3839 Y-36.1019
G01 X42.4365 Y-36.1226
G01 X42.4821 Y-36.1431
G01 X42.4995 Y-36.1481
G01 X42.5490 Y-36.1546
G01 X42.6001 Y-36.1639
G01 X42.6388 Y-36.1617
G01 X42.6573 Y-36.1611
G01 X51.1205 Y-36.1611
G01 X51.1344 Y-36.1616
G01 X51.1483 Y-36.1631
G01 X51.1619 Y-36.1656
G01 X51.1710 Y-36.1678
G01 X51.2482 Y-36.1904
G01 X51.2618 Y-36.1954
G01 X51.2707 Y-36.1993
G01 X51.2794 Y-36.2035
G01 X51.2920 Y-36.2108
G01 X51.3040 Y-36.2189
G01 X51.3117 Y-36.2249
G01 X51.3190 Y-36.2312
G01 X51.3295 Y-36.2413
G01 X51.3825 Y-36.3021
G01 X51.3887 Y-36.3096
G01 X51.3973 Y-36.3214
G01 X51.4049 Y-36.3339
G01 X51.4095 Y-36.3425
G01 X51.4155 Y-36.3558
G01 X51.4206 Y-36.3695
G01 X51.4257 Y-36.3883
G01 X51.4380 Y-36.4452
G01 X51.4406 Y-36.4636
G01 X51.4414 Y-36.4775
G01 X51.4415 Y-36.6352
G01 X51.4445 Y-36.6625
G01 X51.4772 Y-36.7497
G01 X51.5310 Y-36.8216
G01 X51.6072 Y-36.8787
G01 X51.6250 Y-36.8889
G01 X51.6364 Y-36.8969
G01 X51.6437 Y-36.9026
G01 X51.6574 Y-36.9151
G01 X51.7142 Y-36.9724
G01 X51.7205 Y-36.9797
G01 X51.7293 Y-36.9913
G01 X51.7347 Y-36.9994
G01 X51.7419 Y-37.0120
G01 X51.7462 Y-37.0207
G01 X51.7519 Y-37.0340
G01 X51.7565 Y-37.0478
G01 X51.7601 Y-37.0619
G01 X51.7769 Y-37.1408
G01 X51.7791 Y-37.1601
G01 X51.7795 Y-37.1699
G01 X51.7792 Y-37.1844
G01 X51.7777 Y-37.1990
G01 X51.7762 Y-37.2086
G01 X51.7716 Y-37.2275
G01 X51.7455 Y-37.3030
G01 X51.7381 Y-37.3201
G01 X51.7315 Y-37.3324
G01 X51.7266 Y-37.3404
G01 X51.6031 Y-37.5216
G01 X51.5156 Y-37.7100
G01 X51.5038 Y-37.7525
G01 X51.6315 Y-37.7525
G01 X51.6437 Y-37.7184
G01 X51.6490 Y-37.7050
G01 X51.6909 Y-37.6164
G01 X51.6975 Y-37.6037
G01 X51.7530 Y-37.5115
G01 X51.8169 Y-37.4250
G01 X51.8262 Y-37.4140
G01 X51.8954 Y-37.3380
G01 X51.9714 Y-37.2688
G01 X51.9862 Y-37.2566
G01 X52.0610 Y-37.2011
G01 X52.0729 Y-37.1930
G01 X52.1653 Y-37.1378
G01 X52.2581 Y-37.0937
G01 X52.2758 Y-37.0863
G01 X52.3726 Y-37.0519
G01 X52.4723 Y-37.0267
G01 X52.4911 Y-37.0230
G01 X52.5928 Y-37.0081
G01 X52.7050 Y-37.0026
G01 X52.8172 Y-37.0081
G01 X52.9189 Y-37.0230
G01 X52.9377 Y-37.0267
G01 X53.0374 Y-37.0519
G01 X53.1342 Y-37.0863
G01 X53.1519 Y-37.0937
G01 X53.2447 Y-37.1378
G01 X53.3371 Y-37.1930
G01 X53.3490 Y-37.2011
G01 X53.4238 Y-37.2566
G01 X53.4386 Y-37.2688
G01 X53.5146 Y-37.3380
G01 X53.5838 Y-37.4140
G01 X53.5931 Y-37.4250
G01 X53.6570 Y-37.5115
G01 X53.7125 Y-37.6037
G01 X53.7191 Y-37.6164
G01 X53.7610 Y-37.7050
G01 X53.7663 Y-37.7184
G01 X53.7785 Y-37.7525
G01 X53.9081 Y-37.7525
G01 X53.9047 Y-37.7392
G01 X53.8219 Y-37.5487
G01 X53.7085 Y-37.3735
G01 X53.6991 Y-37.3614
G01 X53.6915 Y-37.3498
G01 X53.6826 Y-37.3335
G01 X53.6515 Y-37.2696
G01 X53.6457 Y-37.2563
G01 X53.6408 Y-37.2427
G01 X53.6359 Y-37.2239
G01 X53.6335 Y-37.2096
G01 X53.6320 Y-37.1903
G01 X53.6319 Y-37.1806
G01 X53.6327 Y-37.1661
G01 X53.6423 Y-37.0860
G01 X53.6460 Y-37.0670
G01 X53.6516 Y-37.0484
G01 X53.6590 Y-37.0305
G01 X53.6681 Y-37.0135
G01 X53.6760 Y-37.0013
G01 X53.6818 Y-36.9935
G01 X53.7330 Y-36.9314
G01 X53.7392 Y-36.9246
G01 X53.7492 Y-36.9149
G01 X53.7635 Y-36.9031
G01 X53.7788 Y-36.8926
G01 X53.7929 Y-36.8841
G01 X53.8028 Y-36.8787
G01 X53.8790 Y-36.8216
G01 X53.9328 Y-36.7497
G01 X53.9655 Y-36.6625
G01 X53.9685 Y-36.6352
G01 X53.9685 Y-36.4821
G01 X53.9687 Y-36.4728
G01 X53.9699 Y-36.4590
G01 X53.9720 Y-36.4452
G01 X53.9751 Y-36.4317
G01 X53.9994 Y-36.3498
G01 X54.0066 Y-36.3319
G01 X54.0156 Y-36.3148
G01 X54.0235 Y-36.3025
G01 X54.0353 Y-36.2872
G01 X54.0452 Y-36.2765
G01 X54.0522 Y-36.2698
G01 X54.1132 Y-36.2170
G01 X54.1248 Y-36.2081
G01 X54.1413 Y-36.1977
G01 X54.1587 Y-36.1890
G01 X54.1723 Y-36.1836
G01 X54.1862 Y-36.1793
G01 X54.1957 Y-36.1770
G01 X54.2526 Y-36.1646
G01 X54.2710 Y-36.1620
G01 X54.2895 Y-36.1611
G01 X55.1285 Y-36.1611
G01 X55.1503 Y-36.1619
G01 X55.1845 Y-36.1642
G01 X55.2358 Y-36.1555
G01 X55.2853 Y-36.1494
G01 X55.2997 Y-36.1455
G01 X55.3027 Y-36.1447
G01 X55.3546 Y-36.1221
G01 X55.4013 Y-36.1044
G01 X55.4171 Y-36.0956
G01 X55.4568 Y-36.0653
G01 X55.4995 Y-36.0356
G01 X55.5252 Y-36.0067
G01 X55.5379 Y-35.9933
G01 X56.6694 Y-34.8619
G01 X56.6798 Y-34.8527
G01 X56.6871 Y-34.8469
G01 X56.6985 Y-34.8390
G01 X56.7105 Y-34.8319
G01 X56.7814 Y-34.7934
G01 X56.7992 Y-34.7859
G01 X56.8177 Y-34.7802
G01 X56.8319 Y-34.7771
G01 X56.8463 Y-34.7750
G01 X56.8608 Y-34.7741
G01 X56.8753 Y-34.7742
G01 X56.9606 Y-34.7805
G01 X56.9702 Y-34.7819
G01 X56.9844 Y-34.7849
G01 X57.0029 Y-34.7906
G01 X57.0164 Y-34.7960
G01 X57.0294 Y-34.8024
G01 X57.0420 Y-34.8097
G01 X57.0539 Y-34.8180
G01 X57.1181 Y-34.8663
G01 X57.1287 Y-34.8757
G01 X57.1353 Y-34.8824
G01 X57.1475 Y-34.8966
G01 X57.1531 Y-34.9041
G01 X57.1609 Y-34.9159
G01 X57.1655 Y-34.9241
G01 X57.1717 Y-34.9367
G01 X57.1771 Y-34.9498
G01 X57.2050 Y-35.0270
G01 X57.2098 Y-35.0454
G01 X57.2121 Y-35.0595
G01 X57.2132 Y-35.0689
G01 X57.2147 Y-35.0944
G01 X57.2585 Y-35.2890
G01 X57.3055 Y-35.4046
G01 X57.3970 Y-35.3130
G01 X57.3722 Y-35.2429
G01 X57.3470 Y-35.1433
G01 X57.3444 Y-35.1292
G01 X57.3314 Y-35.0418
G01 X57.3299 Y-35.0276
G01 X57.3250 Y-34.9250
G01 X57.3296 Y-34.8272
G01 X57.3314 Y-34.8082
G01 X57.3444 Y-34.7208
G01 X57.3470 Y-34.7067
G01 X57.3696 Y-34.6164
G01 X57.3752 Y-34.5981
G01 X57.4084 Y-34.5060
G01 X57.4500 Y-34.4174
G01 X57.4590 Y-34.4005
G01 X57.5095 Y-34.3167
G01 X57.5677 Y-34.2379
G01 X57.5766 Y-34.2267
G01 X57.6457 Y-34.1507
G01 X57.7181 Y-34.0848
G01 X57.7329 Y-34.0727
G01 X57.8117 Y-34.0145
G01 X57.8955 Y-33.9640
G01 X57.9124 Y-33.9550
G01 X58.0010 Y-33.9134
G01 X58.0931 Y-33.8802
G01 X58.1114 Y-33.8746
G01 X58.2064 Y-33.8510
G01 X58.3032 Y-33.8364
G01 X58.3222 Y-33.8346
G01 X58.4200 Y-33.8300
G01 X58.5178 Y-33.8346
G01 X58.5368 Y-33.8364
G01 X58.6336 Y-33.8510
G01 X58.7379 Y-33.8772
G01 X58.8390 Y-33.9134
G01 X58.9362 Y-33.9593
G01 X59.0203 Y-34.0094
G01 X59.0362 Y-34.0201
G01 X59.1147 Y-34.0786
G01 X59.1874 Y-34.1441
G01 X59.2009 Y-34.1576
G01 X59.2602 Y-34.2231
G01 X59.2723 Y-34.2379
G01 X59.3305 Y-34.3167
G01 X59.3834 Y-34.4046
G01 X59.3900 Y-34.4174
G01 X59.4316 Y-34.5060
G01 X59.4678 Y-34.6071
G01 X59.4940 Y-34.7114
G01 X59.5086 Y-34.8082
G01 X59.5101 Y-34.8224
G01 X59.5150 Y-34.9250
G01 X59.5104 Y-35.0228
G01 X59.5086 Y-35.0418
G01 X59.4956 Y-35.1292
G01 X59.4919 Y-35.1480
G01 X59.4678 Y-35.2429
G01 X59.4430 Y-35.3130
G01 X59.5356 Y-35.4056
G01 X59.5517 Y-35.3731
G01 X59.6097 Y-35.1822
G01 X59.6279 Y-35.0442
G01 X59.6305 Y-35.0305
G01 X59.6356 Y-35.0126
G01 X59.6423 Y-34.9953
G01 X59.6710 Y-34.9304
G01 X59.6773 Y-34.9173
G01 X59.6873 Y-34.9007
G01 X59.6958 Y-34.8890
G01 X59.7052 Y-34.8779
G01 X59.7154 Y-34.8675
G01 X59.7263 Y-34.8580
G01 X59.7379 Y-34.8492
G01 X59.8012 Y-34.8074
G01 X59.8179 Y-34.7976
G01 X59.8354 Y-34.7894
G01 X59.8537 Y-34.7831
G01 X59.8726 Y-34.7786
G01 X59.8917 Y-34.7759
G01 X59.9062 Y-34.7752
G01 X59.9868 Y-34.7745
G01 X60.0060 Y-34.7761
G01 X60.0248 Y-34.7797
G01 X60.0387 Y-34.7835
G01 X60.0478 Y-34.7867
G01 X60.0654 Y-34.7943
G01 X60.0781 Y-34.8011
G01 X60.1374 Y-34.8359
G01 X60.1498 Y-34.8442
G01 X60.1577 Y-34.8503
G01 X60.1653 Y-34.8568
G01 X60.1725 Y-34.8637
G01 X62.5634 Y-37.2546
G01 X62.5729 Y-37.2648
G01 X62.5844 Y-37.2794
G01 X62.5944 Y-37.2950
G01 X62.6307 Y-37.3614
G01 X62.6391 Y-37.3786
G01 X62.6457 Y-37.3966
G01 X62.6505 Y-37.4151
G01 X62.6529 Y-37.4292
G01 X62.6568 Y-37.4660
G01 X62.6575 Y-37.4816
G01 X62.6575 Y-38.6040
G01 X62.6769 Y-38.6258
G01 X62.7000 Y-38.6569
G01 X62.7199 Y-38.6902
G01 X62.7326 Y-38.7165
G01 X62.7399 Y-38.7342
G01 X62.7481 Y-38.7572
G01 X62.7509 Y-38.7663
G01 X62.7589 Y-38.7994
G01 X62.7641 Y-38.8330
G01 X62.7653 Y-38.8473
G01 X62.7665 Y-38.8764
G01 X62.7665 Y-39.4948
G01 X67.7707 Y-44.4989
G01 X69.8773 Y-44.4989
G01 X70.9245 Y-43.4517
G01 X70.9303 Y-43.4444
G01 X70.9392 Y-43.4287
G01 X70.9600 Y-43.3761
G01 X70.9805 Y-43.3305
G01 X70.9854 Y-43.3131
G01 X70.9920 Y-43.2636
G01 X71.0013 Y-43.2125
G01 X70.9990 Y-43.1739
G01 X70.9985 Y-43.1554
G01 X70.9985 Y-26.6989
G01 X70.9992 Y-26.6771
G01 X71.0016 Y-26.6429
G01 X70.9929 Y-26.5916
G01 X70.9868 Y-26.5421
G01 X70.9820 Y-26.5247
G01 X70.9620 Y-26.4789
G01 X70.9418 Y-26.4261
G01 X70.9403 Y-26.4233
G01 X70.9330 Y-26.4103
G01 X70.9027 Y-26.3706
G01 X70.8730 Y-26.3279
G01 X70.8441 Y-26.3022
G01 X70.8307 Y-26.2895
G01 X69.9343 Y-25.3930
G01 X69.9250 Y-25.3826
G01 X69.9193 Y-25.3753
G01 X69.9139 Y-25.3677
G01 X69.9065 Y-25.3559
G01 X69.8680 Y-25.2854
G01 X69.8601 Y-25.2679
G01 X69.8539 Y-25.2498
G01 X69.8515 Y-25.2405
G01 X69.8488 Y-25.2265
G01 X69.8441 Y-25.1850
G01 X69.8435 Y-25.1693
G01 X69.8435 Y-23.7774
G01 X69.8405 Y-23.7501
G01 X69.8078 Y-23.6629
G01 X69.7769 Y-23.6216
G01 X69.7234 Y-23.5681
G01 X69.6821 Y-23.5372
G01 X69.5949 Y-23.5045
G01 X69.5676 Y-23.5015
G01 X67.5924 Y-23.5015
G01 X67.5651 Y-23.5045
G01 X67.4779 Y-23.5372
G01 X67.4060 Y-23.5910
G01 X67.3522 Y-23.6629
G01 X67.3195 Y-23.7501
G01 X67.3165 Y-23.7774
G01 X67.3165 Y-25.7526
G01 X67.3195 Y-25.7799
G01 X67.3522 Y-25.8671
G01 X67.4060 Y-25.9390
G01 X67.4784 Y-25.9932
G01 X67.4879 Y-25.9975
G01 X67.4961 Y-26.0018
G01 X67.5120 Y-26.0115
G01 X67.5763 Y-26.0595
G01 X67.5876 Y-26.0687
G01 X67.5981 Y-26.0786
G01 X67.6079 Y-26.0893
G01 X67.6169 Y-26.1008
G01 X67.6250 Y-26.1128
G01 X67.6299 Y-26.1212
G01 X67.6384 Y-26.1386
G01 X67.6683 Y-26.2187
G01 X67.6725 Y-26.2326
G01 X67.6756 Y-26.2468
G01 X67.6777 Y-26.2612
G01 X67.6787 Y-26.2756
G01 X67.6788 Y-26.2853
G01 X67.6780 Y-26.2998
G01 X67.6762 Y-26.3142
G01 X67.6743 Y-26.3237
G01 X67.6568 Y-26.4024
G01 X67.6510 Y-26.4205
G01 X67.6433 Y-26.4380
G01 X67.6365 Y-26.4506
G01 X67.6287 Y-26.4626
G01 X67.6035 Y-26.4971
G01 X67.5957 Y-26.5065
G01 X67.4781 Y-26.6790
G01 X67.4035 Y-26.8397
G01 X67.4737 Y-26.9099
G01 X67.5065 Y-26.9099
G01 X67.5187 Y-26.8758
G01 X67.5240 Y-26.8624
G01 X67.5680 Y-26.7695
G01 X67.5749 Y-26.7569
G01 X67.6228 Y-26.6770
G01 X67.6307 Y-26.6649
G01 X67.6890 Y-26.5862
G01 X67.7012 Y-26.5714
G01 X67.7704 Y-26.4954
G01 X67.8500 Y-26.4230
G01 X67.8612 Y-26.4140
G01 X67.9439 Y-26.3530
G01 X68.0319 Y-26.2999
G01 X68.0488 Y-26.2909
G01 X68.1418 Y-26.2472
G01 X68.2385 Y-26.2123
G01 X68.2568 Y-26.2068
G01 X68.3473 Y-26.1841
G01 X68.3613 Y-26.1811
G01 X68.4583 Y-26.1667
G01 X68.4773 Y-26.1648
G01 X68.5800 Y-26.1600
G01 X68.6827 Y-26.1648
G01 X68.7017 Y-26.1667
G01 X68.8034 Y-26.1820
G01 X68.9124 Y-26.2093
G01 X69.0182 Y-26.2472
G01 X69.1112 Y-26.2909
G01 X69.1281 Y-26.2999
G01 X69.2161 Y-26.3530
G01 X69.2988 Y-26.4140
G01 X69.3136 Y-26.4262
G01 X69.3862 Y-26.4920
G01 X69.3962 Y-26.5023
G01 X69.4588 Y-26.5714
G01 X69.4710 Y-26.5862
G01 X69.5320 Y-26.6689
G01 X69.5898 Y-26.7653
G01 X69.6378 Y-26.8668
G01 X69.6727 Y-26.9635
G01 X69.6782 Y-26.9818
G01 X69.7030 Y-27.0816
G01 X69.7195 Y-27.1928
G01 X69.7248 Y-27.2954
G01 X69.7248 Y-27.3146
G01 X69.7195 Y-27.4172
G01 X69.7046 Y-27.5189
G01 X69.7009 Y-27.5377
G01 X69.6757 Y-27.6374
G01 X69.6421 Y-27.7321
G01 X69.8775 Y-27.9675
G01 X69.8870 Y-27.9777
G01 X69.8957 Y-27.9885
G01 X69.9036 Y-28.0000
G01 X69.9107 Y-28.0119
G01 X69.9470 Y-28.0785
G01 X69.9549 Y-28.0959
G01 X69.9597 Y-28.1094
G01 X69.9645 Y-28.1280
G01 X69.9669 Y-28.1421
G01 X69.9704 Y-28.1736
G01 X69.9712 Y-28.1840
G01 X69.9715 Y-28.1945
G01 X69.9713 Y-28.6806
G01 X69.9695 Y-28.6990
G01 X69.9670 Y-28.7127
G01 X69.9649 Y-28.7218
G01 X69.9422 Y-28.7990
G01 X69.9354 Y-28.8171
G01 X69.9291 Y-28.8302
G01 X69.9192 Y-28.8469
G01 X69.9078 Y-28.8625
G01 X69.8948 Y-28.8769
G01 X69.8842 Y-28.8868
G01 X69.8268 Y-28.9364
G01 X69.8113 Y-28.9480
G01 X69.7989 Y-28.9556
G01 X69.7860 Y-28.9623
G01 X69.7727 Y-28.9680
G01 X69.7543 Y-28.9740
G01 X69.7401 Y-28.9773
G01 X69.6555 Y-28.9896
G01 X69.6410 Y-28.9908
G01 X69.6264 Y-28.9909
G01 X69.6118 Y-28.9899
G01 X69.5974 Y-28.9878
G01 X69.5832 Y-28.9846
G01 X69.5692 Y-28.9804
G01 X69.5556 Y-28.9752
G01 X69.4955 Y-28.9493
G01 X69.4870 Y-28.9455
G01 X69.4747 Y-28.9389
G01 X69.4628 Y-28.9315
G01 X69.4516 Y-28.9232
G01 X69.3184 Y-28.8181
G01 X69.3078 Y-28.8091
G01 X69.3011 Y-28.8026
G01 X69.2917 Y-28.7924
G01 X69.2829 Y-28.7816
G01 X69.2364 Y-28.7159
G01 X69.2264 Y-28.6993
G01 X69.2181 Y-28.6818
G01 X69.2146 Y-28.6728
G01 X69.2102 Y-28.6590
G01 X69.2069 Y-28.6448
G01 X69.2053 Y-28.6353
G01 X69.2037 Y-28.6208
G01 X69.2009 Y-28.5609
G01 X69.0071 Y-28.3671
G01 X68.9124 Y-28.4007
G01 X68.8034 Y-28.4280
G01 X68.6922 Y-28.4445
G01 X68.5800 Y-28.4500
G01 X68.4678 Y-28.4445
G01 X68.3566 Y-28.4280
G01 X68.2476 Y-28.4007
G01 X68.1463 Y-28.3646
G01 X68.1331 Y-28.3590
G01 X68.0403 Y-28.3148
G01 X67.9439 Y-28.2570
G01 X67.8536 Y-28.1901
G01 X67.7773 Y-28.1212
G01 X67.7670 Y-28.1112
G01 X67.6949 Y-28.0314
G01 X67.6335 Y-27.9490
G01 X67.6254 Y-27.9371
G01 X67.5749 Y-27.8531
G01 X67.5680 Y-27.8405
G01 X67.5240 Y-27.7476
G01 X67.5187 Y-27.7342
G01 X67.5065 Y-27.7001
G01 X67.3052 Y-27.7000
G01 X67.2713 Y-27.6982
G01 X67.2423 Y-27.6941
G01 X67.2282 Y-27.6915
G01 X67.1953 Y-27.6831
G01 X67.1677 Y-27.6735
G01 X67.1544 Y-27.6681
G01 X67.1238 Y-27.6534
G01 X67.0945 Y-27.6361
G01 X67.0827 Y-27.6280
G01 X67.0594 Y-27.6104
G01 X67.0376 Y-27.5910
G01 X66.3956 Y-26.9494
G01 X66.3758 Y-26.9279
G01 X66.3666 Y-26.9169
G01 X66.3492 Y-26.8935
G01 X66.3395 Y-26.8783
G01 X56.2636 Y-16.8024
G01 X56.2487 Y-16.7864
G01 X56.2261 Y-16.7606
G01 X56.1837 Y-16.7305
G01 X56.1444 Y-16.6997
G01 X56.1287 Y-16.6908
G01 X56.0869 Y-16.6745
G01 X56.0651 Y-16.6651
G01 X56.0528 Y-16.6586
G01 X56.0410 Y-16.6513
G01 X56.0297 Y-16.6431
G01 X56.0225 Y-16.6372
G01 X55.9687 Y-16.5909
G01 X55.9580 Y-16.5811
G01 X55.9450 Y-16.5667
G01 X55.9335 Y-16.5512
G01 X55.9236 Y-16.5345
G01 X55.9153 Y-16.5170
G01 X55.9089 Y-16.4987
G01 X55.8873 Y-16.4260
G01 X55.8832 Y-16.4071
G01 X55.8809 Y-16.3879
G01 X55.8805 Y-16.3734
G01 X55.8808 Y-16.3637
G01 X55.8822 Y-16.3492
G01 X55.8847 Y-16.3349
G01 X55.8882 Y-16.3208
G01 X55.9108 Y-16.2434
G01 X55.9180 Y-16.2254
G01 X55.9270 Y-16.2082
G01 X55.9376 Y-16.1920
G01 X55.9465 Y-16.1806
G01 X55.9530 Y-16.1734
G01 X55.9669 Y-16.1600
G01 X56.0241 Y-16.1101
G01 X56.0358 Y-16.1011
G01 X56.0439 Y-16.0957
G01 X56.0609 Y-16.0860
G01 X56.0788 Y-16.0781
G01 X56.0880 Y-16.0748
G01 X56.1021 Y-16.0707
G01 X56.1689 Y-16.0563
G01 X56.1828 Y-16.0544
G01 X56.1968 Y-16.0536
G01 X64.7082 Y-16.0535
G01 X64.7376 Y-16.0549
G01 X64.7614 Y-16.0574
G01 X64.7924 Y-16.0547
G01 X64.8083 Y-16.0537
G01 X64.8458 Y-16.0500
G01 X64.9246 Y-16.0431
G01 X64.9943 Y-16.0221
G01 X65.0084 Y-16.0184
G01 X65.0228 Y-16.0158
G01 X65.0325 Y-16.0146
G01 X65.0520 Y-16.0138
G01 X65.1314 Y-16.0144
G01 X65.1508 Y-16.0160
G01 X65.1652 Y-16.0185
G01 X65.1794 Y-16.0220
G01 X65.2350 Y-16.0396
G01 X65.3591 Y-16.0535
G01 X66.2051 Y-16.0535
G01 X66.2236 Y-16.0544
G01 X66.2420 Y-16.0570
G01 X66.2600 Y-16.0614
G01 X66.3281 Y-16.0814
G01 X66.3417 Y-16.0859
G01 X66.3550 Y-16.0915
G01 X66.3719 Y-16.1004
G01 X66.3880 Y-16.1108
G01 X66.4165 Y-16.1336
G01 X66.4283 Y-16.1439
G01 X67.3257 Y-17.0413
G01 X67.3350 Y-17.0517
G01 X67.3407 Y-17.0590
G01 X67.3461 Y-17.0665
G01 X67.3535 Y-17.0783
G01 X67.3920 Y-17.1489
G01 X67.3999 Y-17.1663
G01 X67.4061 Y-17.1845
G01 X67.4104 Y-17.2031
G01 X67.4119 Y-17.2125
G01 X67.4154 Y-17.2441
G01 X67.4164 Y-17.2597
G01 X67.4165 Y-18.0326
G01 X67.4195 Y-18.0599
G01 X67.4522 Y-18.1471
G01 X67.5060 Y-18.2190
G01 X67.5779 Y-18.2728
G01 X67.6737 Y-18.3088
G01 X67.6865 Y-18.3145
G01 X67.7027 Y-18.3234
G01 X67.7181 Y-18.3338
G01 X67.7787 Y-18.3794
G01 X67.7933 Y-18.3922
G01 X67.8065 Y-18.4063
G01 X67.8183 Y-18.4217
G01 X67.8261 Y-18.4339
G01 X67.8329 Y-18.4467
G01 X67.8388 Y-18.4600
G01 X67.8652 Y-18.5311
G01 X67.8698 Y-18.5449
G01 X67.8722 Y-18.5543
G01 X67.8750 Y-18.5685
G01 X67.8771 Y-18.5878
G01 X67.8774 Y-18.6023
G01 X67.8770 Y-18.6120
G01 X67.8747 Y-18.6312
G01 X67.8577 Y-18.7100
G01 X67.8541 Y-18.7239
G01 X67.8495 Y-18.7375
G01 X67.8440 Y-18.7507
G01 X67.8374 Y-18.7634
G01 X67.8300 Y-18.7757
G01 X67.8245 Y-18.7835
G01 X67.8051 Y-18.8100
G01 X67.7956 Y-18.8219
G01 X67.7888 Y-18.8295
G01 X67.6731 Y-18.9506
G01 X67.5653 Y-19.1086
G01 X67.5062 Y-19.2360
G01 X67.6375 Y-19.2360
G01 X67.6541 Y-19.2009
G01 X67.6607 Y-19.1882
G01 X67.7085 Y-19.1084
G01 X67.7166 Y-19.0966
G01 X67.7663 Y-19.0296
G01 X67.7753 Y-19.0184
G01 X67.8411 Y-18.9461
G01 X67.9098 Y-18.8835
G01 X67.9246 Y-18.8713
G01 X67.9916 Y-18.8216
G01 X68.0075 Y-18.8110
G01 X68.0874 Y-18.7634
G01 X68.1713 Y-18.7234
G01 X68.1890 Y-18.7161
G01 X68.2676 Y-18.6880
G01 X68.2859 Y-18.6824
G01 X68.3761 Y-18.6601
G01 X68.4728 Y-18.6456
G01 X68.4871 Y-18.6443
G01 X68.5800 Y-18.6400
G01 X68.6729 Y-18.6443
G01 X68.6919 Y-18.6462
G01 X68.7839 Y-18.6601
G01 X68.8741 Y-18.6824
G01 X68.8924 Y-18.6880
G01 X68.9755 Y-18.7178
G01 X68.9887 Y-18.7234
G01 X69.0726 Y-18.7634
G01 X69.1525 Y-18.8110
G01 X69.1645 Y-18.8188
G01 X69.2354 Y-18.8713
G01 X69.2466 Y-18.8803
G01 X69.3155 Y-18.9427
G01 X69.3255 Y-18.9530
G01 X69.3553 Y-18.9859
G01 X69.4397 Y-18.9016
G01 X69.3650 Y-18.8194
G01 X69.3591 Y-18.8123
G01 X69.3509 Y-18.8011
G01 X69.3435 Y-18.7893
G01 X69.3390 Y-18.7811
G01 X69.3059 Y-18.7131
G01 X69.3000 Y-18.6998
G01 X69.2952 Y-18.6861
G01 X69.2903 Y-18.6674
G01 X69.2873 Y-18.6483
G01 X69.2863 Y-18.6338
G01 X69.2867 Y-18.6144
G01 X69.2974 Y-18.5247
G01 X69.2992 Y-18.5152
G01 X69.3029 Y-18.5011
G01 X69.3094 Y-18.4829
G01 X69.3154 Y-18.4697
G01 X69.3200 Y-18.4611
G01 X69.3276 Y-18.4488
G01 X69.3362 Y-18.4370
G01 X69.3908 Y-18.3710
G01 X69.4012 Y-18.3605
G01 X69.4162 Y-18.3478
G01 X69.4242 Y-18.3420
G01 X69.4366 Y-18.3341
G01 X69.4800 Y-18.3116
G01 X69.4928 Y-18.3063
G01 X69.5821 Y-18.2728
G01 X69.6540 Y-18.2190
G01 X69.7078 Y-18.1471
G01 X69.7405 Y-18.0599
G01 X69.7435 Y-18.0326
G01 X69.7435 Y-16.2574
G01 X69.7405 Y-16.2301
G01 X69.7078 Y-16.1429
G01 X69.6540 Y-16.0710
G01 X69.5821 Y-16.0172
G01 X69.4949 Y-15.9845
G01 X69.4676 Y-15.9815
G01 X68.6906 Y-15.9813
G01 X68.6722 Y-15.9795
G01 X68.6540 Y-15.9760
G01 X68.5723 Y-15.9522
G01 X68.5588 Y-15.9473
G01 X68.5457 Y-15.9415
G01 X68.5330 Y-15.9346
G01 X68.5249 Y-15.9296
G01 X68.5132 Y-15.9213
G01 X68.4885 Y-15.9014
G01 X68.4805 Y-15.8947
G01 X68.4729 Y-15.8875
G01 X67.2940 Y-14.7085
G01 X67.2741 Y-14.6867
G01 X67.2590 Y-14.6681
G01 X67.2352 Y-14.6481
G01 X67.2233 Y-14.6376
G01 X67.1944 Y-14.6138
G01 X67.1323 Y-14.5617
G01 X67.1150 Y-14.5486
G01 X67.1010 Y-14.5359
G01 X67.0882 Y-14.5219
G01 X67.0468 Y-14.4691
G01 X67.0411 Y-14.4614
G01 X67.0332 Y-14.4494
G01 X67.0262 Y-14.4368
G01 X67.0185 Y-14.4193
G01 X67.0138 Y-14.4057
G01 X67.0091 Y-14.3871
G01 X67.0068 Y-14.3730
G01 X66.9980 Y-14.3025
G01 X66.9967 Y-14.2880
G01 X66.9965 Y-14.2783
G01 X66.9970 Y-14.2637
G01 X66.9986 Y-14.2493
G01 X67.0014 Y-14.2350
G01 X67.0051 Y-14.2209
G01 X67.0082 Y-14.2117
G01 X67.0157 Y-14.1938
G01 X67.0554 Y-14.1165
G01 X67.0651 Y-14.1005
G01 X67.0733 Y-14.0891
G01 X67.0793 Y-14.0819
G01 X67.0888 Y-14.0716
G01 X67.9137 Y-13.2468
G01 X67.9893 Y-13.1547
G01 X68.0647 Y-13.0141
G01 X68.1113 Y-12.8616
G01 X68.1274 Y-12.7029
G01 X68.1124 Y-12.5440
G01 X68.0668 Y-12.3911
G01 X67.9924 Y-12.2500
G01 X67.8920 Y-12.1260
G01 X67.7695 Y-12.0239
G01 X67.6294 Y-11.9475
G01 X67.4772 Y-11.8998
G01 X67.3186 Y-11.8826
G01 X67.1596 Y-11.8965
G01 X67.0064 Y-11.9410
G01 X66.8648 Y-12.0144
G01 X66.7672 Y-12.0923
G01 X64.5237 Y-14.3357
G01 X64.5169 Y-14.3420
G01 X64.5060 Y-14.3507
G01 X64.4907 Y-14.3611
G01 X64.4161 Y-14.4020
G01 X64.4031 Y-14.4081
G01 X64.3851 Y-14.4147
G01 X64.3666 Y-14.4195
G01 X64.3525 Y-14.4219
G01 X64.3157 Y-14.4259
G01 X64.3001 Y-14.4265
G01 X48.2198 Y-14.4265
G01 X48.1012 Y-14.4381
G01 X47.9485 Y-14.4842
G01 X47.8076 Y-14.5591
G01 X47.6840 Y-14.6600
G01 X47.5823 Y-14.7829
G01 X47.5064 Y-14.9232
G01 X47.4593 Y-15.0756
G01 X47.4426 Y-15.2343
G01 X47.4570 Y-15.3932
G01 X47.5021 Y-15.5462
G01 X47.5760 Y-15.6876
G01 X47.6760 Y-15.8119
G01 X47.7982 Y-15.9145
G01 X47.9380 Y-15.9913
G01 X47.9883 Y-16.0075
G01 X48.0012 Y-16.0128
G01 X48.0136 Y-16.0190
G01 X48.0295 Y-16.0287
G01 X48.0884 Y-16.0683
G01 X48.1001 Y-16.0769
G01 X48.1112 Y-16.0863
G01 X48.1215 Y-16.0965
G01 X48.1341 Y-16.1113
G01 X48.1425 Y-16.1231
G01 X48.1500 Y-16.1355
G01 X48.1585 Y-16.1529
G01 X48.1866 Y-16.2181
G01 X48.1902 Y-16.2271
G01 X48.1948 Y-16.2409
G01 X48.1993 Y-16.2597
G01 X48.2014 Y-16.2741
G01 X48.2022 Y-16.2837
G01 X48.2024 Y-16.3031
G01 X48.2018 Y-16.3128
G01 X48.1999 Y-16.3272
G01 X48.1874 Y-16.4020
G01 X48.1829 Y-16.4208
G01 X48.1764 Y-16.4391
G01 X48.1705 Y-16.4523
G01 X48.1635 Y-16.4650
G01 X48.1556 Y-16.4772
G01 X48.1499 Y-16.4850
G01 X48.1405 Y-16.4961
G01 X48.0863 Y-16.5557
G01 X48.0723 Y-16.5685
G01 X48.0609 Y-16.5771
G01 X48.0531 Y-16.5824
G01 X48.0449 Y-16.5873
G01 X48.0323 Y-16.5939
G01 X48.0236 Y-16.5978
G01 X48.0103 Y-16.6028
G01 X47.9354 Y-16.6242
G01 X47.9164 Y-16.6285
G01 X47.8971 Y-16.6310
G01 X47.8825 Y-16.6315
G01 X37.5700 Y-16.6314
G01 X37.5607 Y-16.6310
G01 X37.5469 Y-16.6295
G01 X37.5287 Y-16.6260
G01 X37.4516 Y-16.6036
G01 X37.4333 Y-16.5972
G01 X37.4158 Y-16.5891
G01 X37.4073 Y-16.5844
G01 X37.3951 Y-16.5765
G01 X37.3873 Y-16.5708
G01 X37.3761 Y-16.5615
G01 X37.3624 Y-16.5478
G01 X37.3127 Y-16.4905
G01 X37.3036 Y-16.4792
G01 X37.2980 Y-16.4713
G01 X37.2904 Y-16.4589
G01 X37.2837 Y-16.4460
G01 X37.2798 Y-16.4372
G01 X37.2733 Y-16.4189
G01 X37.2696 Y-16.4049
G01 X37.2678 Y-16.3954
G01 X37.2563 Y-16.3155
G01 X37.2551 Y-16.3010
G01 X37.2550 Y-16.2865
G01 X37.2566 Y-16.2672
G01 X37.2601 Y-16.2482
G01 X37.2654 Y-16.2296
G01 X37.2726 Y-16.2116
G01 X37.3021 Y-16.1470
G01 X37.3109 Y-16.1299
G01 X37.3187 Y-16.1177
G01 X37.3273 Y-16.1060
G01 X37.3335 Y-16.0987
G01 X37.3477 Y-16.0835
G01 X40.1270 Y-13.3043
G01 X40.1410 Y-13.2921
G01 X40.1523 Y-13.2839
G01 X40.1601 Y-13.2789
G01 X40.2389 Y-13.2359
G01 X40.2565 Y-13.2284
G01 X40.2702 Y-13.2239
G01 X40.2888 Y-13.2196
G01 X40.3030 Y-13.2175
G01 X40.3350 Y-13.2141
G01 X40.3507 Y-13.2135
G01 X64.1261 Y-13.2135
G01 X64.1479 Y-13.2142
G01 X64.1821 Y-13.2166
G01 X64.2334 Y-13.2079
G01 X64.2829 Y-13.2018
G01 X64.3003 Y-13.1970
G01 X64.3461 Y-13.1770
G01 X64.3989 Y-13.1568
G01 X64.4147 Y-13.1480
G01 X64.4544 Y-13.1176
G01 X64.4971 Y-13.0880
G01 X64.5228 Y-13.0591
G01 X64.5355 Y-13.0457
G01 X68.0496 Y-9.5316
G01 X68.0633 Y-9.5192
G01 X68.0743 Y-9.5107
G01 X68.0899 Y-9.5007
G01 X68.1563 Y-9.4644
G01 X68.1693 Y-9.4579
G01 X68.1827 Y-9.4524
G01 X68.2012 Y-9.4466
G01 X68.2202 Y-9.4428
G01 X68.2395 Y-9.4408
G01 X68.2588 Y-9.4407
G01 X68.3345 Y-9.4461
G01 X68.3489 Y-9.4476
G01 X68.3679 Y-9.4514
G01 X68.3819 Y-9.4554
G01 X68.3910 Y-9.4587
G01 X68.4087 Y-9.4666
G01 X68.4172 Y-9.4712
G01 X68.4295 Y-9.4789
G01 X68.4943 Y-9.5270
G01 X68.5054 Y-9.5360
G01 X68.5191 Y-9.5492
G01 X68.5285 Y-9.5599
G01 X68.5398 Y-9.5752
G01 X68.5473 Y-9.5874
G01 X68.5558 Y-9.6044
G01 X68.5851 Y-9.6759
G01 X68.5895 Y-9.6899
G01 X68.5918 Y-9.6995
G01 X68.5944 Y-9.7135
G01 X68.6407 Y-9.9190
G01 X68.6971 Y-10.0579
G01 X68.7879 Y-9.9671
G01 X68.7543 Y-9.8724
G01 X68.7270 Y-9.7634
G01 X68.7105 Y-9.6522
G01 X68.7052 Y-9.5496
G01 X68.7052 Y-9.5304
G01 X68.7098 Y-9.4373
G01 X68.7117 Y-9.4183
G01 X68.7270 Y-9.3166
G01 X68.7543 Y-9.2076
G01 X68.7922 Y-9.1018
G01 X68.8359 Y-9.0088
G01 X68.8449 Y-8.9919
G01 X68.8980 Y-8.9039
G01 X68.9649 Y-8.8136
G01 X69.0338 Y-8.7373
G01 X69.0473 Y-8.7238
G01 X69.1164 Y-8.6612
G01 X69.1274 Y-8.6519
G01 X69.2060 Y-8.5935
G01 X69.2220 Y-8.5828
G01 X69.3103 Y-8.5302
G01 X69.4031 Y-8.4860
G01 X69.4208 Y-8.4787
G01 X69.5176 Y-8.4443
G01 X69.6173 Y-8.4191
G01 X69.6361 Y-8.4154
G01 X69.7378 Y-8.4005
G01 X69.8404 Y-8.3952
G01 X69.8596 Y-8.3952
G01 X69.9622 Y-8.4005
G01 X70.0639 Y-8.4154
G01 X70.0827 Y-8.4191
G01 X70.1824 Y-8.4443
G01 X70.2771 Y-8.4779
G01 X70.4682 Y-8.2869
G01 X70.4687 Y-8.2688
G01 X70.4712 Y-8.2496
G01 X70.4891 Y-8.1709
G01 X70.4928 Y-8.1574
G01 X70.4992 Y-8.1397
G01 X70.5072 Y-8.1228
G01 X70.5168 Y-8.1067
G01 X70.5280 Y-8.0916
G01 X70.5707 Y-8.0438
G01 X70.5806 Y-8.0335
G01 X70.5876 Y-8.0271
G01 X70.5987 Y-8.0181
G01 X70.6683 Y-7.9684
G01 X70.8155 Y-7.8217
G01 X70.8626 Y-7.7566
G01 X70.8748 Y-7.7426
G01 X70.8883 Y-7.7299
G01 X70.9514 Y-7.6804
G01 X70.9673 Y-7.6692
G01 X70.9799 Y-7.6619
G01 X70.9974 Y-7.6537
G01 X71.0110 Y-7.6487
G01 X71.0250 Y-7.6447
G01 X71.0392 Y-7.6418
G01 X71.0536 Y-7.6400
G01 X71.1292 Y-7.6331
G01 X71.1485 Y-7.6328
G01 X71.1678 Y-7.6344
G01 X71.1869 Y-7.6379
G01 X71.2055 Y-7.6433
G01 X71.2234 Y-7.6505
G01 X71.2951 Y-7.6876
G01 X71.3038 Y-7.6924
G01 X71.3122 Y-7.6976
G01 X71.3204 Y-7.7033
G01 X71.3282 Y-7.7094
G01 X71.3358 Y-7.7159
G01 X71.3464 Y-7.7263
G01 X71.3603 Y-7.7411
G01 X71.5029 Y-7.9058
G01 X71.6492 Y-8.0273
G01 X71.6626 Y-8.0402
G01 X71.6747 Y-8.0542
G01 X71.6829 Y-8.0655
G01 X71.7277 Y-8.1326
G01 X71.7325 Y-8.1410
G01 X71.7389 Y-8.1540
G01 X71.7443 Y-8.1675
G01 X71.7474 Y-8.1767
G01 X71.7499 Y-8.1860
G01 X71.7529 Y-8.2003
G01 X71.7543 Y-8.2098
G01 X71.7555 Y-8.2243
G01 X71.7572 Y-8.3050
G01 X71.7570 Y-8.3147
G01 X71.7556 Y-8.3291
G01 X71.7522 Y-8.3482
G01 X71.7484 Y-8.3622
G01 X71.7418 Y-8.3804
G01 X71.7356 Y-8.3935
G01 X71.7285 Y-8.4062
G01 X71.6887 Y-8.4709
G01 X71.6831 Y-8.4791
G01 X71.6739 Y-8.4908
G01 X71.6638 Y-8.5018
G01 X71.6567 Y-8.5087
G01 X71.6369 Y-8.5253
G01 X71.5482 Y-8.5919
G01 X71.4047 Y-8.7421
G01 X71.3719 Y-8.7899
G01 X71.3631 Y-8.8007
G01 X71.3502 Y-8.8141
G01 X71.3398 Y-8.8233
G01 X71.2772 Y-8.8742
G01 X71.2693 Y-8.8798
G01 X71.2569 Y-8.8874
G01 X71.2396 Y-8.8960
G01 X71.2261 Y-8.9014
G01 X71.2169 Y-8.9043
G01 X71.2028 Y-8.9080
G01 X71.1933 Y-8.9098
G01 X71.1049 Y-8.9201
G01 X70.9121 Y-9.1129
G01 X70.9457 Y-9.2076
G01 X70.9730 Y-9.3166
G01 X70.9895 Y-9.4278
G01 X70.9950 Y-9.5400
G01 X70.9895 Y-9.6522
G01 X70.9730 Y-9.7634
G01 X70.9457 Y-9.8724
G01 X70.9121 Y-9.9671
G01 X71.1036 Y-10.1586
G01 X71.1184 Y-10.1596
G01 X71.1328 Y-10.1617
G01 X71.2070 Y-10.1770
G01 X71.2208 Y-10.1804
G01 X71.2388 Y-10.1865
G01 X71.2518 Y-10.1922
G01 X71.2684 Y-10.2012
G01 X71.2803 Y-10.2090
G01 X71.2952 Y-10.2207
G01 X71.3398 Y-10.2594
G01 X71.3496 Y-10.2690
G01 X71.5029 Y-10.4458
G01 X71.6628 Y-10.5786
G01 X71.8435 Y-10.6841
G01 X71.8560 Y-10.6902
G01 X71.8704 Y-10.6985
G01 X71.8859 Y-10.7092
G01 X71.9402 Y-10.7509
G01 X71.9513 Y-10.7601
G01 X71.9650 Y-10.7736
G01 X71.9713 Y-10.7809
G01 X71.9801 Y-10.7923
G01 X71.9881 Y-10.8043
G01 X71.9929 Y-10.8126
G01 X72.0012 Y-10.8300
G01 X72.0290 Y-10.9056
G01 X72.0334 Y-10.9192
G01 X72.0368 Y-10.9331
G01 X72.0391 Y-10.9472
G01 X72.0405 Y-10.9614
G01 X72.0409 Y-10.9742
G01 X72.0410 Y-24.7686
G01 X72.0604 Y-24.7903
G01 X72.0835 Y-24.8215
G01 X72.1034 Y-24.8547
G01 X72.1200 Y-24.8898
G01 X72.1331 Y-24.9263
G01 X72.1425 Y-24.9639
G01 X72.1482 Y-25.0023
G01 X72.1501 Y-25.0410
G01 X72.1501 Y-43.1800
G01 X72.1489 Y-43.2092
G01 X72.1477 Y-43.2235
G01 X72.1441 Y-43.2477
G01 X72.1404 Y-43.2664
G01 X72.1344 Y-43.2901
G01 X72.1316 Y-43.2993
G01 X72.1235 Y-43.3223
G01 X72.1181 Y-43.3356
G01 X72.1034 Y-43.3662
G01 X72.0835 Y-43.3995
G01 X72.0604 Y-43.4306
G01 X72.0377 Y-43.4560
G01 X70.3203 Y-45.1734
G01 X70.2916 Y-45.1994
G01 X70.2605 Y-45.2225
G01 X70.2272 Y-45.2425
G01 X70.1922 Y-45.2591
G01 X70.1557 Y-45.2721
G01 X70.1180 Y-45.2815
G01 X70.0797 Y-45.2872
G01 X70.0506 Y-45.2889
G01 X69.3092 Y-46.0302
G01 X69.2952 Y-46.0424
G01 X69.2839 Y-46.0506
G01 X69.2761 Y-46.0556
G01 X69.2015 Y-46.0965
G01 X69.1885 Y-46.1026
G01 X69.1796 Y-46.1061
G01 X69.1660 Y-46.1106
G01 X69.1521 Y-46.1140
G01 X69.1379 Y-46.1164
G01 X69.1064 Y-46.1199
G01 X69.0960 Y-46.1207
G01 X69.0855 Y-46.1210
G01 X55.8994 Y-46.1210
G01 X55.8901 Y-46.1208
G01 X55.8762 Y-46.1196
G01 X55.8625 Y-46.1175
G01 X55.8534 Y-46.1155
G01 X55.7763 Y-46.0931
G01 X55.7626 Y-46.0885
G01 X55.7448 Y-46.0808
G01 X55.7279 Y-46.0713
G01 X55.7120 Y-46.0603
G01 X55.7045 Y-46.0542
G01 X55.6938 Y-46.0443
G01 X55.6839 Y-46.0337
G01 X55.6313 Y-45.9726
G01 X55.6255 Y-45.9648
G01 X55.6175 Y-45.9526
G01 X55.6105 Y-45.9399
G01 X55.6064 Y-45.9312
G01 X55.6027 Y-45.9222
G01 X55.5980 Y-45.9085
G01 X55.5934 Y-45.8897
G01 X55.5817 Y-45.8098
G01 X55.5801 Y-45.7954
G01 X55.5798 Y-45.7760
G01 X55.5803 Y-45.7664
G01 X55.5820 Y-45.7519
G01 X55.5860 Y-45.7330
G01 X55.5918 Y-45.7145
G01 X55.5973 Y-45.7011
G01 X55.6310 Y-45.6278
G01 X55.6382 Y-45.6151
G01 X55.6435 Y-45.6070
G01 X55.6492 Y-45.5992
G01 X55.6584 Y-45.5880
G01 X55.6720 Y-45.5742
G01 X55.6827 Y-45.5649
G01 X55.6906 Y-45.5570
G01 X55.7015 Y-45.5476
G01 X55.7600 Y-45.5026
G01 X55.8027 Y-45.4730
G01 X55.8285 Y-45.4441
G01 X55.8412 Y-45.4307
G01 X60.2621 Y-41.0097
G01 X60.2781 Y-40.9948
G01 X60.3039 Y-40.9722
G01 X60.3340 Y-40.9298
G01 X60.3648 Y-40.8905
G01 X60.3722 Y-40.8776
G01 X60.3737 Y-40.8748
G01 X60.3945 Y-40.8222
G01 X60.4150 Y-40.7767
G01 X60.4199 Y-40.7593
G01 X60.4265 Y-40.7097
G01 X60.4358 Y-40.6586
G01 X60.4335 Y-40.6200
G01 X60.4330 Y-40.6015
G01 X60.4330 Y-38.9934
G01 X60.4338 Y-38.9716
G01 X60.4361 Y-38.9374
G01 X60.4274 Y-38.8861
G01 X60.4213 Y-38.8366
G01 X60.4165 Y-38.8192
G01 X60.3965 Y-38.7734
G01 X60.3763 Y-38.7206
G01 X60.3748 Y-38.7178
G01 X60.3675 Y-38.7048
G01 X60.3372 Y-38.6651
G01 X60.3075 Y-38.6224
G01 X60.2786 Y-38.5967
G01 X60.2652 Y-38.5840
G01 X59.6974 Y-38.0162
G01 X59.6879 Y-38.0060
G01 X59.6792 Y-37.9952
G01 X59.6712 Y-37.9837
G01 X59.6641 Y-37.9718
G01 X59.6301 Y-37.9094
G01 X59.6216 Y-37.8919
G01 X59.6165 Y-37.8783
G01 X59.6123 Y-37.8643
G01 X59.6092 Y-37.8500
G01 X59.6072 Y-37.8355
G01 X59.6062 Y-37.8161
G01 X59.6062 Y-37.7644
G01 X59.6067 Y-37.7500
G01 X59.6077 Y-37.7403
G01 X59.6370 Y-37.5189
G01 X59.6381 Y-37.4706
G01 X59.6213 Y-37.2661
G01 X59.5727 Y-37.0726
G01 X59.4931 Y-36.8896
G01 X59.3847 Y-36.7220
G01 X59.2504 Y-36.5745
G01 X59.0858 Y-36.4444
G01 X59.0787 Y-36.4385
G01 X59.0685 Y-36.4290
G01 X59.0590 Y-36.4188
G01 X59.0503 Y-36.4079
G01 X59.0038 Y-36.3423
G01 X58.9961 Y-36.3299
G01 X58.9916 Y-36.3214
G01 X58.9855 Y-36.3082
G01 X58.9820 Y-36.2992
G01 X58.9764 Y-36.2806
G01 X58.9734 Y-36.2664
G01 X58.9720 Y-36.2568
G01 X58.9708 Y-36.2424
G01 X58.9674 Y-36.1618
G01 X58.9677 Y-36.1521
G01 X58.9690 Y-36.1376
G01 X58.9714 Y-36.1233
G01 X58.9736 Y-36.1136
G01 X58.8080 Y-35.9480
G01 X58.7469 Y-35.9698
G01 X58.7333 Y-35.9742
G01 X58.6430 Y-35.9969
G01 X58.6289 Y-35.9998
G01 X58.5273 Y-36.0147
G01 X58.4200 Y-36.0200
G01 X58.3127 Y-36.0147
G01 X58.2111 Y-35.9998
G01 X58.1970 Y-35.9969
G01 X58.1067 Y-35.9742
G01 X58.0931 Y-35.9698
G01 X58.0320 Y-35.9480
G01 X57.8613 Y-36.1187
G01 X57.8722 Y-36.1773
G01 X57.8740 Y-36.1917
G01 X57.8747 Y-36.2062
G01 X57.8744 Y-36.2207
G01 X57.8729 Y-36.2351
G01 X57.8714 Y-36.2447
G01 X57.8681 Y-36.2589
G01 X57.8622 Y-36.2773
G01 X57.8319 Y-36.3520
G01 X57.8279 Y-36.3606
G01 X57.8212 Y-36.3731
G01 X57.8108 Y-36.3890
G01 X57.8020 Y-36.4002
G01 X57.7924 Y-36.4107
G01 X57.7660 Y-36.4365
G01 X57.7549 Y-36.4465
G01 X57.6116 Y-36.5544
G01 X57.4737 Y-36.6987
G01 X57.3612 Y-36.8635
G01 X57.2772 Y-37.0445
G01 X57.2239 Y-37.2368
G01 X57.2027 Y-37.4352
G01 X57.2142 Y-37.6345
G01 X57.2581 Y-37.8291
G01 X57.3331 Y-38.0140
G01 X57.4374 Y-38.1842
G01 X57.5680 Y-38.3350
G01 X57.7223 Y-38.4631
G01 X57.7352 Y-38.4720
G01 X57.7494 Y-38.4839
G01 X57.7593 Y-38.4937
G01 X57.8113 Y-38.5489
G01 X57.8206 Y-38.5600
G01 X57.8317 Y-38.5759
G01 X57.8389 Y-38.5885
G01 X57.8452 Y-38.6017
G01 X57.8504 Y-38.6152
G01 X57.8547 Y-38.6291
G01 X57.8579 Y-38.6432
G01 X57.8725 Y-38.7226
G01 X57.8742 Y-38.7419
G01 X57.8743 Y-38.7516
G01 X57.8735 Y-38.7661
G01 X57.8725 Y-38.7757
G01 X57.8699 Y-38.7900
G01 X57.8663 Y-38.8041
G01 X57.8634 Y-38.8133
G01 X57.8332 Y-38.8881
G01 X57.8274 Y-38.9011
G01 X57.8206 Y-38.9136
G01 X57.8130 Y-38.9256
G01 X57.8045 Y-38.9370
G01 X57.7952 Y-38.9477
G01 X57.7619 Y-38.9802
G01 X57.7506 Y-38.9899
G01 X57.6116 Y-39.0944
G01 X57.4737 Y-39.2387
G01 X57.3612 Y-39.4035
G01 X57.2772 Y-39.5845
G01 X57.2239 Y-39.7768
G01 X57.2027 Y-39.9752
G01 X57.2142 Y-40.1745
G01 X57.2333 Y-40.2596
G01 X57.2356 Y-40.2733
G01 X57.2365 Y-40.2826
G01 X57.2370 Y-40.2918
G01 X57.2370 Y-40.3058
G01 X57.2314 Y-40.3906
G01 X57.2284 Y-40.4090
G01 X57.2250 Y-40.4226
G01 X57.2190 Y-40.4403
G01 X57.2134 Y-40.4532
G01 X57.2045 Y-40.4696
G01 X57.1675 Y-40.5274
G01 X57.1558 Y-40.5423
G01 X57.1462 Y-40.5526
G01 X55.7580 Y-41.9407
G01 X55.7476 Y-41.9500
G01 X55.7403 Y-41.9557
G01 X55.7289 Y-41.9636
G01 X55.7209 Y-41.9685
G01 X55.6504 Y-42.0070
G01 X55.6374 Y-42.0131
G01 X55.6285 Y-42.0166
G01 X55.6102 Y-42.0223
G01 X55.5915 Y-42.0262
G01 X55.5500 Y-42.0309
G01 X55.5343 Y-42.0315
G01 X36.8981 Y-42.0313
G01 X36.8796 Y-42.0295
G01 X36.8614 Y-42.0260
G01 X36.7751 Y-42.0006
G01 X36.7615 Y-41.9953
G01 X36.7441 Y-41.9867
G01 X36.7317 Y-41.9791
G01 X36.7198 Y-41.9706
G01 X36.7123 Y-41.9645
G01 X36.7016 Y-41.9546
G01 X36.6607 Y-41.9137
G01 X36.6515 Y-41.9034
G01 X36.6458 Y-41.8962
G01 X36.6379 Y-41.8849
G01 X36.5645 Y-41.7714
G01 X36.4247 Y-41.6178
G01 X36.2616 Y-41.4890
G01 X36.0797 Y-41.3886
G01 X35.8839 Y-41.3192
G01 X35.6793 Y-41.2828
G01 X35.4716 Y-41.2802
G01 X35.2662 Y-41.3117
G01 X35.0687 Y-41.3762
G01 X34.8844 Y-41.4722
G01 X34.7182 Y-41.5969
G01 X34.5747 Y-41.7471
G01 X34.4576 Y-41.9188
G01 X34.3701 Y-42.1072
G01 X34.3146 Y-42.3074
G01 X34.2925 Y-42.5140
G01 X34.3045 Y-42.7214
G01 X34.3502 Y-42.9241
G01 X34.4283 Y-43.1166
G01 X34.5369 Y-43.2938
G01 X34.6729 Y-43.4508
G01 X34.8157 Y-43.5693
G01 X34.8227 Y-43.5754
G01 X34.8326 Y-43.5852
G01 X34.8418 Y-43.5956
G01 X34.8503 Y-43.6067
G01 X34.8977 Y-43.6776
G01 X34.9069 Y-43.6946
G01 X34.9143 Y-43.7125
G01 X34.9199 Y-43.7310
G01 X34.9237 Y-43.7500
G01 X34.9255 Y-43.7693
G01 X34.9272 Y-43.8451
G01 X34.9270 Y-43.8597
G01 X34.9250 Y-43.8789
G01 X34.9222 Y-43.8932
G01 X34.9184 Y-43.9072
G01 X34.9118 Y-43.9254
G01 X34.9056 Y-43.9385
G01 X34.8985 Y-43.9512
G01 X34.8614 Y-44.0117
G01 X34.8531 Y-44.0241
G01 X34.8471 Y-44.0320
G01 X34.8406 Y-44.0396
G01 X34.8303 Y-44.0503
G01 X34.8230 Y-44.0570
G01 X34.8103 Y-44.0675
G01 X34.7182 Y-44.1369
G01 X34.5747 Y-44.2871
G01 X34.4576 Y-44.4588
G01 X34.3701 Y-44.6472
G01 X34.3146 Y-44.8474
G01 X34.3069 Y-44.9171
G01 X34.3043 Y-44.9308
G01 X34.3007 Y-44.9442
G01 X34.2945 Y-44.9617
G01 X34.2654 Y-45.0318
G01 X34.2613 Y-45.0405
G01 X34.2543 Y-45.0532
G01 X34.2435 Y-45.0693
G01 X34.2344 Y-45.0806
G01 X34.2245 Y-45.0912
G01 X34.2138 Y-45.1011
G01 X34.2024 Y-45.1101
G01 X34.1321 Y-45.1588
G01 X34.1151 Y-45.1682
G01 X34.0974 Y-45.1759
G01 X34.0836 Y-45.1805
G01 X34.0695 Y-45.1840
G01 X34.0600 Y-45.1858
G01 X34.0456 Y-45.1876
G01 X33.9603 Y-45.1909
G01 X33.9462 Y-45.1906
G01 X33.9322 Y-45.1892
G01 X33.9137 Y-45.1858
G01 X33.9001 Y-45.1822
G01 X33.8825 Y-45.1758
G01 X33.8697 Y-45.1698
G01 X33.7993 Y-45.1300
G01 X33.7835 Y-45.1194
G01 X33.7724 Y-45.1105
G01 X33.7620 Y-45.1008
G01 X33.4036 Y-44.7424
G01 X33.3887 Y-44.7264
G01 X33.3661 Y-44.7006
G01 X33.3237 Y-44.6705
G01 X33.2844 Y-44.6397
G01 X33.2687 Y-44.6308
G01 X33.2161 Y-44.6100
G01 X33.1705 Y-44.5895
G01 X33.1532 Y-44.5846
G01 X33.1036 Y-44.5780
G01 X33.0525 Y-44.5687
G01 X33.0138 Y-44.5710
G01 X32.9954 Y-44.5715
G01 X29.5199 Y-44.5714
G01 X29.5106 Y-44.5710
G01 X29.4967 Y-44.5695
G01 X29.4785 Y-44.5660
G01 X29.3968 Y-44.5422
G01 X29.3787 Y-44.5354
G01 X29.3656 Y-44.5291
G01 X29.3530 Y-44.5218
G01 X29.3371 Y-44.5108
G01 X29.3260 Y-44.5015
G01 X29.3122 Y-44.4878
G01 X29.2563 Y-44.4230
G01 X29.2451 Y-44.4071
G01 X29.2377 Y-44.3945
G01 X29.2295 Y-44.3768
G01 X29.2244 Y-44.3631
G01 X29.2204 Y-44.3490
G01 X29.2080 Y-44.2919
G01 X29.2055 Y-44.2783
G01 X29.2040 Y-44.2644
G01 X29.2035 Y-44.2505
G01 X29.2035 Y-44.0974
G01 X29.2005 Y-44.0701
G01 X29.1678 Y-43.9829
G01 X29.1140 Y-43.9110
G01 X29.0415 Y-43.8567
G01 X29.0326 Y-43.8527
G01 X29.0203 Y-43.8461
G01 X29.0085 Y-43.8387
G01 X29.0010 Y-43.8333
G01 X28.9366 Y-43.7847
G01 X28.9223 Y-43.7716
G01 X28.9126 Y-43.7608
G01 X28.9036 Y-43.7494
G01 X28.8955 Y-43.7373
G01 X28.8883 Y-43.7247
G01 X28.8821 Y-43.7116
G01 X28.8522 Y-43.6315
G01 X28.8480 Y-43.6176
G01 X28.8458 Y-43.6081
G01 X28.8427 Y-43.5890
G01 X28.8417 Y-43.5745
G01 X28.8418 Y-43.5600
G01 X28.8436 Y-43.5407
G01 X28.8461 Y-43.5264
G01 X28.8624 Y-43.4524
G01 X28.8680 Y-43.4339
G01 X28.8753 Y-43.4160
G01 X28.8843 Y-43.3990
G01 X28.8982 Y-43.3770
G01 X29.0268 Y-43.1980
G01 X29.1188 Y-43.0117
G01 X29.1792 Y-42.8129
G01 X29.2071 Y-42.6013
G01 X29.2083 Y-42.5506
G01 X29.1908 Y-42.3379
G01 X29.1402 Y-42.1364
G01 X29.0574 Y-41.9459
G01 X28.9445 Y-41.7714
G01 X28.8047 Y-41.6178
G01 X28.6859 Y-41.5239
G01 X28.6755 Y-41.5146
G01 X28.6658 Y-41.5046
G01 X28.6540 Y-41.4903
G01 X28.6074 Y-41.4246
G01 X28.6022 Y-41.4165
G01 X28.5952 Y-41.4038
G01 X28.5874 Y-41.3861
G01 X28.5826 Y-41.3723
G01 X28.5789 Y-41.3583
G01 X28.5763 Y-41.3440
G01 X28.5748 Y-41.3296
G01 X28.5710 Y-41.2441
G01 X28.5716 Y-41.2296
G01 X28.5741 Y-41.2104
G01 X28.5761 Y-41.2009
G01 X28.5799 Y-41.1869
G01 X28.5847 Y-41.1732
G01 X28.5905 Y-41.1599
G01 X28.5974 Y-41.1471
G01 X28.6330 Y-41.0857
G01 X28.6382 Y-41.0772
G01 X28.6467 Y-41.0651
G01 X28.6562 Y-41.0536
G01 X28.6665 Y-41.0429
G01 X28.6738 Y-41.0363
G01 X28.6912 Y-41.0218
G01 X28.7020 Y-41.0135
G01 X28.7583 Y-40.9734
G01 X28.9055 Y-40.8267
G01 X29.0337 Y-40.6484
G01 X29.0456 Y-40.6342
G01 X29.0520 Y-40.6275
G01 X29.0622 Y-40.6181
G01 X29.1332 Y-40.5627
G01 X29.1454 Y-40.5548
G01 X29.1626 Y-40.5457
G01 X29.1806 Y-40.5384
G01 X29.1993 Y-40.5328
G01 X29.2596 Y-40.5211
G01 X29.2778 Y-40.5190
G01 X29.2916 Y-40.5185
G01 X37.8855 Y-40.5185
G01 X37.8994 Y-40.5190
G01 X37.9087 Y-40.5199
G01 X37.9224 Y-40.5220
G01 X37.9315 Y-40.5240
G01 X38.0086 Y-40.5464
G01 X38.0268 Y-40.5528
G01 X38.0357 Y-40.5566
G01 X38.0487 Y-40.5632
G01 X38.0570 Y-40.5682
G01 X38.0690 Y-40.5763
G01 X38.0840 Y-40.5885
G01 X38.0945 Y-40.5986
G01 X38.1010 Y-40.6058
G01 X38.1475 Y-40.6595
G01 X38.1595 Y-40.6748
G01 X38.1649 Y-40.6829
G01 X38.1723 Y-40.6955
G01 X38.1786 Y-40.7087
G01 X38.1840 Y-40.7223
G01 X38.1883 Y-40.7362
G01 X38.1907 Y-40.7457
G01 X38.2030 Y-40.8026
G01 X38.2051 Y-40.8164
G01 X38.2064 Y-40.8349
G01 X38.2065 Y-40.8926
G01 X38.2095 Y-40.9199
G01 X38.2422 Y-41.0071
G01 X38.2960 Y-41.0790
G01 X38.3679 Y-41.1328
G01 X38.4551 Y-41.1655
G01 X38.4824 Y-41.1685
G01 X40.2576 Y-41.1685
G01 X40.2849 Y-41.1655
G01 X40.3721 Y-41.1328
G01 X40.4440 Y-41.0790
G01 X40.4978 Y-41.0071
G01 X40.5305 Y-40.9199
G01 X40.5335 Y-40.8926
G01 X40.5335 Y-39.1174
G01 X40.5305 Y-39.0901
G01 X40.4978 Y-39.0029
G01 X40.4440 Y-38.9310
G01 X40.3721 Y-38.8772
G01 X40.2749 Y-38.8407
G01 X40.2580 Y-38.8329
G01 X40.2459 Y-38.8261
G01 X40.2306 Y-38.8157
G01 X40.1700 Y-38.7701
G01 X40.1554 Y-38.7573
G01 X40.1453 Y-38.7469
G01 X40.1391 Y-38.7395
G01 X40.1304 Y-38.7278
G01 X40.1251 Y-38.7197
G01 X40.1202 Y-38.7114
G01 X40.1137 Y-38.6984
G01 X40.1081 Y-38.6850
G01 X40.0818 Y-38.6138
G01 X40.0764 Y-38.5952
G01 X40.0736 Y-38.5810
G01 X40.0715 Y-38.5617
G01 X40.0714 Y-38.5427
G01 X40.0478 Y-38.5427
G01 X40.0187 Y-38.5412
G01 X40.0044 Y-38.5396
G01 X39.9802 Y-38.5360
G01 X39.9662 Y-38.5330
G01 X39.9379 Y-38.5257
G01 X39.9059 Y-38.5144
G01 X39.8927 Y-38.5088
G01 X39.8664 Y-38.4961
G01 X39.8331 Y-38.4761
G01 X39.8020 Y-38.4530
G01 X39.7747 Y-38.4284
G01 X39.7610 Y-38.4339
G01 X39.6733 Y-38.4650
G01 X39.5739 Y-38.4899
G01 X39.4724 Y-38.5050
G01 X39.3796 Y-38.5098
G01 X39.3604 Y-38.5098
G01 X39.2771 Y-38.5057
G01 X39.2581 Y-38.5038
G01 X39.1661 Y-38.4899
G01 X39.0759 Y-38.4676
G01 X39.0576 Y-38.4620
G01 X38.9701 Y-38.4305
G01 X38.8774 Y-38.3866
G01 X38.7894 Y-38.3339
G01 X38.7146 Y-38.2787
G01 X38.7034 Y-38.2697
G01 X38.6311 Y-38.2039
G01 X38.5685 Y-38.1352
G01 X38.5592 Y-38.1242
G01 X38.5066 Y-38.0534
G01 X38.4985 Y-38.0416
G01 X38.4507 Y-37.9618
G01 X38.4441 Y-37.9491
G01 X38.4275 Y-37.9140
G01 X38.2970 Y-37.9140
G01 X38.3284 Y-37.9912
G01 X38.4283 Y-38.1542
G01 X38.5537 Y-38.2991
G01 X38.5670 Y-38.3118
G01 X38.5762 Y-38.3222
G01 X38.5873 Y-38.3371
G01 X38.6269 Y-38.3960
G01 X38.6321 Y-38.4042
G01 X38.6392 Y-38.4169
G01 X38.6470 Y-38.4346
G01 X38.6531 Y-38.4530
G01 X38.6573 Y-38.4719
G01 X38.6597 Y-38.4911
G01 X38.6616 Y-38.5814
G01 X38.6611 Y-38.5911
G01 X38.6594 Y-38.6055
G01 X38.6555 Y-38.6245
G01 X38.6513 Y-38.6384
G01 X38.6462 Y-38.6520
G01 X38.6400 Y-38.6652
G01 X38.6329 Y-38.6778
G01 X38.5905 Y-38.7465
G01 X38.5818 Y-38.7582
G01 X38.5755 Y-38.7657
G01 X38.5619 Y-38.7796
G01 X38.5470 Y-38.7920
G01 X38.5351 Y-38.8004
G01 X38.4907 Y-38.8275
G01 X38.4787 Y-38.8342
G01 X38.4662 Y-38.8401
G01 X38.4577 Y-38.8435
G01 X38.3679 Y-38.8772
G01 X38.2960 Y-38.9310
G01 X38.2422 Y-39.0029
G01 X38.2095 Y-39.0901
G01 X38.2065 Y-39.1174
G01 X38.2065 Y-39.1705
G01 X38.2060 Y-39.1844
G01 X38.2045 Y-39.1983
G01 X38.2030 Y-39.2074
G01 X38.1986 Y-39.2254
G01 X38.1772 Y-39.2982
G01 X38.1704 Y-39.3163
G01 X38.1641 Y-39.3294
G01 X38.1568 Y-39.3420
G01 X38.1487 Y-39.3540
G01 X38.1365 Y-39.3690
G01 X38.1228 Y-39.3828
G01 X38.0618 Y-39.4356
G01 X38.0502 Y-39.4445
G01 X38.0421 Y-39.4499
G01 X38.0251 Y-39.4595
G01 X38.0163 Y-39.4636
G01 X38.0027 Y-39.4690
G01 X37.9840 Y-39.4746
G01 X37.9178 Y-39.4888
G01 X37.9040 Y-39.4906
G01 X37.8901 Y-39.4914
G01 X29.2874 Y-39.4915
G01 X29.2735 Y-39.4910
G01 X29.2551 Y-39.4888
G01 X29.2369 Y-39.4849
G01 X29.1551 Y-39.4606
G01 X29.1415 Y-39.4553
G01 X29.1284 Y-39.4490
G01 X29.1157 Y-39.4417
G01 X29.0998 Y-39.4306
G01 X29.0886 Y-39.4213
G01 X29.0816 Y-39.4146
G01 X29.0407 Y-39.3737
G01 X29.0315 Y-39.3634
G01 X29.0231 Y-39.3525
G01 X29.0179 Y-39.3449
G01 X28.9445 Y-39.2314
G01 X28.8047 Y-39.0778
G01 X28.6416 Y-38.9490
G01 X28.4597 Y-38.8486
G01 X28.2639 Y-38.7792
G01 X28.0593 Y-38.7428
G01 X27.8516 Y-38.7402
G01 X27.6462 Y-38.7717
G01 X27.4487 Y-38.8362
G01 X27.2644 Y-38.9322
G01 X27.0982 Y-39.0569
G01 X26.9547 Y-39.2071
G01 X26.8376 Y-39.3788
G01 X26.7501 Y-39.5672
G01 X26.6946 Y-39.7674
G01 X26.6725 Y-39.9740
G01 X26.6845 Y-40.1815
G01 X26.7302 Y-40.3841
G01 X26.8083 Y-40.5766
G01 X26.9169 Y-40.7538
G01 X27.0529 Y-40.9108
G01 X27.1957 Y-41.0293
G01 X27.2061 Y-41.0386
G01 X27.2126 Y-41.0452
G01 X27.2218 Y-41.0556
G01 X27.2303 Y-41.0667
G01 X27.2777 Y-41.1376
G01 X27.2869 Y-41.1546
G01 X27.2926 Y-41.1680
G01 X27.2987 Y-41.1864
G01 X27.3029 Y-41.2053
G01 X27.3043 Y-41.2148
G01 X27.3055 Y-41.2293
G01 X27.3072 Y-41.3148
G01 X27.3056 Y-41.3341
G01 X27.3022 Y-41.3532
G01 X27.2969 Y-41.3718
G01 X27.2898 Y-41.3898
G01 X27.2810 Y-41.4070
G01 X27.2414 Y-41.4717
G01 X27.2360 Y-41.4800
G01 X27.2301 Y-41.4881
G01 X27.2206 Y-41.4996
G01 X27.2138 Y-41.5068
G01 X27.2067 Y-41.5137
G01 X27.1869 Y-41.5303
G01 X27.0982 Y-41.5969
G01 X26.9547 Y-41.7471
G01 X26.8536 Y-41.8952
G01 X26.8451 Y-41.9062
G01 X26.8326 Y-41.9199
G01 X26.8188 Y-41.9323
G01 X26.7639 Y-41.9773
G01 X26.7526 Y-41.9859
G01 X26.7407 Y-41.9937
G01 X26.7240 Y-42.0026
G01 X26.7109 Y-42.0083
G01 X26.6975 Y-42.0129
G01 X26.6791 Y-42.0176
G01 X26.6251 Y-42.0285
G01 X26.6106 Y-42.0305
G01 X26.5911 Y-42.0315
G01 X17.4907 Y-42.0315
G01 X17.4721 Y-42.0306
G01 X17.4583 Y-42.0288
G01 X17.4492 Y-42.0270
G01 X17.4357 Y-42.0236
G01 X17.3630 Y-42.0022
G01 X17.3540 Y-41.9991
G01 X17.3407 Y-41.9935
G01 X17.3279 Y-41.9870
G01 X17.3157 Y-41.9796
G01 X17.3039 Y-41.9713
G01 X17.2792 Y-41.9514
G01 X17.2713 Y-41.9447
G01 X17.2637 Y-41.9375
G01 X13.3075 Y-37.9813
G01 X13.3011 Y-37.9746
G01 X13.2921 Y-37.9640
G01 X13.2866 Y-37.9565
G01 X13.2789 Y-37.9449
G01 X13.2402 Y-37.8746
G01 X13.2338 Y-37.8617
G01 X13.2301 Y-37.8529
G01 X13.2239 Y-37.8348
G01 X13.2215 Y-37.8255
G01 X13.2188 Y-37.8115
G01 X13.2141 Y-37.7700
G01 X13.2135 Y-37.7543
G01 X13.2136 Y-31.0941
G01 X13.2149 Y-31.0756
G01 X13.2162 Y-31.0664
G01 X13.2190 Y-31.0528
G01 X13.2414 Y-30.9757
G01 X13.2459 Y-30.9623
G01 X13.2494 Y-30.9535
G01 X13.2533 Y-30.9450
G01 X13.2600 Y-30.9325
G01 X13.2675 Y-30.9206
G01 X13.2784 Y-30.9052
G01 X13.3554 Y-30.7718
G01 X13.4018 Y-30.6292
G01 X13.4174 Y-30.4800
G01 X13.4018 Y-30.3308
G01 X13.3554 Y-30.1882
G01 X13.2804 Y-30.0583
G01 X13.1801 Y-29.9468
G01 X13.0587 Y-29.8587
G01 X12.9217 Y-29.7977
G01 X12.7750 Y-29.7665
G01 X12.6250 Y-29.7665
G01 X12.4783 Y-29.7977
G01 X12.3413 Y-29.8587
G01 X12.2199 Y-29.9468
G01 X12.1196 Y-30.0583
G01 X12.0446 Y-30.1882
G01 X11.9982 Y-30.3308
G01 X11.9826 Y-30.4800
G01 X11.9982 Y-30.6292
G01 X12.0446 Y-30.7718
G01 X12.1216 Y-30.9052
G01 X12.1279 Y-30.9138
G01 X12.1354 Y-30.9256
G01 X12.1399 Y-30.9337
G01 X12.1460 Y-30.9462
G01 X12.1511 Y-30.9592
G01 X12.1750 Y-31.0260
G01 X12.1792 Y-31.0395
G01 X12.1825 Y-31.0533
G01 X12.1848 Y-31.0672
G01 X12.1860 Y-31.0813
G01 X12.1864 Y-31.0932
G01 X12.1865 Y-38.0711
G01 X12.1858 Y-38.0929
G01 X12.1834 Y-38.1271
G01 X12.1921 Y-38.1784
G01 X12.1982 Y-38.2279
G01 X12.2030 Y-38.2453
G01 X12.2230 Y-38.2911
G01 X12.2432 Y-38.3439
G01 X12.2447 Y-38.3467
G01 X12.2520 Y-38.3597
G01 X12.2823 Y-38.3994
G01 X12.3120 Y-38.4421
G01 X12.3409 Y-38.4678
G01 X12.3543 Y-38.4805
G01 X16.7614 Y-42.8876
G01 X16.7764 Y-42.9036
G01 X16.7989 Y-42.9294
G01 X16.8412 Y-42.9595
G01 X16.8806 Y-42.9903
G01 X16.8936 Y-42.9977
G01 X16.8963 Y-42.9992
G01 X16.9489 Y-43.0200
G01 X16.9945 Y-43.0405
G01 X17.0119 Y-43.0454
G01 X17.0614 Y-43.0520
G01 X17.1125 Y-43.0613
G01 X17.1512 Y-43.0590
G01 X17.1696 Y-43.0585
G01 X26.5929 Y-43.0585
G01 X26.6069 Y-43.0590
G01 X26.6161 Y-43.0599
G01 X26.6253 Y-43.0612
G01 X26.6389 Y-43.0640
G01 X26.7250 Y-43.0893
G01 X26.7426 Y-43.0964
G01 X26.7594 Y-43.1051
G01 X26.7753 Y-43.1155
G01 X26.7865 Y-43.1242
G01 X26.7936 Y-43.1305
G01 X26.8397 Y-43.1773
G01 X26.8496 Y-43.1881
G01 X26.8585 Y-43.1996
G01 X26.8640 Y-43.2077
G01 X26.9169 Y-43.2938
G01 X26.9697 Y-43.3551
G01 X26.9779 Y-43.3663
G01 X26.9876 Y-43.3822
G01 X26.9938 Y-43.3946
G01 X27.0233 Y-43.4592
G01 X27.0288 Y-43.4727
G01 X27.0333 Y-43.4865
G01 X27.0368 Y-43.5006
G01 X27.0392 Y-43.5149
G01 X27.0406 Y-43.5293
G01 X27.0409 Y-43.5439
G01 X27.0395 Y-43.5632
G01 X27.0288 Y-43.6383
G01 X27.0262 Y-43.6525
G01 X27.0225 Y-43.6666
G01 X27.0160 Y-43.6848
G01 X27.0100 Y-43.6981
G01 X27.0005 Y-43.7149
G01 X26.9951 Y-43.7230
G01 X26.9863 Y-43.7345
G01 X26.9366 Y-43.7918
G01 X26.9269 Y-43.8023
G01 X26.9127 Y-43.8151
G01 X26.9013 Y-43.8238
G01 X26.8851 Y-43.8339
G01 X26.8528 Y-43.8504
G01 X26.8381 Y-43.8570
G01 X26.7660 Y-43.9110
G01 X26.7122 Y-43.9829
G01 X26.6795 Y-44.0701
G01 X26.6765 Y-44.0974
G01 X26.6765 Y-46.0726
G01 X26.6795 Y-46.0999
G01 X26.7122 Y-46.1871
G01 X26.7660 Y-46.2590
G01 X26.8379 Y-46.3128
G01 X26.9251 Y-46.3455
G01 X26.9524 Y-46.3485
G01 X28.9276 Y-46.3485
G01 X28.9549 Y-46.3455
G01 X29.0421 Y-46.3128
G01 X29.1140 Y-46.2590
G01 X29.1678 Y-46.1871
G01 X29.2005 Y-46.0999
G01 X29.2035 Y-46.0726
G01 X29.2036 Y-45.9149
G01 X29.2049 Y-45.8963
G01 X29.2080 Y-45.8781
G01 X29.2114 Y-45.8646
G01 X29.2314 Y-45.7964
G01 X29.2360 Y-45.7827
G01 X29.2416 Y-45.7693
G01 X29.2482 Y-45.7563
G01 X29.2558 Y-45.7439
G01 X29.2613 Y-45.7360
G01 X29.2735 Y-45.7210
G01 X29.2836 Y-45.7105
G01 X29.2908 Y-45.7040
G01 X29.3482 Y-45.6544
G01 X29.3638 Y-45.6427
G01 X29.3763 Y-45.6351
G01 X29.3849 Y-45.6305
G01 X29.3982 Y-45.6245
G01 X29.4119 Y-45.6194
G01 X29.4212 Y-45.6167
G01 X29.4831 Y-45.6030
G01 X29.5014 Y-45.5999
G01 X29.5106 Y-45.5990
G01 X29.5245 Y-45.5985
G01 X32.6743 Y-45.5985
G01 X32.6836 Y-45.5987
G01 X32.6975 Y-45.5999
G01 X32.7112 Y-45.6020
G01 X32.7293 Y-45.6064
G01 X32.8020 Y-45.6278
G01 X32.8199 Y-45.6345
G01 X32.8371 Y-45.6430
G01 X32.8533 Y-45.6531
G01 X32.8611 Y-45.6587
G01 X32.8858 Y-45.6786
G01 X32.8976 Y-45.6889
G01 X34.1860 Y-46.9772
G01 X34.2009 Y-46.9931
G01 X34.2234 Y-47.0189
G01 X34.2657 Y-47.0490
G01 X34.3051 Y-47.0798
G01 X34.3208 Y-47.0887
G01 X34.3673 Y-47.1069
G01 X34.4190 Y-47.1300
G01 X34.4220 Y-47.1309
G01 X34.4364 Y-47.1349
G01 X34.4859 Y-47.1415
G01 X34.5370 Y-47.1508
G01 X34.5757 Y-47.1485
G01 X34.5941 Y-47.1480
G01 X69.4023 Y-47.1480
G01 X69.4241 Y-47.1488
G01 X69.4583 Y-47.1511
G01 X69.5096 Y-47.1424
G01 X69.5591 Y-47.1363
G01 X69.5765 Y-47.1315
G01 X69.6223 Y-47.1115
G01 X69.6751 Y-47.0913
G01 X69.6779 Y-47.0898
G01 X69.6909 Y-47.0825
G01 X69.7306 Y-47.0522
G01 X69.7733 Y-47.0225
G01 X69.7990 Y-46.9936
G01 X69.8117 Y-46.9802
G01 X72.9397 Y-43.8522
G01 X72.9970 Y-43.7791
G01 X73.0481 Y-43.6659
G01 X73.0708 Y-43.5437
G01 X73.0658 Y-43.4543
G01 X73.0668 Y-43.4214
G01 X73.0680 Y-43.4061
G01 X73.0682 Y-20.1755
G01 X73.0689 Y-20.1663
G01 X73.0707 Y-20.1525
G01 X73.0725 Y-20.1433
G01 X73.0759 Y-20.1299
G01 X73.0989 Y-20.0525
G01 X73.1062 Y-20.0346
G01 X73.1128 Y-20.0216
G01 X73.1177 Y-20.0133
G01 X73.1258 Y-20.0013
G01 X73.1349 Y-19.9899
G01 X73.1447 Y-19.9792
G01 X73.1553 Y-19.9693
G01 X73.2127 Y-19.9197
G01 X73.2282 Y-19.9081
G01 X73.2364 Y-19.9029
G01 X73.2491 Y-19.8959
G01 X73.2623 Y-19.8899
G01 X73.2714 Y-19.8864
G01 X73.2806 Y-19.8834
G01 X73.2946 Y-19.8798
G01 X73.3089 Y-19.8772
G01 X73.3792 Y-19.8671
G01 X73.3936 Y-19.8655
G01 X73.4033 Y-19.8651
G01 X73.4178 Y-19.8654
G01 X73.4323 Y-19.8667
G01 X73.4419 Y-19.8682
G01 X73.4607 Y-19.8726
G01 X73.4791 Y-19.8789
G01 X73.5570 Y-19.9143
G01 X73.5699 Y-19.9212
G01 X73.5783 Y-19.9264
G01 X73.5902 Y-19.9349
G01 X73.6016 Y-19.9442
G01 X73.6121 Y-19.9544
G01 X73.6187 Y-19.9617
G01 X73.6485 Y-19.9976
G01 X73.6570 Y-20.0087
G01 X73.6670 Y-20.0243
G01 X73.7146 Y-20.1067
G01 X73.8149 Y-20.2182
G01 X73.9363 Y-20.3063
G01 X74.0733 Y-20.3673
G01 X74.2200 Y-20.3985
G01 X74.3700 Y-20.3985
G01 X74.5167 Y-20.3673
G01 X74.6537 Y-20.3063
G01 X74.7751 Y-20.2182
G01 X74.8754 Y-20.1067
G01 X74.9504 Y-19.9768
G01 X74.9968 Y-19.8342
G01 X75.0124 Y-19.6850
G01 X74.9968 Y-19.5358
G01 X74.9504 Y-19.3932
G01 X74.8734 Y-19.2598
G01 X74.8671 Y-19.2512
G01 X74.8596 Y-19.2394
G01 X74.8530 Y-19.2272
G01 X74.8472 Y-19.2145
G01 X74.8200 Y-19.1390
G01 X74.8158 Y-19.1255
G01 X74.8125 Y-19.1117
G01 X74.8102 Y-19.0978
G01 X74.8090 Y-19.0837
G01 X74.8086 Y-19.0718
G01 X74.8085 Y-8.9289
G01 X74.8092 Y-8.9071
G01 X74.8116 Y-8.8729
G01 X74.8029 Y-8.8216
G01 X74.7968 Y-8.7721
G01 X74.7920 Y-8.7547
G01 X74.7720 Y-8.7089
G01 X74.7518 Y-8.6561
G01 X74.7503 Y-8.6533
G01 X74.7430 Y-8.6403
G01 X74.7126 Y-8.6006
G01 X74.6830 Y-8.5579
G01 X74.6541 Y-8.5322
G01 X74.6407 Y-8.5195
G01 X73.7061 Y-7.5849
G01 X73.6940 Y-7.5708
G01 X73.6858 Y-7.5596
G01 X73.6808 Y-7.5518
G01 X73.6421 Y-7.4814
G01 X73.6377 Y-7.4729
G01 X73.6319 Y-7.4598
G01 X73.6271 Y-7.4462
G01 X73.6245 Y-7.4370
G01 X73.6223 Y-7.4277
G01 X73.6199 Y-7.4136
G01 X73.6186 Y-7.3993
G01 X73.6182 Y-7.3897
G01 X73.6210 Y-7.3167
G01 X73.6221 Y-7.3019
G01 X73.6244 Y-7.2872
G01 X73.6266 Y-7.2775
G01 X73.6292 Y-7.2679
G01 X73.6571 Y-7.0563
G01 X73.6583 Y-7.0056
G01 X73.6408 Y-6.7929
G01 X73.5902 Y-6.5914
G01 X73.5074 Y-6.4009
G01 X73.3945 Y-6.2264
G01 X73.3666 Y-6.1954
G01 X73.3581 Y-6.1844
G01 X73.3504 Y-6.1728
G01 X73.3415 Y-6.1565
G01 X73.3084 Y-6.0883
G01 X73.3013 Y-6.0703
G01 X73.2971 Y-6.0564
G01 X73.2949 Y-6.0469
G01 X73.2932 Y-6.0374
G01 X73.2915 Y-6.0230
G01 X73.2909 Y-6.0133
G01 X73.2910 Y-5.9988
G01 X73.2922 Y-5.9843
G01 X73.3020 Y-5.9042
G01 X73.3062 Y-5.8853
G01 X73.3122 Y-5.8669
G01 X73.3201 Y-5.8492
G01 X73.3296 Y-5.8324
G01 X73.3408 Y-5.8166
G01 X73.3890 Y-5.7580
G01 X73.4023 Y-5.7435
G01 X73.4132 Y-5.7335
G01 X73.4248 Y-5.7244
G01 X73.4412 Y-5.7136
G01 X73.4763 Y-5.6952
G01 X73.4918 Y-5.6881
G01 X73.5640 Y-5.6340
G01 X73.6178 Y-5.5621
G01 X73.6505 Y-5.4749
G01 X73.6535 Y-5.4476
G01 X73.6535 Y-3.4724
G01 X73.6505 Y-3.4451
G01 X73.6178 Y-3.3579
G01 X73.5640 Y-3.2860
G01 X73.4921 Y-3.2322
G01 X73.4049 Y-3.1995
G01 X73.3776 Y-3.1965
G01 X71.9860 Y-3.1964
G01 X71.9721 Y-3.1956
G01 X71.9629 Y-3.1945
G01 X71.9492 Y-3.1920
G01 X71.9357 Y-3.1886
G01 X71.8585 Y-3.1657
G01 X71.8407 Y-3.1585
G01 X71.8279 Y-3.1520
G01 X71.8157 Y-3.1446
G01 X71.8039 Y-3.1363
G01 X71.7752 Y-3.1131
G01 X71.7637 Y-3.1025
G01 X70.1950 Y-1.5338
G01 X70.1801 Y-1.5179
G01 X70.1576 Y-1.4921
G01 X70.1152 Y-1.4620
G01 X70.0758 Y-1.4312
G01 X70.0601 Y-1.4222
G01 X70.0136 Y-1.4040
G01 X69.9620 Y-1.3810
G01 X69.9590 Y-1.3801
G01 X69.9446 Y-1.3760
G01 X69.8951 Y-1.3694
G01 X69.8440 Y-1.3602
G01 X69.8053 Y-1.3624
G01 X69.7868 Y-1.3630
G01 X55.8518 Y-1.3629
G01 X55.8379 Y-1.3621
G01 X55.8287 Y-1.3610
G01 X55.8104 Y-1.3575
G01 X55.7333 Y-1.3351
G01 X55.7199 Y-1.3306
G01 X55.7112 Y-1.3271
G01 X55.6943 Y-1.3188
G01 X55.6782 Y-1.3089
G01 X55.6037 Y-1.2552
G01 X55.4667 Y-1.1942
G01 X55.3200 Y-1.1630
G01 X55.1700 Y-1.1630
G01 X55.0233 Y-1.1942
G01 X54.8863 Y-1.2552
G01 X54.7649 Y-1.3433
G01 X54.6646 Y-1.4548
G01 X54.5896 Y-1.5847
G01 X54.5432 Y-1.7273
G01 X54.5415 Y-1.7437
G01 X54.5392 Y-1.7574
G01 X54.5359 Y-1.7709
G01 X54.5317 Y-1.7842
G01 X54.4975 Y-1.8674
G01 X54.4884 Y-1.8845
G01 X54.4832 Y-1.8927
G01 X54.4747 Y-1.9044
G01 X54.4653 Y-1.9155
G01 X54.4586 Y-1.9225
G01 X54.4480 Y-1.9324
G01 X54.4405 Y-1.9385
G01 X54.3704 Y-1.9876
G01 X54.3580 Y-1.9952
G01 X54.3494 Y-1.9997
G01 X54.3406 Y-2.0038
G01 X54.3271 Y-2.0091
G01 X54.3179 Y-2.0120
G01 X54.3038 Y-2.0156
G01 X54.2497 Y-2.0246
G01 X54.2363 Y-2.0260
G01 X54.2228 Y-2.0265
G01 X10.8239 Y-2.0265
G01 X10.8021 Y-2.0258
G01 X10.7679 Y-2.0234
G01 X10.7166 Y-2.0321
G01 X10.6671 Y-2.0382
G01 X10.6497 Y-2.0430
G01 X10.6039 Y-2.0630
G01 X10.5511 Y-2.0832
G01 X10.5483 Y-2.0847
G01 X10.5353 Y-2.0920
G01 X10.4956 Y-2.1224
G01 X10.4529 Y-2.1520
G01 X10.4272 Y-2.1809
G01 X10.4145 Y-2.1943
G01 X2.0328 Y-10.5760
G01 X2.0169 Y-10.5909
G01 X1.9911 Y-10.6134
G01 X1.9610 Y-10.6558
G01 X1.9302 Y-10.6951
G01 X1.9212 Y-10.7108
G01 X1.9005 Y-10.7634
G01 X1.8800 Y-10.8090
G01 X1.8750 Y-10.8264
G01 X1.8692 Y-10.8709
G00 Z1.0000
G00 X1.9806 Y-10.9500
G01 F60.00
G01 Z-0.0500
G01 F180.00
G01 X1.9806 Y-13.0407
G01 X1.9823 Y-13.0699
G01 X1.9880 Y-13.1083
G01 X1.9974 Y-13.1459
G01 X2.0105 Y-13.1824
G01 X2.0270 Y-13.2174
G01 X2.0470 Y-13.2507
G01 X2.0701 Y-13.2818
G01 X2.0895 Y-13.3036
G01 X23.9934 Y-35.2077
G01 X24.0187 Y-35.2304
G01 X24.0498 Y-35.2535
G01 X24.0831 Y-35.2734
G01 X24.1181 Y-35.2900
G01 X24.1546 Y-35.3031
G01 X24.1922 Y-35.3125
G01 X24.2306 Y-35.3182
G01 X24.2597 Y-35.3199
G01 X26.8665 Y-35.3201
G01 X26.8787 Y-35.3542
G01 X26.8840 Y-35.3676
G01 X26.9259 Y-35.4562
G01 X26.9325 Y-35.4689
G01 X26.9880 Y-35.5611
G01 X27.0519 Y-35.6476
G01 X27.0612 Y-35.6586
G01 X27.1304 Y-35.7346
G01 X27.2064 Y-35.8038
G01 X27.2212 Y-35.8160
G01 X27.2960 Y-35.8715
G01 X27.3079 Y-35.8796
G01 X27.4003 Y-35.9348
G01 X27.5018 Y-35.9828
G01 X27.6076 Y-36.0207
G01 X27.7073 Y-36.0459
G01 X27.7261 Y-36.0496
G01 X27.8183 Y-36.0633
G01 X27.8373 Y-36.0652
G01 X27.9400 Y-36.0700
G01 X28.0522 Y-36.0645
G01 X28.1539 Y-36.0496
G01 X28.1727 Y-36.0459
G01 X28.2724 Y-36.0207
G01 X28.3782 Y-35.9828
G01 X28.4797 Y-35.9348
G01 X28.5680 Y-35.8822
G01 X28.5840 Y-35.8715
G01 X28.6664 Y-35.8101
G01 X28.7496 Y-35.7346
G01 X28.8188 Y-35.6586
G01 X28.8310 Y-35.6438
G01 X28.8920 Y-35.5611
G01 X28.9451 Y-35.4731
G01 X28.9541 Y-35.4562
G01 X28.9978 Y-35.3632
G01 X29.0327 Y-35.2665
G01 X29.0382 Y-35.2482
G01 X29.0609 Y-35.1577
G01 X29.0646 Y-35.1389
G01 X29.0795 Y-35.0372
G01 X29.0848 Y-34.9346
G01 X29.0848 Y-34.9154
G01 X29.0795 Y-34.8128
G01 X29.0646 Y-34.7111
G01 X29.0609 Y-34.6923
G01 X29.0357 Y-34.5926
G01 X29.0013 Y-34.4958
G01 X28.9940 Y-34.4781
G01 X28.9498 Y-34.3853
G01 X28.8920 Y-34.2889
G01 X28.8310 Y-34.2062
G01 X28.8188 Y-34.1914
G01 X28.7562 Y-34.1223
G01 X28.7427 Y-34.1088
G01 X28.6664 Y-34.0399
G01 X28.5840 Y-33.9785
G01 X28.5680 Y-33.9678
G01 X28.4881 Y-33.9199
G01 X28.4712 Y-33.9109
G01 X28.3782 Y-33.8672
G01 X28.2815 Y-33.8323
G01 X28.2632 Y-33.8268
G01 X28.1634 Y-33.8020
G01 X28.0522 Y-33.7855
G01 X27.9400 Y-33.7800
G01 X27.8278 Y-33.7855
G01 X27.7261 Y-33.8004
G01 X27.7073 Y-33.8041
G01 X27.6076 Y-33.8293
G01 X27.5018 Y-33.8672
G01 X27.4088 Y-33.9109
G01 X27.3919 Y-33.9199
G01 X27.3039 Y-33.9730
G01 X27.2174 Y-34.0369
G01 X27.2064 Y-34.0462
G01 X27.1373 Y-34.1088
G01 X27.1238 Y-34.1223
G01 X27.0549 Y-34.1986
G01 X26.9907 Y-34.2849
G01 X26.9828 Y-34.2970
G01 X26.9349 Y-34.3769
G01 X26.9280 Y-34.3895
G01 X26.8840 Y-34.4824
G01 X26.8787 Y-34.4958
G01 X26.8665 Y-34.5299
G01 X24.4330 Y-34.5299
G01 X2.7706 Y-12.8675
G01 X2.7706 Y-11.1232
G01 X10.9587 Y-2.9351
G01 X54.3314 Y-2.9351
G01 X54.8506 Y-3.4544
G01 X54.8794 Y-3.4804
G01 X54.9105 Y-3.5035
G01 X54.9354 Y-3.5187
G01 X54.9480 Y-3.5257
G01 X54.9788 Y-3.5400
G01 X55.0153 Y-3.5531
G01 X55.0436 Y-3.5604
G01 X55.0624 Y-3.5641
G01 X55.0865 Y-3.5677
G01 X55.0960 Y-3.5686
G01 X55.1300 Y-3.5701
G01 X62.4863 Y-3.5701
G01 X63.1715 Y-4.2553
G01 X63.1560 Y-4.2881
G01 X63.1504 Y-4.3013
G01 X63.1157 Y-4.3981
G01 X63.1118 Y-4.4118
G01 X63.0880 Y-4.5069
G01 X63.0854 Y-4.5211
G01 X63.0705 Y-4.6228
G01 X63.0652 Y-4.7254
G01 X63.0651 Y-4.7398
G01 X63.0698 Y-4.8377
G01 X63.0717 Y-4.8567
G01 X63.0870 Y-4.9584
G01 X63.1118 Y-5.0582
G01 X63.1173 Y-5.0765
G01 X63.1522 Y-5.1732
G01 X63.1959 Y-5.2662
G01 X63.2049 Y-5.2831
G01 X63.2580 Y-5.3711
G01 X63.3249 Y-5.4614
G01 X63.4004 Y-5.5446
G01 X63.4800 Y-5.6170
G01 X63.4912 Y-5.6260
G01 X63.5739 Y-5.6870
G01 X63.6661 Y-5.7425
G01 X63.6788 Y-5.7491
G01 X63.7674 Y-5.7910
G01 X63.7808 Y-5.7963
G01 X63.8149 Y-5.8085
G01 X63.8149 Y-8.1615
G01 X63.7808 Y-8.1737
G01 X63.7674 Y-8.1790
G01 X63.6788 Y-8.2209
G01 X63.6661 Y-8.2275
G01 X63.5739 Y-8.2830
G01 X63.4912 Y-8.3440
G01 X63.4800 Y-8.3530
G01 X63.4004 Y-8.4254
G01 X63.3249 Y-8.5086
G01 X63.2580 Y-8.5989
G01 X63.2049 Y-8.6869
G01 X63.1980 Y-8.6995
G01 X63.1522 Y-8.7968
G01 X63.1143 Y-8.9026
G01 X63.0870 Y-9.0116
G01 X63.0705 Y-9.1228
G01 X63.0650 Y-9.2350
G01 X63.0705 Y-9.3472
G01 X63.0870 Y-9.4584
G01 X63.1118 Y-9.5582
G01 X63.1173 Y-9.5765
G01 X63.1487 Y-9.6642
G01 X63.1560 Y-9.6819
G01 X63.2002 Y-9.7747
G01 X63.2580 Y-9.8711
G01 X63.3249 Y-9.9614
G01 X63.3938 Y-10.0377
G01 X63.4073 Y-10.0512
G01 X63.4764 Y-10.1138
G01 X63.4912 Y-10.1260
G01 X63.5739 Y-10.1870
G01 X63.6703 Y-10.2448
G01 X63.7718 Y-10.2928
G01 X63.8685 Y-10.3277
G01 X63.8868 Y-10.3332
G01 X63.9773 Y-10.3559
G01 X63.9961 Y-10.3596
G01 X64.0978 Y-10.3745
G01 X64.2052 Y-10.3799
G01 X64.2196 Y-10.3798
G01 X64.3222 Y-10.3745
G01 X64.4239 Y-10.3596
G01 X64.4427 Y-10.3559
G01 X64.5332 Y-10.3332
G01 X64.5515 Y-10.3277
G01 X64.6482 Y-10.2928
G01 X64.7497 Y-10.2448
G01 X64.8461 Y-10.1870
G01 X64.9364 Y-10.1201
G01 X65.0196 Y-10.0446
G01 X65.0888 Y-9.9686
G01 X65.1010 Y-9.9538
G01 X65.1565 Y-9.8790
G01 X65.1672 Y-9.8630
G01 X65.2198 Y-9.7747
G01 X65.2678 Y-9.6732
G01 X65.3057 Y-9.5674
G01 X65.3330 Y-9.4584
G01 X65.3495 Y-9.3472
G01 X65.3550 Y-9.2350
G01 X65.3495 Y-9.1228
G01 X65.3346 Y-9.0211
G01 X65.3309 Y-9.0023
G01 X65.3082 Y-8.9118
G01 X65.3027 Y-8.8935
G01 X65.2678 Y-8.7968
G01 X65.2241 Y-8.7038
G01 X65.2175 Y-8.6911
G01 X65.1620 Y-8.5989
G01 X65.0951 Y-8.5086
G01 X65.0196 Y-8.4254
G01 X64.9400 Y-8.3530
G01 X64.9288 Y-8.3440
G01 X64.8461 Y-8.2830
G01 X64.7539 Y-8.2275
G01 X64.7412 Y-8.2209
G01 X64.6526 Y-8.1790
G01 X64.6392 Y-8.1737
G01 X64.6051 Y-8.1615
G01 X64.6051 Y-5.8085
G01 X64.6392 Y-5.7963
G01 X64.6526 Y-5.7910
G01 X64.7412 Y-5.7491
G01 X64.7539 Y-5.7425
G01 X64.8461 Y-5.6870
G01 X64.9326 Y-5.6231
G01 X64.9436 Y-5.6138
G01 X65.0196 Y-5.5446
G01 X65.0888 Y-5.4686
G01 X65.1010 Y-5.4538
G01 X65.1565 Y-5.3790
G01 X65.1646 Y-5.3671
G01 X65.2198 Y-5.2747
G01 X65.2678 Y-5.1732
G01 X65.3057 Y-5.0674
G01 X65.3309 Y-4.9677
G01 X65.3346 Y-4.9489
G01 X65.3483 Y-4.8567
G01 X65.3502 Y-4.8377
G01 X65.3550 Y-4.7350
G01 X65.3495 Y-4.6228
G01 X65.3330 Y-4.5116
G01 X65.3057 Y-4.4026
G01 X65.2678 Y-4.2968
G01 X65.2241 Y-4.2038
G01 X65.2151 Y-4.1869
G01 X65.1620 Y-4.0989
G01 X65.1010 Y-4.0162
G01 X65.0888 Y-4.0014
G01 X65.0262 Y-3.9323
G01 X65.0127 Y-3.9188
G01 X64.9364 Y-3.8499
G01 X64.8501 Y-3.7857
G01 X64.8380 Y-3.7778
G01 X64.7581 Y-3.7299
G01 X64.7412 Y-3.7209
G01 X64.6482 Y-3.6772
G01 X64.5515 Y-3.6423
G01 X64.5332 Y-3.6368
G01 X64.4334 Y-3.6120
G01 X64.3317 Y-3.5967
G01 X64.3175 Y-3.5951
G01 X64.2196 Y-3.5902
G01 X64.2004 Y-3.5902
G01 X64.0978 Y-3.5955
G01 X63.9913 Y-3.6111
G01 X63.9773 Y-3.6141
G01 X63.8868 Y-3.6368
G01 X63.8731 Y-3.6407
G01 X63.7763 Y-3.6754
G01 X63.7631 Y-3.6810
G01 X63.7303 Y-3.6965
G01 X62.9224 Y-2.8890
G01 X62.9006 Y-2.8696
G01 X62.8773 Y-2.8520
G01 X62.8655 Y-2.8439
G01 X62.8362 Y-2.8266
G01 X62.8056 Y-2.8119
G01 X62.7923 Y-2.8065
G01 X62.7647 Y-2.7969
G01 X62.7318 Y-2.7885
G01 X62.7177 Y-2.7859
G01 X62.6887 Y-2.7818
G01 X62.6500 Y-2.7799
G01 X55.2937 Y-2.7799
G01 X54.7744 Y-2.2606
G01 X54.7457 Y-2.2346
G01 X54.7145 Y-2.2115
G01 X54.6854 Y-2.1939
G01 X54.6770 Y-2.1893
G01 X54.6550 Y-2.1789
G01 X54.6373 Y-2.1715
G01 X54.6097 Y-2.1619
G01 X54.5721 Y-2.1525
G01 X54.5337 Y-2.1468
G01 X54.5046 Y-2.1451
G01 X10.7950 Y-2.1449
G01 X10.7563 Y-2.1468
G01 X10.7179 Y-2.1525
G01 X10.6803 Y-2.1619
G01 X10.6438 Y-2.1750
G01 X10.6173 Y-2.1872
G01 X10.6004 Y-2.1963
G01 X10.5795 Y-2.2089
G01 X10.5715 Y-2.2142
G01 X10.5444 Y-2.2346
G01 X10.5156 Y-2.2606
G01 X2.0961 Y-10.6801
G01 X2.0701 Y-10.7089
G01 X2.0470 Y-10.7400
G01 X2.0270 Y-10.7733
G01 X2.0105 Y-10.8083
G01 X1.9974 Y-10.8448
G01 X1.9880 Y-10.8824
G01 X1.9823 Y-10.9208
G01 X1.9806 Y-10.9500
G00 Z1.0000
G00 X2.7801 Y-11.4204
G01 F60.00
G01 Z-0.0500
G01 F180.00
G01 X2.7799 Y-12.7000
G01 X2.7814 Y-12.7340
G01 X2.7830 Y-12.7482
G01 X2.7866 Y-12.7724
G01 X2.7885 Y-12.7818
G01 X2.7944 Y-12.8055
G01 X2.7984 Y-12.8193
G01 X2.8065 Y-12.8423
G01 X2.8139 Y-12.8599
G01 X2.8266 Y-12.8862
G01 X2.8465 Y-12.9195
G01 X2.8696 Y-12.9506
G01 X2.8923 Y-12.9760
G01 X4.1656 Y-14.2494
G01 X4.1944 Y-14.2754
G01 X4.2215 Y-14.2958
G01 X4.2336 Y-14.3036
G01 X4.2588 Y-14.3184
G01 X4.2894 Y-14.3331
G01 X4.3027 Y-14.3385
G01 X4.3303 Y-14.3481
G01 X4.3586 Y-14.3554
G01 X4.3726 Y-14.3584
G01 X4.4063 Y-14.3632
G01 X4.4450 Y-14.3651
G01 X4.9163 Y-14.3651
G01 X23.2156 Y-32.6644
G01 X23.2407 Y-32.6873
G01 X23.2519 Y-32.6963
G01 X23.2715 Y-32.7108
G01 X23.2795 Y-32.7161
G01 X23.3004 Y-32.7287
G01 X23.3173 Y-32.7378
G01 X23.3394 Y-32.7481
G01 X23.3527 Y-32.7535
G01 X23.3803 Y-32.7631
G01 X23.4179 Y-32.7725
G01 X23.4563 Y-32.7782
G01 X23.4902 Y-32.7800
G01 X26.8665 Y-32.7801
G01 X26.8787 Y-32.8142
G01 X26.8840 Y-32.8276
G01 X26.9259 Y-32.9162
G01 X26.9325 Y-32.9289
G01 X26.9880 Y-33.0211
G01 X27.0519 Y-33.1076
G01 X27.0612 Y-33.1186
G01 X27.1304 Y-33.1946
G01 X27.2064 Y-33.2638
G01 X27.2212 Y-33.2760
G01 X27.2960 Y-33.3315
G01 X27.3079 Y-33.3396
G01 X27.4003 Y-33.3948
G01 X27.5018 Y-33.4428
G01 X27.6076 Y-33.4807
G01 X27.7073 Y-33.5059
G01 X27.7261 Y-33.5096
G01 X27.8183 Y-33.5233
G01 X27.8373 Y-33.5252
G01 X27.9400 Y-33.5300
G01 X28.0427 Y-33.5252
G01 X28.0570 Y-33.5240
G01 X28.1634 Y-33.5080
G01 X28.2632 Y-33.4832
G01 X28.2815 Y-33.4777
G01 X28.3782 Y-33.4428
G01 X28.4797 Y-33.3948
G01 X28.5680 Y-33.3422
G01 X28.5840 Y-33.3315
G01 X28.6664 Y-33.2701
G01 X28.7496 Y-33.1946
G01 X28.8188 Y-33.1186
G01 X28.8310 Y-33.1038
G01 X28.8920 Y-33.0211
G01 X28.9451 Y-32.9331
G01 X28.9541 Y-32.9162
G01 X28.9978 Y-32.8232
G01 X29.0357 Y-32.7174
G01 X29.0609 Y-32.6177
G01 X29.0646 Y-32.5989
G01 X29.0795 Y-32.4972
G01 X29.0850 Y-32.3850
G01 X29.0795 Y-32.2728
G01 X29.0646 Y-32.1711
G01 X29.0609 Y-32.1523
G01 X29.0357 Y-32.0526
G01 X28.9978 Y-31.9468
G01 X28.9541 Y-31.8538
G01 X28.9451 Y-31.8369
G01 X28.8920 Y-31.7489
G01 X28.8310 Y-31.6662
G01 X28.8188 Y-31.6514
G01 X28.7496 Y-31.5754
G01 X28.6736 Y-31.5062
G01 X28.6588 Y-31.4940
G01 X28.5761 Y-31.4330
G01 X28.4797 Y-31.3752
G01 X28.3782 Y-31.3272
G01 X28.2724 Y-31.2893
G01 X28.1634 Y-31.2620
G01 X28.0522 Y-31.2455
G01 X27.9400 Y-31.2400
G01 X27.8278 Y-31.2455
G01 X27.7261 Y-31.2604
G01 X27.7073 Y-31.2641
G01 X27.6076 Y-31.2893
G01 X27.5018 Y-31.3272
G01 X27.4088 Y-31.3709
G01 X27.3919 Y-31.3799
G01 X27.3039 Y-31.4330
G01 X27.2174 Y-31.4969
G01 X27.2064 Y-31.5062
G01 X27.1373 Y-31.5688
G01 X27.1238 Y-31.5823
G01 X27.0549 Y-31.6586
G01 X26.9907 Y-31.7449
G01 X26.9828 Y-31.7570
G01 X26.9349 Y-31.8369
G01 X26.9280 Y-31.8495
G01 X26.8840 Y-31.9424
G01 X26.8787 Y-31.9558
G01 X26.8665 Y-31.9899
G01 X23.6587 Y-31.9899
G01 X5.3560 Y-13.6873
G01 X5.3306 Y-13.6646
G01 X5.3073 Y-13.6470
G01 X5.2914 Y-13.6364
G01 X5.2704 Y-13.6239
G01 X5.2620 Y-13.6193
G01 X5.2312 Y-13.6050
G01 X5.1993 Y-13.5934
G01 X5.1901 Y-13.5906
G01 X5.1664 Y-13.5846
G01 X5.1477 Y-13.5809
G01 X5.1187 Y-13.5768
G01 X5.0800 Y-13.5749
G01 X4.6087 Y-13.5749
G01 X3.5701 Y-12.5363
G01 X3.5701 Y-11.5937
G01 X11.2932 Y-3.8706
G01 X50.5068 Y-3.8706
G01 X51.1815 Y-4.5453
G01 X51.1660 Y-4.5781
G01 X51.1604 Y-4.5913
G01 X51.1257 Y-4.6881
G01 X51.1218 Y-4.7018
G01 X51.0980 Y-4.7969
G01 X51.0954 Y-4.8111
G01 X51.0805 Y-4.9128
G01 X51.0752 Y-5.0154
G01 X51.0751 Y-5.0298
G01 X51.0798 Y-5.1277
G01 X51.0817 Y-5.1467
G01 X51.0970 Y-5.2484
G01 X51.1218 Y-5.3482
G01 X51.1273 Y-5.3665
G01 X51.1622 Y-5.4632
G01 X51.2059 Y-5.5562
G01 X51.2149 Y-5.5731
G01 X51.2680 Y-5.6611
G01 X51.3349 Y-5.7514
G01 X51.4104 Y-5.8346
G01 X51.4900 Y-5.9070
G01 X51.5012 Y-5.9160
G01 X51.5839 Y-5.9770
G01 X51.6761 Y-6.0325
G01 X51.6888 Y-6.0391
G01 X51.7774 Y-6.0810
G01 X51.7908 Y-6.0863
G01 X51.8249 Y-6.0985
G01 X51.8249 Y-8.4515
G01 X51.7908 Y-8.4637
G01 X51.7774 Y-8.4690
G01 X51.6888 Y-8.5109
G01 X51.6761 Y-8.5175
G01 X51.5839 Y-8.5730
G01 X51.5012 Y-8.6340
G01 X51.4900 Y-8.6430
G01 X51.4104 Y-8.7154
G01 X51.3349 Y-8.7986
G01 X51.2680 Y-8.8889
G01 X51.2149 Y-8.9769
G01 X51.2080 Y-8.9895
G01 X51.1622 Y-9.0868
G01 X51.1243 Y-9.1926
G01 X51.0970 Y-9.3016
G01 X51.0805 Y-9.4128
G01 X51.0750 Y-9.5250
G01 X51.0805 Y-9.6372
G01 X51.0970 Y-9.7484
G01 X51.1218 Y-9.8482
G01 X51.1273 Y-9.8665
G01 X51.1587 Y-9.9542
G01 X51.1660 Y-9.9719
G01 X51.2102 Y-10.0647
G01 X51.2680 Y-10.1611
G01 X51.3349 Y-10.2514
G01 X51.4038 Y-10.3277
G01 X51.4173 Y-10.3412
G01 X51.4864 Y-10.4038
G01 X51.5012 Y-10.4160
G01 X51.5839 Y-10.4770
G01 X51.6803 Y-10.5348
G01 X51.7818 Y-10.5828
G01 X51.8785 Y-10.6177
G01 X51.8968 Y-10.6232
G01 X51.9873 Y-10.6459
G01 X52.0061 Y-10.6496
G01 X52.1078 Y-10.6645
G01 X52.2152 Y-10.6699
G01 X52.2296 Y-10.6698
G01 X52.3322 Y-10.6645
G01 X52.4339 Y-10.6496
G01 X52.4527 Y-10.6459
G01 X52.5432 Y-10.6232
G01 X52.5615 Y-10.6177
G01 X52.6582 Y-10.5828
G01 X52.7597 Y-10.5348
G01 X52.8561 Y-10.4770
G01 X52.9464 Y-10.4101
G01 X53.0296 Y-10.3346
G01 X53.0988 Y-10.2586
G01 X53.1110 Y-10.2438
G01 X53.1665 Y-10.1690
G01 X53.1772 Y-10.1530
G01 X53.2298 Y-10.0647
G01 X53.2778 Y-9.9632
G01 X53.3157 Y-9.8574
G01 X53.3430 Y-9.7484
G01 X53.3595 Y-9.6372
G01 X53.3650 Y-9.5250
G01 X53.3595 Y-9.4128
G01 X53.3446 Y-9.3111
G01 X53.3409 Y-9.2923
G01 X53.3182 Y-9.2018
G01 X53.3127 Y-9.1835
G01 X53.2778 Y-9.0868
G01 X53.2341 Y-8.9938
G01 X53.2275 Y-8.9811
G01 X53.1720 Y-8.8889
G01 X53.1051 Y-8.7986
G01 X53.0296 Y-8.7154
G01 X52.9500 Y-8.6430
G01 X52.9388 Y-8.6340
G01 X52.8561 Y-8.5730
G01 X52.7639 Y-8.5175
G01 X52.7512 Y-8.5109
G01 X52.6626 Y-8.4690
G01 X52.6492 Y-8.4637
G01 X52.6151 Y-8.4515
G01 X52.6151 Y-6.0985
G01 X52.6492 Y-6.0863
G01 X52.6626 Y-6.0810
G01 X52.7512 Y-6.0391
G01 X52.7639 Y-6.0325
G01 X52.8561 Y-5.9770
G01 X52.9426 Y-5.9131
G01 X52.9536 Y-5.9038
G01 X53.0296 Y-5.8346
G01 X53.0988 Y-5.7586
G01 X53.1110 Y-5.7438
G01 X53.1665 Y-5.6690
G01 X53.1746 Y-5.6571
G01 X53.2298 Y-5.5647
G01 X53.2778 Y-5.4632
G01 X53.3157 Y-5.3574
G01 X53.3409 Y-5.2577
G01 X53.3446 Y-5.2389
G01 X53.3583 Y-5.1467
G01 X53.3602 Y-5.1277
G01 X53.3650 Y-5.0250
G01 X53.3602 Y-4.9223
G01 X53.3590 Y-4.9080
G01 X53.3430 Y-4.8016
G01 X53.3182 Y-4.7018
G01 X53.3127 Y-4.6835
G01 X53.2778 Y-4.5868
G01 X53.2341 Y-4.4938
G01 X53.2251 Y-4.4769
G01 X53.1772 Y-4.3970
G01 X53.1665 Y-4.3810
G01 X53.1051 Y-4.2986
G01 X53.0296 Y-4.2154
G01 X52.9464 Y-4.1399
G01 X52.8561 Y-4.0730
G01 X52.7681 Y-4.0199
G01 X52.7512 Y-4.0109
G01 X52.6582 Y-3.9672
G01 X52.5615 Y-3.9323
G01 X52.5432 Y-3.9268
G01 X52.4434 Y-3.9020
G01 X52.3417 Y-3.8867
G01 X52.3275 Y-3.8851
G01 X52.2296 Y-3.8802
G01 X52.2104 Y-3.8802
G01 X52.1078 Y-3.8855
G01 X52.0013 Y-3.9011
G01 X51.9873 Y-3.9041
G01 X51.8968 Y-3.9268
G01 X51.8831 Y-3.9307
G01 X51.7863 Y-3.9654
G01 X51.7731 Y-3.9710
G01 X51.7403 Y-3.9865
G01 X50.9499 Y-3.1961
G01 X50.9248 Y-3.1732
G01 X50.9136 Y-3.1642
G01 X50.8939 Y-3.1497
G01 X50.8860 Y-3.1444
G01 X50.8651 Y-3.1318
G01 X50.8482 Y-3.1227
G01 X50.8261 Y-3.1123
G01 X50.8172 Y-3.1087
G01 X50.7852 Y-3.0974
G01 X50.7476 Y-3.0880
G01 X50.7092 Y-3.0823
G01 X50.6801 Y-3.0806
G01 X11.1295 Y-3.0804
G01 X11.1003 Y-3.0816
G01 X11.0860 Y-3.0828
G01 X11.0524 Y-3.0880
G01 X11.0148 Y-3.0974
G01 X10.9783 Y-3.1105
G01 X10.9518 Y-3.1227
G01 X10.9349 Y-3.1318
G01 X10.9140 Y-3.1444
G01 X10.9061 Y-3.1497
G01 X10.8789 Y-3.1701
G01 X10.8501 Y-3.1961
G01 X2.8956 Y-11.1506
G01 X2.8696 Y-11.1794
G01 X2.8465 Y-11.2105
G01 X2.8266 Y-11.2438
G01 X2.8100 Y-11.2788
G01 X2.7969 Y-11.3153
G01 X2.7875 Y-11.3529
G01 X2.7818 Y-11.3913
G01 X2.7801 Y-11.4204
G00 Z1.0000
G00 X3.9852 Y-12.0746
G01 F60.00
G01 Z-0.0500
G01 F180.00
G01 X3.9903 Y-12.1723
G01 X4.0044 Y-12.2692
G01 X4.0081 Y-12.2880
G01 X4.0322 Y-12.3829
G01 X4.0649 Y-12.4751
G01 X4.0722 Y-12.4928
G01 X4.1143 Y-12.5812
G01 X4.1644 Y-12.6653
G01 X4.1751 Y-12.6812
G01 X4.2336 Y-12.7597
G01 X4.2991 Y-12.8324
G01 X4.3126 Y-12.8459
G01 X4.3853 Y-12.9114
G01 X4.4638 Y-12.9699
G01 X4.4797 Y-12.9806
G01 X4.5638 Y-13.0307
G01 X4.6522 Y-13.0728
G01 X4.6699 Y-13.0801
G01 X4.7621 Y-13.1128
G01 X4.8664 Y-13.1390
G01 X4.9632 Y-13.1536
G01 X4.9822 Y-13.1554
G01 X5.0800 Y-13.1600
G01 X5.1778 Y-13.1554
G01 X5.1968 Y-13.1536
G01 X5.2936 Y-13.1390
G01 X5.3886 Y-13.1154
G01 X5.4069 Y-13.1098
G01 X5.4990 Y-13.0766
G01 X5.5876 Y-13.0350
G01 X5.6045 Y-13.0260
G01 X5.6803 Y-12.9806
G01 X5.6923 Y-12.9728
G01 X5.7747 Y-12.9114
G01 X5.8543 Y-12.8393
G01 X5.9264 Y-12.7597
G01 X5.9849 Y-12.6812
G01 X5.9956 Y-12.6653
G01 X6.0410 Y-12.5895
G01 X6.0500 Y-12.5726
G01 X6.0916 Y-12.4840
G01 X6.1248 Y-12.3919
G01 X6.1292 Y-12.3783
G01 X6.1540 Y-12.2786
G01 X6.1697 Y-12.1723
G01 X6.1750 Y-12.0650
G01 X6.1701 Y-11.9624
G01 X6.1686 Y-11.9482
G01 X6.1540 Y-11.8514
G01 X6.1304 Y-11.7564
G01 X6.1248 Y-11.7381
G01 X6.0951 Y-11.6549
G01 X6.0898 Y-11.6416
G01 X6.0810 Y-11.6228
G01 X9.6887 Y-8.0151
G01 X14.7957 Y-8.0151
G01 X14.8193 Y-8.0407
G01 X14.8589 Y-8.0769
G01 X14.8701 Y-8.0858
G01 X14.9055 Y-8.1120
G01 X14.9175 Y-8.1198
G01 X14.9595 Y-8.1447
G01 X15.0036 Y-8.1658
G01 X15.0167 Y-8.1715
G01 X15.0627 Y-8.1879
G01 X15.0765 Y-8.1919
G01 X15.1239 Y-8.2036
G01 X15.1722 Y-8.2110
G01 X15.1912 Y-8.2128
G01 X15.2400 Y-8.2150
G01 X15.2983 Y-8.2121
G01 X15.3561 Y-8.2036
G01 X15.4035 Y-8.1919
G01 X15.4218 Y-8.1864
G01 X15.4677 Y-8.1697
G01 X15.5119 Y-8.1490
G01 X15.5247 Y-8.1424
G01 X15.5625 Y-8.1198
G01 X15.5784 Y-8.1092
G01 X15.6175 Y-8.0799
G01 X15.6607 Y-8.0407
G01 X15.6999 Y-7.9975
G01 X15.7292 Y-7.9584
G01 X15.7398 Y-7.9425
G01 X15.7624 Y-7.9047
G01 X15.7690 Y-7.8919
G01 X15.7897 Y-7.8477
G01 X15.8064 Y-7.8018
G01 X15.8119 Y-7.7835
G01 X15.8236 Y-7.7361
G01 X15.8321 Y-7.6783
G01 X15.8350 Y-7.6200
G01 X15.8328 Y-7.5712
G01 X15.8310 Y-7.5522
G01 X15.8236 Y-7.5039
G01 X15.8119 Y-7.4565
G01 X15.8079 Y-7.4427
G01 X15.7915 Y-7.3967
G01 X15.7858 Y-7.3836
G01 X15.7690 Y-7.3481
G01 X15.7600 Y-7.3312
G01 X15.7347 Y-7.2894
G01 X15.6999 Y-7.2425
G01 X15.6673 Y-7.2062
G01 X15.6538 Y-7.1927
G01 X15.6175 Y-7.1601
G01 X15.5706 Y-7.1253
G01 X15.5288 Y-7.1000
G01 X15.5119 Y-7.0910
G01 X15.4677 Y-7.0703
G01 X15.4127 Y-7.0506
G01 X15.3654 Y-7.0385
G01 X15.3466 Y-7.0348
G01 X15.2983 Y-7.0279
G01 X15.2448 Y-7.0251
G01 X15.2304 Y-7.0252
G01 X15.1817 Y-7.0279
G01 X15.1239 Y-7.0364
G01 X15.0673 Y-7.0506
G01 X15.0212 Y-7.0668
G01 X15.0079 Y-7.0722
G01 X14.9595 Y-7.0953
G01 X14.9175 Y-7.1202
G01 X14.9055 Y-7.1280
G01 X14.8701 Y-7.1542
G01 X14.8589 Y-7.1631
G01 X14.8193 Y-7.1993
G01 X14.7957 Y-7.2249
G01 X9.5250 Y-7.2249
G01 X9.4863 Y-7.2268
G01 X9.4479 Y-7.2325
G01 X9.4103 Y-7.2419
G01 X9.3782 Y-7.2532
G01 X9.3651 Y-7.2589
G01 X9.3388 Y-7.2716
G01 X9.3055 Y-7.2915
G01 X9.2744 Y-7.3146
G01 X9.2456 Y-7.3406
G01 X5.5222 Y-11.0640
G01 X5.5034 Y-11.0552
G01 X5.4946 Y-11.0516
G01 X5.3979 Y-11.0172
G01 X5.3030 Y-10.9931
G01 X5.2842 Y-10.9894
G01 X5.1873 Y-10.9753
G01 X5.0896 Y-10.9702
G01 X5.0704 Y-10.9702
G01 X4.9822 Y-10.9746
G01 X4.9632 Y-10.9764
G01 X4.8664 Y-10.9910
G01 X4.7714 Y-11.0146
G01 X4.7531 Y-11.0202
G01 X4.6610 Y-11.0534
G01 X4.5638 Y-11.0993
G01 X4.4797 Y-11.1494
G01 X4.4638 Y-11.1601
G01 X4.3929 Y-11.2127
G01 X4.3781 Y-11.2248
G01 X4.3126 Y-11.2841
G01 X4.2991 Y-11.2976
G01 X4.2336 Y-11.3703
G01 X4.1751 Y-11.4488
G01 X4.1644 Y-11.4647
G01 X4.1143 Y-11.5488
G01 X4.0722 Y-11.6372
G01 X4.0649 Y-11.6549
G01 X4.0322 Y-11.7471
G01 X4.0060 Y-11.8514
G01 X3.9903 Y-11.9577
G01 X3.9852 Y-12.0554
G01 X3.9852 Y-12.0746
G00 Z1.0000
G00 X4.9524 Y-10.6549
G01 F60.00
G01 Z-0.0500
G01 F180.00
G01 X4.9593 Y-10.6676
G01 X4.9957 Y-10.7286
G01 X5.0036 Y-10.7408
G01 X5.0093 Y-10.7486
G01 X5.0187 Y-10.7597
G01 X5.0288 Y-10.7701
G01 X5.0360 Y-10.7766
G01 X5.0474 Y-10.7857
G01 X5.0553 Y-10.7912
G01 X5.0677 Y-10.7988
G01 X5.0763 Y-10.8033
G01 X5.1482 Y-10.8389
G01 X5.1656 Y-10.8455
G01 X5.1834 Y-10.8505
G01 X5.3450 Y-10.8795
G01 X5.3592 Y-10.8815
G01 X5.3734 Y-10.8825
G01 X5.3829 Y-10.8825
G01 X5.4365 Y-10.8814
G01 X5.4505 Y-10.8803
G01 X5.4690 Y-10.8773
G01 X5.4826 Y-10.8738
G01 X5.4960 Y-10.8694
G01 X5.5090 Y-10.8641
G01 X5.5216 Y-10.8578
G01 X5.5879 Y-10.8215
G01 X5.5997 Y-10.8141
G01 X5.6110 Y-10.8059
G01 X5.6216 Y-10.7969
G01 X5.6283 Y-10.7905
G01 X9.1445 Y-7.2743
G01 X9.1572 Y-7.2609
G01 X9.1829 Y-7.2320
G01 X9.2256 Y-7.2024
G01 X9.2653 Y-7.1720
G01 X9.2783 Y-7.1647
G01 X9.2811 Y-7.1632
G01 X9.3339 Y-7.1430
G01 X9.3797 Y-7.1230
G01 X9.3971 Y-7.1182
G01 X9.4466 Y-7.1121
G01 X9.4979 Y-7.1034
G01 X9.5321 Y-7.1058
G01 X9.5539 Y-7.1065
G01 X14.6286 Y-7.1065
G01 X14.6414 Y-7.1062
G01 X14.6508 Y-7.1057
G01 X14.6648 Y-7.1041
G01 X14.6741 Y-7.1025
G01 X14.6878 Y-7.0992
G01 X14.7013 Y-7.0950
G01 X14.7682 Y-7.0711
G01 X14.7811 Y-7.0660
G01 X14.7977 Y-7.0577
G01 X14.8096 Y-7.0505
G01 X14.8813 Y-6.9987
G01 X15.0183 Y-6.9377
G01 X15.1650 Y-6.9065
G01 X15.3150 Y-6.9065
G01 X15.4617 Y-6.9377
G01 X15.5987 Y-6.9987
G01 X15.7201 Y-7.0868
G01 X15.8204 Y-7.1983
G01 X15.8954 Y-7.3282
G01 X15.9418 Y-7.4708
G01 X15.9574 Y-7.6200
G01 X15.9418 Y-7.7692
G01 X15.8954 Y-7.9118
G01 X15.8204 Y-8.0417
G01 X15.7201 Y-8.1532
G01 X15.5987 Y-8.2413
G01 X15.4617 Y-8.3023
G01 X15.3150 Y-8.3335
G01 X15.1650 Y-8.3335
G01 X15.0183 Y-8.3023
G01 X14.8813 Y-8.2413
G01 X14.8068 Y-8.1875
G01 X14.7907 Y-8.1777
G01 X14.7738 Y-8.1694
G01 X14.7606 Y-8.1643
G01 X14.7517 Y-8.1614
G01 X14.6746 Y-8.1390
G01 X14.6563 Y-8.1355
G01 X14.6471 Y-8.1344
G01 X14.6332 Y-8.1336
G01 X9.8707 Y-8.1335
G01 X9.8602 Y-8.1338
G01 X9.8498 Y-8.1346
G01 X9.8183 Y-8.1381
G01 X9.8088 Y-8.1396
G01 X9.7995 Y-8.1415
G01 X9.7856 Y-8.1453
G01 X9.7721 Y-8.1501
G01 X9.7633 Y-8.1538
G01 X9.7504 Y-8.1602
G01 X9.6801 Y-8.1989
G01 X9.6723 Y-8.2039
G01 X9.6610 Y-8.2121
G01 X9.6539 Y-8.2180
G01 X9.6437 Y-8.2275
G01 X7.5583 Y-10.3130
G01 X7.5483 Y-10.3244
G01 X7.5392 Y-10.3365
G01 X7.5007 Y-10.3987
G01 X7.4939 Y-10.4114
G01 X7.4899 Y-10.4202
G01 X7.4863 Y-10.4291
G01 X7.4818 Y-10.4428
G01 X7.4774 Y-10.4616
G01 X7.4748 Y-10.4807
G01 X7.4719 Y-10.5612
G01 X7.4718 Y-10.5709
G01 X7.4726 Y-10.5854
G01 X7.4745 Y-10.5998
G01 X7.4763 Y-10.6094
G01 X7.4799 Y-10.6234
G01 X7.4846 Y-10.6372
G01 X7.4902 Y-10.6505
G01 X7.4969 Y-10.6635
G01 X7.5382 Y-10.7328
G01 X7.5464 Y-10.7447
G01 X7.5587 Y-10.7597
G01 X7.5688 Y-10.7701
G01 X7.5760 Y-10.7766
G01 X7.5874 Y-10.7857
G01 X7.5994 Y-10.7938
G01 X7.6163 Y-10.8033
G01 X7.6840 Y-10.8370
G01 X7.6925 Y-10.8407
G01 X7.7056 Y-10.8455
G01 X7.7189 Y-10.8494
G01 X7.7280 Y-10.8515
G01 X7.8850 Y-10.8795
G01 X7.8992 Y-10.8815
G01 X7.9134 Y-10.8825
G01 X7.9229 Y-10.8825
G01 X7.9718 Y-10.8816
G01 X7.9858 Y-10.8808
G01 X7.9952 Y-10.8797
G01 X8.0090 Y-10.8773
G01 X8.0181 Y-10.8751
G01 X8.0316 Y-10.8710
G01 X8.0447 Y-10.8660
G01 X8.0574 Y-10.8600
G01 X8.1279 Y-10.8215
G01 X8.1397 Y-10.8141
G01 X8.1473 Y-10.8087
G01 X8.1616 Y-10.7969
G01 X8.7390 Y-10.2198
G01 X8.7517 Y-10.2064
G01 X8.7774 Y-10.1775
G01 X8.8201 Y-10.1478
G01 X8.8598 Y-10.1175
G01 X8.8728 Y-10.1102
G01 X8.8756 Y-10.1087
G01 X8.9284 Y-10.0885
G01 X8.9742 Y-10.0685
G01 X8.9916 Y-10.0637
G01 X9.0411 Y-10.0576
G01 X9.0924 Y-10.0489
G01 X9.1266 Y-10.0512
G01 X9.1484 Y-10.0520
G01 X13.2965 Y-10.0520
G01 X13.3150 Y-10.0515
G01 X13.3536 Y-10.0492
G01 X13.4047 Y-10.0585
G01 X13.4543 Y-10.0651
G01 X13.4686 Y-10.0691
G01 X13.4717 Y-10.0700
G01 X13.5233 Y-10.0931
G01 X13.5698 Y-10.1113
G01 X13.5855 Y-10.1202
G01 X13.6248 Y-10.1510
G01 X13.6672 Y-10.1811
G01 X13.6898 Y-10.2069
G01 X13.7047 Y-10.2229
G01 X14.5452 Y-11.0634
G01 X14.5586 Y-11.0760
G01 X14.5875 Y-11.1018
G01 X14.6172 Y-11.1445
G01 X14.6475 Y-11.1842
G01 X14.6548 Y-11.1972
G01 X14.6563 Y-11.2000
G01 X14.6765 Y-11.2528
G01 X14.6965 Y-11.2985
G01 X14.7013 Y-11.3160
G01 X14.7074 Y-11.3655
G01 X14.7161 Y-11.4168
G01 X14.7138 Y-11.4510
G01 X14.7130 Y-11.4728
G01 X14.7130 Y-21.4739
G01 X14.7136 Y-21.4895
G01 X14.7183 Y-21.5310
G01 X14.7222 Y-21.5497
G01 X14.7263 Y-21.5635
G01 X14.7314 Y-21.5769
G01 X14.7375 Y-21.5899
G01 X14.7760 Y-21.6604
G01 X14.7834 Y-21.6722
G01 X14.7888 Y-21.6798
G01 X14.7975 Y-21.6906
G01 X14.8070 Y-21.7008
G01 X19.7637 Y-26.6575
G01 X19.7752 Y-26.6681
G01 X19.8078 Y-26.6942
G01 X19.8197 Y-26.7022
G01 X19.8364 Y-26.7115
G01 X19.8495 Y-26.7173
G01 X19.8630 Y-26.7222
G01 X19.9447 Y-26.7460
G01 X19.9629 Y-26.7495
G01 X19.9721 Y-26.7506
G01 X19.9860 Y-26.7514
G01 X22.3561 Y-26.7515
G01 X22.3751 Y-26.7506
G01 X22.3891 Y-26.7487
G01 X22.4507 Y-26.7364
G01 X22.4642 Y-26.7325
G01 X22.4774 Y-26.7277
G01 X22.4943 Y-26.7199
G01 X22.5065 Y-26.7129
G01 X22.5220 Y-26.7023
G01 X22.5847 Y-26.6521
G01 X22.5983 Y-26.6396
G01 X22.6107 Y-26.6257
G01 X22.6191 Y-26.6146
G01 X22.6388 Y-26.5865
G01 X22.7765 Y-26.4488
G01 X22.9388 Y-26.3351
G01 X22.9510 Y-26.3279
G01 X22.9624 Y-26.3199
G01 X22.9732 Y-26.3112
G01 X23.0165 Y-26.2734
G01 X23.0267 Y-26.2629
G01 X23.0390 Y-26.2477
G01 X23.0497 Y-26.2314
G01 X23.0587 Y-26.2140
G01 X23.0907 Y-26.1346
G01 X23.0953 Y-26.1209
G01 X23.0988 Y-26.1068
G01 X23.1018 Y-26.0876
G01 X23.1029 Y-26.0731
G01 X23.1025 Y-26.0538
G01 X23.1003 Y-26.0345
G01 X23.0860 Y-25.9601
G01 X23.0827 Y-25.9459
G01 X23.0767 Y-25.9275
G01 X23.0711 Y-25.9141
G01 X23.0620 Y-25.8970
G01 X23.0524 Y-25.8826
G01 X23.1851 Y-25.7499
G01 X23.2016 Y-25.7557
G01 X23.2108 Y-25.7585
G01 X23.2915 Y-25.7788
G01 X23.3056 Y-25.7818
G01 X23.3975 Y-25.7952
G01 X23.4950 Y-25.8000
G01 X23.5925 Y-25.7952
G01 X23.6844 Y-25.7818
G01 X23.6985 Y-25.7788
G01 X23.7792 Y-25.7585
G01 X23.7884 Y-25.7557
G01 X23.8049 Y-25.7499
G01 X23.9377 Y-25.8827
G01 X23.9313 Y-25.8954
G01 X23.9274 Y-25.9043
G01 X23.9010 Y-25.9703
G01 X23.8961 Y-25.9839
G01 X23.8923 Y-25.9979
G01 X23.8895 Y-26.0122
G01 X23.8877 Y-26.0266
G01 X23.8870 Y-26.0411
G01 X23.8879 Y-26.0605
G01 X23.8897 Y-26.0749
G01 X23.9040 Y-26.1494
G01 X23.9073 Y-26.1635
G01 X23.9133 Y-26.1819
G01 X23.9189 Y-26.1953
G01 X23.9280 Y-26.2124
G01 X23.9359 Y-26.2246
G01 X23.9447 Y-26.2361
G01 X23.9544 Y-26.2470
G01 X24.0066 Y-26.3017
G01 X24.0203 Y-26.3142
G01 X24.0314 Y-26.3227
G01 X24.0390 Y-26.3279
G01 X24.0512 Y-26.3351
G01 X24.2135 Y-26.4488
G01 X24.3512 Y-26.5865
G01 X24.3765 Y-26.6222
G01 X24.3857 Y-26.6332
G01 X24.3922 Y-26.6400
G01 X24.4340 Y-26.6803
G01 X24.4447 Y-26.6894
G01 X24.4560 Y-26.6977
G01 X24.4679 Y-26.7052
G01 X24.4803 Y-26.7118
G01 X24.4931 Y-26.7175
G01 X24.5063 Y-26.7222
G01 X24.5879 Y-26.7460
G01 X24.6015 Y-26.7488
G01 X24.6200 Y-26.7510
G01 X24.6339 Y-26.7515
G01 X25.3354 Y-26.7515
G01 X25.3538 Y-26.7510
G01 X25.3925 Y-26.7487
G01 X25.4436 Y-26.7580
G01 X25.4932 Y-26.7646
G01 X25.5105 Y-26.7695
G01 X25.5561 Y-26.7900
G01 X25.6087 Y-26.8108
G01 X25.6114 Y-26.8123
G01 X25.6244 Y-26.8197
G01 X25.6637 Y-26.8505
G01 X25.7061 Y-26.8806
G01 X25.7287 Y-26.9064
G01 X25.7436 Y-26.9224
G01 X26.1493 Y-27.3278
G01 X26.1565 Y-27.3340
G01 X26.1678 Y-27.3426
G01 X26.1839 Y-27.3528
G01 X26.2460 Y-27.3881
G01 X26.2586 Y-27.3943
G01 X26.2761 Y-27.4012
G01 X26.2942 Y-27.4063
G01 X26.3080 Y-27.4090
G01 X26.3267 Y-27.4110
G01 X26.3407 Y-27.4114
G01 X26.4260 Y-27.4081
G01 X26.4452 Y-27.4055
G01 X26.4641 Y-27.4009
G01 X26.4778 Y-27.3963
G01 X26.4912 Y-27.3907
G01 X26.5042 Y-27.3841
G01 X26.5166 Y-27.3766
G01 X26.5867 Y-27.3276
G01 X26.6014 Y-27.3151
G01 X26.6116 Y-27.3047
G01 X26.6180 Y-27.2974
G01 X26.6239 Y-27.2898
G01 X26.6322 Y-27.2778
G01 X26.6372 Y-27.2695
G01 X26.6439 Y-27.2566
G01 X26.6749 Y-27.1822
G01 X26.6798 Y-27.1691
G01 X26.6837 Y-27.1558
G01 X26.6874 Y-27.1376
G01 X26.6951 Y-27.0675
G01 X26.7506 Y-26.8674
G01 X26.7876 Y-26.7876
G01 X26.8779 Y-26.8779
G01 X26.8443 Y-26.9726
G01 X26.8191 Y-27.0723
G01 X26.8154 Y-27.0911
G01 X26.8005 Y-27.1928
G01 X26.7950 Y-27.3050
G01 X26.7998 Y-27.4077
G01 X26.8017 Y-27.4267
G01 X26.8154 Y-27.5189
G01 X26.8180 Y-27.5331
G01 X26.8418 Y-27.6282
G01 X26.8473 Y-27.6465
G01 X26.8822 Y-27.7432
G01 X26.9259 Y-27.8362
G01 X26.9349 Y-27.8531
G01 X26.9880 Y-27.9411
G01 X27.0519 Y-28.0276
G01 X27.0612 Y-28.0386
G01 X27.1238 Y-28.1077
G01 X27.1373 Y-28.1212
G01 X27.2136 Y-28.1901
G01 X27.3039 Y-28.2570
G01 X27.3919 Y-28.3101
G01 X27.4088 Y-28.3191
G01 X27.5018 Y-28.3628
G01 X27.5985 Y-28.3977
G01 X27.6168 Y-28.4032
G01 X27.7073 Y-28.4259
G01 X27.7261 Y-28.4296
G01 X27.8278 Y-28.4445
G01 X27.9304 Y-28.4498
G01 X27.9496 Y-28.4498
G01 X28.0522 Y-28.4445
G01 X28.1634 Y-28.4280
G01 X28.2724 Y-28.4007
G01 X28.3671 Y-28.3671
G01 X28.5609 Y-28.5609
G01 X28.5637 Y-28.6208
G01 X28.5653 Y-28.6353
G01 X28.5679 Y-28.6496
G01 X28.5730 Y-28.6682
G01 X28.5781 Y-28.6818
G01 X28.5864 Y-28.6993
G01 X28.5964 Y-28.7159
G01 X28.6429 Y-28.7816
G01 X28.6517 Y-28.7924
G01 X28.6611 Y-28.8026
G01 X28.6713 Y-28.8121
G01 X28.6784 Y-28.8181
G01 X28.8047 Y-28.9178
G01 X28.9445 Y-29.0714
G01 X29.0574 Y-29.2459
G01 X29.1402 Y-29.4364
G01 X29.1908 Y-29.6379
G01 X29.2083 Y-29.8506
G01 X29.2071 Y-29.9013
G01 X29.1792 Y-30.1129
G01 X29.1754 Y-30.1263
G01 X29.1733 Y-30.1360
G01 X29.1716 Y-30.1458
G01 X29.1704 Y-30.1556
G01 X29.1671 Y-30.2337
G01 X29.1677 Y-30.2529
G01 X29.1694 Y-30.2671
G01 X29.1722 Y-30.2812
G01 X29.1760 Y-30.2951
G01 X29.1826 Y-30.3130
G01 X29.1909 Y-30.3303
G01 X29.2250 Y-30.3926
G01 X29.2321 Y-30.4046
G01 X29.2428 Y-30.4197
G01 X29.2518 Y-30.4303
G01 X29.2582 Y-30.4370
G01 X30.5987 Y-31.7775
G01 X30.6102 Y-31.7881
G01 X30.6389 Y-31.8113
G01 X30.6507 Y-31.8196
G01 X30.6672 Y-31.8293
G01 X30.6845 Y-31.8373
G01 X30.6980 Y-31.8422
G01 X30.7752 Y-31.8649
G01 X30.7888 Y-31.8680
G01 X30.8025 Y-31.8701
G01 X30.8164 Y-31.8713
G01 X30.8257 Y-31.8715
G01 X39.3454 Y-31.8715
G01 X39.3638 Y-31.8710
G01 X39.4025 Y-31.8687
G01 X39.4536 Y-31.8780
G01 X39.5032 Y-31.8846
G01 X39.5205 Y-31.8895
G01 X39.5661 Y-31.9100
G01 X39.6187 Y-31.9308
G01 X39.6344 Y-31.9397
G01 X39.6737 Y-31.9705
G01 X39.7161 Y-32.0006
G01 X39.7386 Y-32.0264
G01 X39.7536 Y-32.0424
G01 X42.7550 Y-35.0437
G01 X42.7668 Y-35.0540
G01 X42.7954 Y-35.0768
G01 X42.8114 Y-35.0873
G01 X42.8240 Y-35.0941
G01 X42.8371 Y-35.0999
G01 X42.8506 Y-35.1048
G01 X42.9323 Y-35.1286
G01 X42.9414 Y-35.1306
G01 X42.9551 Y-35.1327
G01 X42.9644 Y-35.1336
G01 X42.9783 Y-35.1341
G01 X51.1205 Y-35.1341
G01 X51.1344 Y-35.1336
G01 X51.1436 Y-35.1327
G01 X51.1574 Y-35.1306
G01 X51.2238 Y-35.1160
G01 X51.2331 Y-35.1132
G01 X51.2468 Y-35.1082
G01 X51.2601 Y-35.1021
G01 X51.2687 Y-35.0975
G01 X51.2852 Y-35.0871
G01 X51.2968 Y-35.0783
G01 X51.3542 Y-35.0286
G01 X51.3614 Y-35.0221
G01 X51.3715 Y-35.0117
G01 X51.3837 Y-34.9966
G01 X51.3918 Y-34.9846
G01 X51.3991 Y-34.9720
G01 X51.4054 Y-34.9589
G01 X51.4090 Y-34.9500
G01 X51.4136 Y-34.9362
G01 X51.4336 Y-34.8681
G01 X51.4370 Y-34.8546
G01 X51.4401 Y-34.8363
G01 X51.4414 Y-34.8178
G01 X51.4415 Y-34.6600
G01 X51.4445 Y-34.6328
G01 X51.4772 Y-34.5455
G01 X51.5310 Y-34.4737
G01 X51.6029 Y-34.4198
G01 X51.6901 Y-34.3871
G01 X51.7174 Y-34.3841
G01 X53.6926 Y-34.3841
G01 X53.7199 Y-34.3871
G01 X53.8071 Y-34.4198
G01 X53.8790 Y-34.4737
G01 X53.9328 Y-34.5455
G01 X53.9655 Y-34.6328
G01 X53.9685 Y-34.6600
G01 X53.9685 Y-34.8131
G01 X53.9690 Y-34.8270
G01 X53.9705 Y-34.8409
G01 X53.9730 Y-34.8546
G01 X53.9854 Y-34.9117
G01 X53.9894 Y-34.9257
G01 X53.9945 Y-34.9394
G01 X54.0027 Y-34.9571
G01 X54.0127 Y-34.9738
G01 X54.0213 Y-34.9856
G01 X54.0805 Y-35.0540
G01 X54.0874 Y-35.0608
G01 X54.0983 Y-35.0704
G01 X54.1139 Y-35.0818
G01 X54.1263 Y-35.0894
G01 X54.1393 Y-35.0960
G01 X54.1482 Y-35.0998
G01 X54.1618 Y-35.1048
G01 X54.2435 Y-35.1286
G01 X54.2617 Y-35.1321
G01 X54.2756 Y-35.1336
G01 X54.2895 Y-35.1341
G01 X54.8117 Y-35.1341
G01 X54.8274 Y-35.1335
G01 X54.8688 Y-35.1289
G01 X54.8782 Y-35.1271
G01 X54.8922 Y-35.1237
G01 X54.9103 Y-35.1175
G01 X54.9277 Y-35.1096
G01 X54.9983 Y-35.0711
G01 X55.0101 Y-35.0637
G01 X55.0177 Y-35.0583
G01 X55.0250 Y-35.0526
G01 X55.0354 Y-35.0433
G01 X57.1462 Y-32.9326
G01 X57.1558 Y-32.9223
G01 X57.1675 Y-32.9074
G01 X57.2045 Y-32.8496
G01 X57.2134 Y-32.8332
G01 X57.2206 Y-32.8160
G01 X57.2262 Y-32.7981
G01 X57.2293 Y-32.7844
G01 X57.2314 Y-32.7706
G01 X57.2322 Y-32.7613
G01 X57.2367 Y-32.6904
G01 X57.2371 Y-32.6765
G01 X57.2361 Y-32.6580
G01 X57.2342 Y-32.6442
G01 X57.2142 Y-32.5545
G01 X57.2027 Y-32.3552
G01 X57.2239 Y-32.1568
G01 X57.2772 Y-31.9645
G01 X57.3612 Y-31.7835
G01 X57.4737 Y-31.6187
G01 X57.6116 Y-31.4744
G01 X57.7506 Y-31.3699
G01 X57.7583 Y-31.3636
G01 X57.7656 Y-31.3568
G01 X57.7885 Y-31.3345
G01 X57.7984 Y-31.3242
