( Made using CamBam - http://www.cambam.co.uk )
( BoardCut 3/18/2022 8:16:47 PM )
( Post processor: Matt )
( T0 : 0.0 )
G21 G90
G0 Z2.0
( T0 : 0.0 )
( BoardCut )
G17
M3 S10000
G0 X0.0 Y0.0
G0 Z1.0
G1 F200.0 Z-0.5
G1 F350.0 X103.0
G1 F200.0 Z-1.0
G1 F350.0 X0.0
G1 F200.0 Z-1.5
G1 F350.0 X103.0
G1 F200.0 Z-2.0
G1 F350.0 X0.0
G1 F200.0 Z-2.5
G1 F350.0 X103.0
G1 F200.0 Z-3.0
G1 F350.0 X0.0
G1 F200.0 Z-3.5
G1 F350.0 X103.0
G1 F200.0 Z-4.0
G1 F350.0 X0.0
G1 F200.0 Z-4.5
G1 F350.0 X103.0
G1 F200.0 Z-5.0
G1 F350.0 X0.0
G1 F200.0 Z-5.5
G1 F350.0 X103.0
G1 F200.0 Z-6.0
G1 F350.0 X0.0
G1 F200.0 Z-6.43
G1 F350.0 X103.0
G0 Z2.0
M5
M30
