( Made using CamBam - http://www.cambam.co.uk )
( face_plate 3/20/2022 12:10:31 AM )
( Post processor: Matt )
( T0 : 2.6 )
G21 G90
G0 Z5.0
( T0 : 2.6 )
( Drill )
G17
M3 S10000
G0 X10.1511 Y49.1269
G0 X10.1511 Y49.1269
G0 Z5.0
G1 Z-3.8 F200.0
G0 Z5.0
G0 Y19.1269
G0 Z5.0
G1 Z-3.8
G0 Z5.0
G0 X105.6511
G0 Z5.0
G1 Z-3.8
G0 Z5.0
G0 Y49.1269
G0 Z5.0
G1 Z-3.8
G0 Z5.0
M5
M30
