( Made using CamBam - http://www.cambam.co.uk )
( face_plate 3/13/2022 2:13:53 PM )
( Post processor: Default )
( T0 : 2.2 )
G21 G90
G0 Z2.0
( T0 : 2.2 )
( Outside Cut )
G17
M3 S10000
G0 X-1.095 Y10.7285
G0 Z1.0
G1 F200.0 Z-0.5
G1 F400.0 X-1.0725 Y10.2318
G3 X-1.0691 Y10.1823 I1.0989 J0.0498
G1 X-1.0242 Y9.6871
G3 X-1.0186 Y9.6378 I1.0955 J0.0993
G1 X-0.9514 Y9.1451
G3 X-0.9436 Y9.096 I1.0899 J0.1487
G1 X-0.8542 Y8.6069
G3 X-0.8442 Y8.5583 I1.0821 J0.1978
G1 X-0.7328 Y8.0737
G3 X-0.7205 Y8.0255 I1.072 J0.2465
G1 X-0.5873 Y7.5465
G3 X-0.5729 Y7.4989 I1.0598 J0.2947
G1 X-0.4182 Y7.0264
G3 X-0.4017 Y6.9795 I1.0454 J0.3423
G1 X-0.2258 Y6.5145
G3 X-0.2072 Y6.4685 I1.0288 J0.3892
G1 X-0.0105 Y6.0119
G3 X0.0103 Y5.9666 I1.0102 J0.4352
G1 X0.2275 Y5.5193
G3 X0.2502 Y5.475 I0.9895 J0.4805
G1 X0.4874 Y5.038
G3 X0.512 Y4.995 I0.9668 J0.5248
G1 X0.7686 Y4.5692
G3 X0.7954 Y4.527 I0.9421 J0.5678
G1 X1.0711 Y4.1132
G3 X1.0994 Y4.0727 I0.9154 J0.6099
G1 X1.3934 Y3.6718
G3 X1.4238 Y3.6322 I0.887 J0.6505
G1 X1.7357 Y3.245
G3 X1.7677 Y3.2071 I0.8566 J0.69
G1 X2.0967 Y2.8344
G3 X2.1305 Y2.7978 I0.8247 J0.728
G1 X2.4761 Y2.4403
G3 X2.5115 Y2.4053 I0.7909 J0.7645
G1 X2.8729 Y2.0638
G3 X2.9097 Y2.0306 I0.7555 J0.7995
G1 X3.2861 Y1.7058
G3 X3.3245 Y1.6742 I0.7186 J0.8328
G1 X3.7152 Y1.3667
G3 X3.755 Y1.3368 I0.6803 J0.8644
G1 X4.1592 Y1.0473
G3 X4.2003 Y1.0192 I0.6405 J0.8943
G1 X4.6172 Y0.7483
G3 X4.6593 Y0.7223 I0.5994 J0.9224
G1 X5.088 Y0.4704
G3 X5.1315 Y0.4461 I0.5573 J0.9484
G1 X5.5711 Y0.2139
G3 X5.6156 Y0.1917 I0.5138 J0.9726
G1 X6.0653 Y-0.0204
G3 X6.1108 Y-0.0407 I0.4693 J0.9949
G1 X6.5696 Y-0.2322
G3 X6.6157 Y-0.2502 I0.4237 J1.0151
G1 X7.0827 Y-0.4209
G3 X7.13 Y-0.437 I0.3776 J1.0331
G1 X7.6042 Y-0.5863
G3 X7.6518 Y-0.6001 I0.3303 J1.0492
G1 X8.1323 Y-0.7279
G3 X8.1807 Y-0.7396 I0.2828 J1.063
G1 X8.6665 Y-0.8455
G3 X8.7152 Y-0.855 I0.2343 J1.0748
G1 X9.2053 Y-0.9389
G3 X9.2544 Y-0.9461 I0.1856 J1.0842
G1 X9.7477 Y-1.0078
G3 X9.7975 Y-1.0129 I0.1365 J1.0915
G1 X10.2931 Y-1.0521
G3 X10.3425 Y-1.0549 I0.0867 J1.0966
G1 X10.8394 Y-1.0718
G3 X10.8768 Y-1.0724 I0.0374 J1.0994
G1 X98.8768
G3 X98.8892 I0.0 J1.1
G1 X99.3864 Y-1.0668
G3 X99.4362 Y-1.0651 I-0.0124 J1.0999
G1 X99.9325 Y-1.037
G3 X99.982 Y-1.0331 I-0.0622 J1.0982
G1 X100.4767 Y-0.9826
G3 X100.5261 Y-0.9764 I-0.1117 J1.0943
G1 X101.0179 Y-0.9036
G3 X101.0668 Y-0.8952 I-0.1611 J1.0881
G1 X101.5548 Y-0.8003
G3 X101.6034 Y-0.7897 I-0.21 J1.0798
G1 X102.0867 Y-0.6728
G3 X102.1347 Y-0.66 I-0.2586 J1.0692
G1 X102.6122 Y-0.5214
G3 X102.6596 Y-0.5065 I-0.3066 J1.0564
G1 X103.1303 Y-0.3465
G3 X103.1772 Y-0.3294 I-0.354 J1.0415
G1 X103.6402 Y-0.1482
G3 X103.6857 Y-0.1292 I-0.4009 J1.0243
G1 X104.1401 Y0.0726
G3 X104.1853 Y0.094 I-0.4465 J1.0053
G1 X104.63 Y0.3162
G3 X104.674 Y0.3394 I-0.4917 J0.984
G1 X105.1083 Y0.5815
G3 X105.1512 Y0.6067 I-0.5356 J0.9608
G1 X105.5741 Y0.8682
G3 X105.6158 Y0.8953 I-0.5785 J0.9356
G1 X106.0264 Y1.1756
G3 X106.0666 Y1.2044 I-0.6202 J0.9085
G1 X106.4642 Y1.5029
G3 X106.5035 Y1.5338 I-0.6604 J0.8797
G1 X106.8872 Y1.8501
G3 X106.9247 Y1.8824 I-0.6997 J0.8488
G1 X107.2937 Y2.2156
G3 X107.33 Y2.2499 I-0.7372 J0.8164
G1 X107.6835 Y2.5995
G3 X107.7179 Y2.6352 I-0.7735 J0.7821
G1 X108.0553 Y3.0004
G3 X108.0882 Y3.0377 I-0.808 J0.7465
G1 X108.4087 Y3.4177
G3 X108.4399 Y3.4564 I-0.8409 J0.7092
G1 X108.743 Y3.8506
G3 X108.7725 Y3.8908 I-0.872 J0.6705
G1 X109.0574 Y4.2983
G3 X109.0849 Y4.3396 I-0.9015 J0.6303
G1 X109.3511 Y4.7595
G3 X109.3767 Y4.802 I-0.929 J0.589
G1 X109.6237 Y5.2335
G3 X109.6475 Y5.2773 I-0.9547 J0.5465
G1 X109.8747 Y5.7195
G3 X109.8964 Y5.7642 I-0.9784 J0.5027
G1 X110.1034 Y6.2163
G3 X110.123 Y6.2618 I-1.0001 J0.4579
G1 X110.3094 Y6.7227
G3 X110.3271 Y6.7694 I-1.0198 J0.4124
G1 X110.4924 Y7.2383
G3 X110.5078 Y7.2854 I-1.0374 J0.3657
G1 X110.6518 Y7.7613
G3 X110.6652 Y7.8093 I-1.0529 J0.3186
G1 X110.7875 Y8.2912
G3 X110.7986 Y8.3395 I-1.0662 J0.2706
G1 X110.8991 Y8.8264
G3 X110.908 Y8.8755 I-1.0773 J0.2223
G1 X110.9863 Y9.3665
G3 X110.9931 Y9.4156 I-1.0863 J0.1732
G1 X111.0492 Y9.9096
G3 X111.0536 Y9.9592 I-1.093 J0.1241
G1 X111.0873 Y10.4552
G3 X111.0896 Y10.505 I-1.0975 J0.0746
G1 X111.1008 Y11.0021
G3 X111.1011 Y11.0269 I-1.0997 J0.0248
G1 Y57.0269
G3 X111.1008 Y57.0516 I-1.1 J0.0
G1 X111.0896 Y57.5487
G3 X111.0873 Y57.5985 I-1.0997 J-0.0248
G1 X111.0536 Y58.0945
G3 X111.0492 Y58.1441 I-1.0975 J-0.0746
G1 X110.9931 Y58.6381
G3 X110.9864 Y58.6872 I-1.093 J-0.1241
G1 X110.9081 Y59.1782
G3 X110.8991 Y59.2273 I-1.0863 J-0.1732
G1 X110.7986 Y59.7142
G3 X110.7875 Y59.7624 I-1.0773 J-0.2224
G1 X110.6652 Y60.2443
G3 X110.6518 Y60.2923 I-1.0662 J-0.2706
G1 X110.5078 Y60.7682
G3 X110.4924 Y60.8154 I-1.0529 J-0.3186
G1 X110.3271 Y61.2843
G3 X110.3094 Y61.331 I-1.0374 J-0.3657
G1 X110.123 Y61.7919
G3 X110.1034 Y61.8374 I-1.0198 J-0.4124
G1 X109.8964 Y62.2895
G3 X109.8747 Y62.3343 I-1.0001 J-0.4579
G1 X109.6475 Y62.7765
G3 X109.6237 Y62.8202 I-0.9784 J-0.5027
G1 X109.3767 Y63.2517
G3 X109.3511 Y63.2942 I-0.9547 J-0.5465
G1 X109.0849 Y63.7141
G3 X109.0574 Y63.7554 I-0.929 J-0.589
G1 X108.7725 Y64.1629
G3 X108.743 Y64.2032 I-0.9015 J-0.6303
G1 X108.4399 Y64.5974
G3 X108.4087 Y64.6361 I-0.872 J-0.6705
G1 X108.0882 Y65.0161
G3 X108.0553 Y65.0533 I-0.8409 J-0.7092
G1 X107.7179 Y65.4185
G3 X107.6835 Y65.4542 I-0.808 J-0.7465
G1 X107.33 Y65.8038
G3 X107.2937 Y65.8381 I-0.7735 J-0.7821
G1 X106.9247 Y66.1713
G3 X106.8872 Y66.2036 I-0.7372 J-0.8164
G1 X106.5035 Y66.5199
G3 X106.4642 Y66.5508 I-0.6997 J-0.8488
G1 X106.0666 Y66.8493
G3 X106.0264 Y66.8782 I-0.6604 J-0.8797
G1 X105.6158 Y67.1585
G3 X105.5741 Y67.1855 I-0.6202 J-0.9085
G1 X105.1512 Y67.447
G3 X105.1083 Y67.4723 I-0.5785 J-0.9356
G1 X104.674 Y67.7144
G3 X104.63 Y67.7376 I-0.5356 J-0.9608
G1 X104.1853 Y67.9598
G3 X104.1401 Y67.9811 I-0.4917 J-0.984
G1 X103.6857 Y68.1829
G3 X103.6402 Y68.2019 I-0.4465 J-1.0053
G1 X103.1772 Y68.3831
G3 X103.1303 Y68.4002 I-0.4009 J-1.0243
G1 X102.6596 Y68.5602
G3 X102.6122 Y68.5752 I-0.354 J-1.0415
G1 X102.1347 Y68.7138
G3 X102.0867 Y68.7265 I-0.3066 J-1.0564
G1 X101.6034 Y68.8434
G3 X101.5548 Y68.854 I-0.2586 J-1.0692
G1 X101.0668 Y68.9489
G3 X101.0179 Y68.9573 I-0.21 J-1.0798
G1 X100.5261 Y69.0301
G3 X100.4767 Y69.0363 I-0.1611 J-1.0881
G1 X99.982 Y69.0868
G3 X99.9325 Y69.0907 I-0.1117 J-1.0943
G1 X99.4362 Y69.1188
G3 X99.3864 Y69.1205 I-0.0622 J-1.0982
G1 X98.8892 Y69.1261
G3 X98.8768 Y69.1262 I-0.0124 J-1.0999
G1 X10.8768
G3 X10.8394 Y69.1255 I0.0 J-1.1
G1 X10.3425 Y69.1086
G3 X10.2931 Y69.1058 I0.0374 J-1.0994
G1 X9.7975 Y69.0666
G3 X9.7477 Y69.0616 I0.0867 J-1.0966
G1 X9.2544 Y68.9999
G3 X9.2053 Y68.9926 I0.1365 J-1.0915
G1 X8.7152 Y68.9087
G3 X8.6665 Y68.8992 I0.1856 J-1.0842
G1 X8.1807 Y68.7933
G3 X8.1323 Y68.7816 I0.2343 J-1.0748
G1 X7.6518 Y68.6538
G3 X7.6042 Y68.64 I0.2828 J-1.063
G1 X7.13 Y68.4907
G3 X7.0827 Y68.4746 I0.3303 J-1.0492
G1 X6.6157 Y68.3039
G3 X6.5696 Y68.2859 I0.3776 J-1.0331
G1 X6.1108 Y68.0944
G3 X6.0653 Y68.0741 I0.4237 J-1.0151
G1 X5.6156 Y67.862
G3 X5.5711 Y67.8398 I0.4693 J-0.9949
G1 X5.1315 Y67.6076
G3 X5.088 Y67.5834 I0.5138 J-0.9726
G1 X4.6593 Y67.3315
G3 X4.6172 Y67.3054 I0.5573 J-0.9484
G1 X4.2003 Y67.0345
G3 X4.1592 Y67.0064 I0.5994 J-0.9224
G1 X3.755 Y66.7169
G3 X3.7152 Y66.687 I0.6405 J-0.8943
G1 X3.3245 Y66.3795
G3 X3.2861 Y66.348 I0.6803 J-0.8644
G1 X2.9097 Y66.0232
G3 X2.8729 Y65.9899 I0.7186 J-0.8328
G1 X2.5115 Y65.6484
G3 X2.4761 Y65.6134 I0.7555 J-0.7995
G1 X2.1305 Y65.2559
G3 X2.0967 Y65.2193 I0.7909 J-0.7645
G1 X1.7677 Y64.8466
G3 X1.7357 Y64.8087 I0.8247 J-0.728
G1 X1.4238 Y64.4215
G3 X1.3934 Y64.382 I0.8566 J-0.69
G1 X1.0994 Y63.9811
G3 X1.0711 Y63.9405 I0.887 J-0.6505
G1 X0.7954 Y63.5267
G3 X0.7686 Y63.4845 I0.9154 J-0.6099
G1 X0.512 Y63.0587
G3 X0.4874 Y63.0157 I0.9421 J-0.5678
G1 X0.2502 Y62.5787
G3 X0.2275 Y62.5344 I0.9668 J-0.5248
G1 X0.0103 Y62.0871
G3 X-0.0105 Y62.0419 I0.9895 J-0.4805
G1 X-0.2072 Y61.5853
G3 X-0.2258 Y61.5393 I1.0102 J-0.4352
G1 X-0.4017 Y61.0743
G3 X-0.4182 Y61.0273 I1.0288 J-0.3892
G1 X-0.5729 Y60.5548
G3 X-0.5873 Y60.5073 I1.0454 J-0.3423
G1 X-0.7205 Y60.0283
G3 X-0.7328 Y59.98 I1.0598 J-0.2947
G1 X-0.8442 Y59.4954
G3 X-0.8542 Y59.4468 I1.072 J-0.2464
G1 X-0.9436 Y58.9578
G3 X-0.9514 Y58.9086 I1.0821 J-0.1978
G1 X-1.0186 Y58.4159
G3 X-1.0242 Y58.3666 I1.0899 J-0.1487
G1 X-1.0691 Y57.8715
G3 X-1.0725 Y57.8219 I1.0955 J-0.0993
G1 X-1.095 Y57.3252
G3 X-1.0961 Y57.2755 I1.0989 J-0.0498
G1 Y10.7783
G3 X-1.095 Y10.7285 I1.1 J0.0
G1 F200.0 Z-1.0
G1 F400.0 X-1.0725 Y10.2318
G3 X-1.0691 Y10.1823 I1.0989 J0.0498
G1 X-1.0242 Y9.6871
G3 X-1.0186 Y9.6378 I1.0955 J0.0993
G1 X-0.9514 Y9.1451
G3 X-0.9436 Y9.096 I1.0899 J0.1487
G1 X-0.8542 Y8.6069
G3 X-0.8442 Y8.5583 I1.0821 J0.1978
G1 X-0.7328 Y8.0737
G3 X-0.7205 Y8.0255 I1.072 J0.2465
G1 X-0.5873 Y7.5465
G3 X-0.5729 Y7.4989 I1.0598 J0.2947
G1 X-0.4182 Y7.0264
G3 X-0.4017 Y6.9795 I1.0454 J0.3423
G1 X-0.2258 Y6.5145
G3 X-0.2072 Y6.4685 I1.0288 J0.3892
G1 X-0.0105 Y6.0119
G3 X0.0103 Y5.9666 I1.0102 J0.4352
G1 X0.2275 Y5.5193
G3 X0.2502 Y5.475 I0.9895 J0.4805
G1 X0.4874 Y5.038
G3 X0.512 Y4.995 I0.9668 J0.5248
G1 X0.7686 Y4.5692
G3 X0.7954 Y4.527 I0.9421 J0.5678
G1 X1.0711 Y4.1132
G3 X1.0994 Y4.0727 I0.9154 J0.6099
G1 X1.3934 Y3.6718
G3 X1.4238 Y3.6322 I0.887 J0.6505
G1 X1.7357 Y3.245
G3 X1.7677 Y3.2071 I0.8566 J0.69
G1 X2.0967 Y2.8344
G3 X2.1305 Y2.7978 I0.8247 J0.728
G1 X2.4761 Y2.4403
G3 X2.5115 Y2.4053 I0.7909 J0.7645
G1 X2.8729 Y2.0638
G3 X2.9097 Y2.0306 I0.7555 J0.7995
G1 X3.2861 Y1.7058
G3 X3.3245 Y1.6742 I0.7186 J0.8328
G1 X3.7152 Y1.3667
G3 X3.755 Y1.3368 I0.6803 J0.8644
G1 X4.1592 Y1.0473
G3 X4.2003 Y1.0192 I0.6405 J0.8943
G1 X4.6172 Y0.7483
G3 X4.6593 Y0.7223 I0.5994 J0.9224
G1 X5.088 Y0.4704
G3 X5.1315 Y0.4461 I0.5573 J0.9484
G1 X5.5711 Y0.2139
G3 X5.6156 Y0.1917 I0.5138 J0.9726
G1 X6.0653 Y-0.0204
G3 X6.1108 Y-0.0407 I0.4693 J0.9949
G1 X6.5696 Y-0.2322
G3 X6.6157 Y-0.2502 I0.4237 J1.0151
G1 X7.0827 Y-0.4209
G3 X7.13 Y-0.437 I0.3776 J1.0331
G1 X7.6042 Y-0.5863
G3 X7.6518 Y-0.6001 I0.3303 J1.0492
G1 X8.1323 Y-0.7279
G3 X8.1807 Y-0.7396 I0.2828 J1.063
G1 X8.6665 Y-0.8455
G3 X8.7152 Y-0.855 I0.2343 J1.0748
G1 X9.2053 Y-0.9389
G3 X9.2544 Y-0.9461 I0.1856 J1.0842
G1 X9.7477 Y-1.0078
G3 X9.7975 Y-1.0129 I0.1365 J1.0915
G1 X10.2931 Y-1.0521
G3 X10.3425 Y-1.0549 I0.0867 J1.0966
G1 X10.8394 Y-1.0718
G3 X10.8768 Y-1.0724 I0.0374 J1.0994
G1 X98.8768
G3 X98.8892 I0.0 J1.1
G1 X99.3864 Y-1.0668
G3 X99.4362 Y-1.0651 I-0.0124 J1.0999
G1 X99.9325 Y-1.037
G3 X99.982 Y-1.0331 I-0.0622 J1.0982
G1 X100.4767 Y-0.9826
G3 X100.5261 Y-0.9764 I-0.1117 J1.0943
G1 X101.0179 Y-0.9036
G3 X101.0668 Y-0.8952 I-0.1611 J1.0881
G1 X101.5548 Y-0.8003
G3 X101.6034 Y-0.7897 I-0.21 J1.0798
G1 X102.0867 Y-0.6728
G3 X102.1347 Y-0.66 I-0.2586 J1.0692
G1 X102.6122 Y-0.5214
G3 X102.6596 Y-0.5065 I-0.3066 J1.0564
G1 X103.1303 Y-0.3465
G3 X103.1772 Y-0.3294 I-0.354 J1.0415
G1 X103.6402 Y-0.1482
G3 X103.6857 Y-0.1292 I-0.4009 J1.0243
G1 X104.1401 Y0.0726
G3 X104.1853 Y0.094 I-0.4465 J1.0053
G1 X104.63 Y0.3162
G3 X104.674 Y0.3394 I-0.4917 J0.984
G1 X105.1083 Y0.5815
G3 X105.1512 Y0.6067 I-0.5356 J0.9608
G1 X105.5741 Y0.8682
G3 X105.6158 Y0.8953 I-0.5785 J0.9356
G1 X106.0264 Y1.1756
G3 X106.0666 Y1.2044 I-0.6202 J0.9085
G1 X106.4642 Y1.5029
G3 X106.5035 Y1.5338 I-0.6604 J0.8797
G1 X106.8872 Y1.8501
G3 X106.9247 Y1.8824 I-0.6997 J0.8488
G1 X107.2937 Y2.2156
G3 X107.33 Y2.2499 I-0.7372 J0.8164
G1 X107.6835 Y2.5995
G3 X107.7179 Y2.6352 I-0.7735 J0.7821
G1 X108.0553 Y3.0004
G3 X108.0882 Y3.0377 I-0.808 J0.7465
G1 X108.4087 Y3.4177
G3 X108.4399 Y3.4564 I-0.8409 J0.7092
G1 X108.743 Y3.8506
G3 X108.7725 Y3.8908 I-0.872 J0.6705
G1 X109.0574 Y4.2983
G3 X109.0849 Y4.3396 I-0.9015 J0.6303
G1 X109.3511 Y4.7595
G3 X109.3767 Y4.802 I-0.929 J0.589
G1 X109.6237 Y5.2335
G3 X109.6475 Y5.2773 I-0.9547 J0.5465
G1 X109.8747 Y5.7195
G3 X109.8964 Y5.7642 I-0.9784 J0.5027
G1 X110.1034 Y6.2163
G3 X110.123 Y6.2618 I-1.0001 J0.4579
G1 X110.3094 Y6.7227
G3 X110.3271 Y6.7694 I-1.0198 J0.4124
G1 X110.4924 Y7.2383
G3 X110.5078 Y7.2854 I-1.0374 J0.3657
G1 X110.6518 Y7.7613
G3 X110.6652 Y7.8093 I-1.0529 J0.3186
G1 X110.7875 Y8.2912
G3 X110.7986 Y8.3395 I-1.0662 J0.2706
G1 X110.8991 Y8.8264
G3 X110.908 Y8.8755 I-1.0773 J0.2223
G1 X110.9863 Y9.3665
G3 X110.9931 Y9.4156 I-1.0863 J0.1732
G1 X111.0492 Y9.9096
G3 X111.0536 Y9.9592 I-1.093 J0.1241
G1 X111.0873 Y10.4552
G3 X111.0896 Y10.505 I-1.0975 J0.0746
G1 X111.1008 Y11.0021
G3 X111.1011 Y11.0269 I-1.0997 J0.0248
G1 Y57.0269
G3 X111.1008 Y57.0516 I-1.1 J0.0
G1 X111.0896 Y57.5487
G3 X111.0873 Y57.5985 I-1.0997 J-0.0248
G1 X111.0536 Y58.0945
G3 X111.0492 Y58.1441 I-1.0975 J-0.0746
G1 X110.9931 Y58.6381
G3 X110.9864 Y58.6872 I-1.093 J-0.1241
G1 X110.9081 Y59.1782
G3 X110.8991 Y59.2273 I-1.0863 J-0.1732
G1 X110.7986 Y59.7142
G3 X110.7875 Y59.7624 I-1.0773 J-0.2224
G1 X110.6652 Y60.2443
G3 X110.6518 Y60.2923 I-1.0662 J-0.2706
G1 X110.5078 Y60.7682
G3 X110.4924 Y60.8154 I-1.0529 J-0.3186
G1 X110.3271 Y61.2843
G3 X110.3094 Y61.331 I-1.0374 J-0.3657
G1 X110.123 Y61.7919
G3 X110.1034 Y61.8374 I-1.0198 J-0.4124
G1 X109.8964 Y62.2895
G3 X109.8747 Y62.3343 I-1.0001 J-0.4579
G1 X109.6475 Y62.7765
G3 X109.6237 Y62.8202 I-0.9784 J-0.5027
G1 X109.3767 Y63.2517
G3 X109.3511 Y63.2942 I-0.9547 J-0.5465
G1 X109.0849 Y63.7141
G3 X109.0574 Y63.7554 I-0.929 J-0.589
G1 X108.7725 Y64.1629
G3 X108.743 Y64.2032 I-0.9015 J-0.6303
G1 X108.4399 Y64.5974
G3 X108.4087 Y64.6361 I-0.872 J-0.6705
G1 X108.0882 Y65.0161
G3 X108.0553 Y65.0533 I-0.8409 J-0.7092
G1 X107.7179 Y65.4185
G3 X107.6835 Y65.4542 I-0.808 J-0.7465
G1 X107.33 Y65.8038
G3 X107.2937 Y65.8381 I-0.7735 J-0.7821
G1 X106.9247 Y66.1713
G3 X106.8872 Y66.2036 I-0.7372 J-0.8164
G1 X106.5035 Y66.5199
G3 X106.4642 Y66.5508 I-0.6997 J-0.8488
G1 X106.0666 Y66.8493
G3 X106.0264 Y66.8782 I-0.6604 J-0.8797
G1 X105.6158 Y67.1585
G3 X105.5741 Y67.1855 I-0.6202 J-0.9085
G1 X105.1512 Y67.447
G3 X105.1083 Y67.4723 I-0.5785 J-0.9356
G1 X104.674 Y67.7144
G3 X104.63 Y67.7376 I-0.5356 J-0.9608
G1 X104.1853 Y67.9598
G3 X104.1401 Y67.9811 I-0.4917 J-0.984
G1 X103.6857 Y68.1829
G3 X103.6402 Y68.2019 I-0.4465 J-1.0053
G1 X103.1772 Y68.3831
G3 X103.1303 Y68.4002 I-0.4009 J-1.0243
G1 X102.6596 Y68.5602
G3 X102.6122 Y68.5752 I-0.354 J-1.0415
G1 X102.1347 Y68.7138
G3 X102.0867 Y68.7265 I-0.3066 J-1.0564
G1 X101.6034 Y68.8434
G3 X101.5548 Y68.854 I-0.2586 J-1.0692
G1 X101.0668 Y68.9489
G3 X101.0179 Y68.9573 I-0.21 J-1.0798
G1 X100.5261 Y69.0301
G3 X100.4767 Y69.0363 I-0.1611 J-1.0881
G1 X99.982 Y69.0868
G3 X99.9325 Y69.0907 I-0.1117 J-1.0943
G1 X99.4362 Y69.1188
G3 X99.3864 Y69.1205 I-0.0622 J-1.0982
G1 X98.8892 Y69.1261
G3 X98.8768 Y69.1262 I-0.0124 J-1.0999
G1 X10.8768
G3 X10.8394 Y69.1255 I0.0 J-1.1
G1 X10.3425 Y69.1086
G3 X10.2931 Y69.1058 I0.0374 J-1.0994
G1 X9.7975 Y69.0666
G3 X9.7477 Y69.0616 I0.0867 J-1.0966
G1 X9.2544 Y68.9999
G3 X9.2053 Y68.9926 I0.1365 J-1.0915
G1 X8.7152 Y68.9087
G3 X8.6665 Y68.8992 I0.1856 J-1.0842
G1 X8.1807 Y68.7933
G3 X8.1323 Y68.7816 I0.2343 J-1.0748
G1 X7.6518 Y68.6538
G3 X7.6042 Y68.64 I0.2828 J-1.063
G1 X7.13 Y68.4907
G3 X7.0827 Y68.4746 I0.3303 J-1.0492
G1 X6.6157 Y68.3039
G3 X6.5696 Y68.2859 I0.3776 J-1.0331
G1 X6.1108 Y68.0944
G3 X6.0653 Y68.0741 I0.4237 J-1.0151
G1 X5.6156 Y67.862
G3 X5.5711 Y67.8398 I0.4693 J-0.9949
G1 X5.1315 Y67.6076
G3 X5.088 Y67.5834 I0.5138 J-0.9726
G1 X4.6593 Y67.3315
G3 X4.6172 Y67.3054 I0.5573 J-0.9484
G1 X4.2003 Y67.0345
G3 X4.1592 Y67.0064 I0.5994 J-0.9224
G1 X3.755 Y66.7169
G3 X3.7152 Y66.687 I0.6405 J-0.8943
G1 X3.3245 Y66.3795
G3 X3.2861 Y66.348 I0.6803 J-0.8644
G1 X2.9097 Y66.0232
G3 X2.8729 Y65.9899 I0.7186 J-0.8328
G1 X2.5115 Y65.6484
G3 X2.4761 Y65.6134 I0.7555 J-0.7995
G1 X2.1305 Y65.2559
G3 X2.0967 Y65.2193 I0.7909 J-0.7645
G1 X1.7677 Y64.8466
G3 X1.7357 Y64.8087 I0.8247 J-0.728
G1 X1.4238 Y64.4215
G3 X1.3934 Y64.382 I0.8566 J-0.69
G1 X1.0994 Y63.9811
G3 X1.0711 Y63.9405 I0.887 J-0.6505
G1 X0.7954 Y63.5267
G3 X0.7686 Y63.4845 I0.9154 J-0.6099
G1 X0.512 Y63.0587
G3 X0.4874 Y63.0157 I0.9421 J-0.5678
G1 X0.2502 Y62.5787
G3 X0.2275 Y62.5344 I0.9668 J-0.5248
G1 X0.0103 Y62.0871
G3 X-0.0105 Y62.0419 I0.9895 J-0.4805
G1 X-0.2072 Y61.5853
G3 X-0.2258 Y61.5393 I1.0102 J-0.4352
G1 X-0.4017 Y61.0743
G3 X-0.4182 Y61.0273 I1.0288 J-0.3892
G1 X-0.5729 Y60.5548
G3 X-0.5873 Y60.5073 I1.0454 J-0.3423
G1 X-0.7205 Y60.0283
G3 X-0.7328 Y59.98 I1.0598 J-0.2947
G1 X-0.8442 Y59.4954
G3 X-0.8542 Y59.4468 I1.072 J-0.2464
G1 X-0.9436 Y58.9578
G3 X-0.9514 Y58.9086 I1.0821 J-0.1978
G1 X-1.0186 Y58.4159
G3 X-1.0242 Y58.3666 I1.0899 J-0.1487
G1 X-1.0691 Y57.8715
G3 X-1.0725 Y57.8219 I1.0955 J-0.0993
G1 X-1.095 Y57.3252
G3 X-1.0961 Y57.2755 I1.0989 J-0.0498
G1 Y10.7783
G3 X-1.095 Y10.7285 I1.1 J0.0
G1 F200.0 Z-1.5
G1 F400.0 X-1.0725 Y10.2318
G3 X-1.0691 Y10.1823 I1.0989 J0.0498
G1 X-1.0242 Y9.6871
G3 X-1.0186 Y9.6378 I1.0955 J0.0993
G1 X-0.9514 Y9.1451
G3 X-0.9436 Y9.096 I1.0899 J0.1487
G1 X-0.8542 Y8.6069
G3 X-0.8442 Y8.5583 I1.0821 J0.1978
G1 X-0.7328 Y8.0737
G3 X-0.7205 Y8.0255 I1.072 J0.2465
G1 X-0.5873 Y7.5465
G3 X-0.5729 Y7.4989 I1.0598 J0.2947
G1 X-0.4182 Y7.0264
G3 X-0.4017 Y6.9795 I1.0454 J0.3423
G1 X-0.2258 Y6.5145
G3 X-0.2072 Y6.4685 I1.0288 J0.3892
G1 X-0.0105 Y6.0119
G3 X0.0103 Y5.9666 I1.0102 J0.4352
G1 X0.2275 Y5.5193
G3 X0.2502 Y5.475 I0.9895 J0.4805
G1 X0.4874 Y5.038
G3 X0.512 Y4.995 I0.9668 J0.5248
G1 X0.7686 Y4.5692
G3 X0.7954 Y4.527 I0.9421 J0.5678
G1 X1.0711 Y4.1132
G3 X1.0994 Y4.0727 I0.9154 J0.6099
G1 X1.3934 Y3.6718
G3 X1.4238 Y3.6322 I0.887 J0.6505
G1 X1.7357 Y3.245
G3 X1.7677 Y3.2071 I0.8566 J0.69
G1 X2.0967 Y2.8344
G3 X2.1305 Y2.7978 I0.8247 J0.728
G1 X2.4761 Y2.4403
G3 X2.5115 Y2.4053 I0.7909 J0.7645
G1 X2.8729 Y2.0638
G3 X2.9097 Y2.0306 I0.7555 J0.7995
G1 X3.2861 Y1.7058
G3 X3.3245 Y1.6742 I0.7186 J0.8328
G1 X3.7152 Y1.3667
G3 X3.755 Y1.3368 I0.6803 J0.8644
G1 X4.1592 Y1.0473
G3 X4.2003 Y1.0192 I0.6405 J0.8943
G1 X4.6172 Y0.7483
G3 X4.6593 Y0.7223 I0.5994 J0.9224
G1 X5.088 Y0.4704
G3 X5.1315 Y0.4461 I0.5573 J0.9484
G1 X5.5711 Y0.2139
G3 X5.6156 Y0.1917 I0.5138 J0.9726
G1 X6.0653 Y-0.0204
G3 X6.1108 Y-0.0407 I0.4693 J0.9949
G1 X6.5696 Y-0.2322
G3 X6.6157 Y-0.2502 I0.4237 J1.0151
G1 X7.0827 Y-0.4209
G3 X7.13 Y-0.437 I0.3776 J1.0331
G1 X7.6042 Y-0.5863
G3 X7.6518 Y-0.6001 I0.3303 J1.0492
G1 X8.1323 Y-0.7279
G3 X8.1807 Y-0.7396 I0.2828 J1.063
G1 X8.6665 Y-0.8455
G3 X8.7152 Y-0.855 I0.2343 J1.0748
G1 X9.2053 Y-0.9389
G3 X9.2544 Y-0.9461 I0.1856 J1.0842
G1 X9.7477 Y-1.0078
G3 X9.7975 Y-1.0129 I0.1365 J1.0915
G1 X10.2931 Y-1.0521
G3 X10.3425 Y-1.0549 I0.0867 J1.0966
G1 X10.8394 Y-1.0718
G3 X10.8768 Y-1.0724 I0.0374 J1.0994
G1 X98.8768
G3 X98.8892 I0.0 J1.1
G1 X99.3864 Y-1.0668
G3 X99.4362 Y-1.0651 I-0.0124 J1.0999
G1 X99.9325 Y-1.037
G3 X99.982 Y-1.0331 I-0.0622 J1.0982
G1 X100.4767 Y-0.9826
G3 X100.5261 Y-0.9764 I-0.1117 J1.0943
G1 X101.0179 Y-0.9036
G3 X101.0668 Y-0.8952 I-0.1611 J1.0881
G1 X101.5548 Y-0.8003
G3 X101.6034 Y-0.7897 I-0.21 J1.0798
G1 X102.0867 Y-0.6728
G3 X102.1347 Y-0.66 I-0.2586 J1.0692
G1 X102.6122 Y-0.5214
G3 X102.6596 Y-0.5065 I-0.3066 J1.0564
G1 X103.1303 Y-0.3465
G3 X103.1772 Y-0.3294 I-0.354 J1.0415
G1 X103.6402 Y-0.1482
G3 X103.6857 Y-0.1292 I-0.4009 J1.0243
G1 X104.1401 Y0.0726
G3 X104.1853 Y0.094 I-0.4465 J1.0053
G1 X104.63 Y0.3162
G3 X104.674 Y0.3394 I-0.4917 J0.984
G1 X105.1083 Y0.5815
G3 X105.1512 Y0.6067 I-0.5356 J0.9608
G1 X105.5741 Y0.8682
G3 X105.6158 Y0.8953 I-0.5785 J0.9356
G1 X106.0264 Y1.1756
G3 X106.0666 Y1.2044 I-0.6202 J0.9085
G1 X106.4642 Y1.5029
G3 X106.5035 Y1.5338 I-0.6604 J0.8797
G1 X106.8872 Y1.8501
G3 X106.9247 Y1.8824 I-0.6997 J0.8488
G1 X107.2937 Y2.2156
G3 X107.33 Y2.2499 I-0.7372 J0.8164
G1 X107.6835 Y2.5995
G3 X107.7179 Y2.6352 I-0.7735 J0.7821
G1 X108.0553 Y3.0004
G3 X108.0882 Y3.0377 I-0.808 J0.7465
G1 X108.4087 Y3.4177
G3 X108.4399 Y3.4564 I-0.8409 J0.7092
G1 X108.743 Y3.8506
G3 X108.7725 Y3.8908 I-0.872 J0.6705
G1 X109.0574 Y4.2983
G3 X109.0849 Y4.3396 I-0.9015 J0.6303
G1 X109.3511 Y4.7595
G3 X109.3767 Y4.802 I-0.929 J0.589
G1 X109.6237 Y5.2335
G3 X109.6475 Y5.2773 I-0.9547 J0.5465
G1 X109.8747 Y5.7195
G3 X109.8964 Y5.7642 I-0.9784 J0.5027
G1 X110.1034 Y6.2163
G3 X110.123 Y6.2618 I-1.0001 J0.4579
G1 X110.3094 Y6.7227
G3 X110.3271 Y6.7694 I-1.0198 J0.4124
G1 X110.4924 Y7.2383
G3 X110.5078 Y7.2854 I-1.0374 J0.3657
G1 X110.6518 Y7.7613
G3 X110.6652 Y7.8093 I-1.0529 J0.3186
G1 X110.7875 Y8.2912
G3 X110.7986 Y8.3395 I-1.0662 J0.2706
G1 X110.8991 Y8.8264
G3 X110.908 Y8.8755 I-1.0773 J0.2223
G1 X110.9863 Y9.3665
G3 X110.9931 Y9.4156 I-1.0863 J0.1732
G1 X111.0492 Y9.9096
G3 X111.0536 Y9.9592 I-1.093 J0.1241
G1 X111.0873 Y10.4552
G3 X111.0896 Y10.505 I-1.0975 J0.0746
G1 X111.1008 Y11.0021
G3 X111.1011 Y11.0269 I-1.0997 J0.0248
G1 Y57.0269
G3 X111.1008 Y57.0516 I-1.1 J0.0
G1 X111.0896 Y57.5487
G3 X111.0873 Y57.5985 I-1.0997 J-0.0248
G1 X111.0536 Y58.0945
G3 X111.0492 Y58.1441 I-1.0975 J-0.0746
G1 X110.9931 Y58.6381
G3 X110.9864 Y58.6872 I-1.093 J-0.1241
G1 X110.9081 Y59.1782
G3 X110.8991 Y59.2273 I-1.0863 J-0.1732
G1 X110.7986 Y59.7142
G3 X110.7875 Y59.7624 I-1.0773 J-0.2224
G1 X110.6652 Y60.2443
G3 X110.6518 Y60.2923 I-1.0662 J-0.2706
G1 X110.5078 Y60.7682
G3 X110.4924 Y60.8154 I-1.0529 J-0.3186
G1 X110.3271 Y61.2843
G3 X110.3094 Y61.331 I-1.0374 J-0.3657
G1 X110.123 Y61.7919
G3 X110.1034 Y61.8374 I-1.0198 J-0.4124
G1 X109.8964 Y62.2895
G3 X109.8747 Y62.3343 I-1.0001 J-0.4579
G1 X109.6475 Y62.7765
G3 X109.6237 Y62.8202 I-0.9784 J-0.5027
G1 X109.3767 Y63.2517
G3 X109.3511 Y63.2942 I-0.9547 J-0.5465
G1 X109.0849 Y63.7141
G3 X109.0574 Y63.7554 I-0.929 J-0.589
G1 X108.7725 Y64.1629
G3 X108.743 Y64.2032 I-0.9015 J-0.6303
G1 X108.4399 Y64.5974
G3 X108.4087 Y64.6361 I-0.872 J-0.6705
G1 X108.0882 Y65.0161
G3 X108.0553 Y65.0533 I-0.8409 J-0.7092
G1 X107.7179 Y65.4185
G3 X107.6835 Y65.4542 I-0.808 J-0.7465
G1 X107.33 Y65.8038
G3 X107.2937 Y65.8381 I-0.7735 J-0.7821
G1 X106.9247 Y66.1713
G3 X106.8872 Y66.2036 I-0.7372 J-0.8164
G1 X106.5035 Y66.5199
G3 X106.4642 Y66.5508 I-0.6997 J-0.8488
G1 X106.0666 Y66.8493
G3 X106.0264 Y66.8782 I-0.6604 J-0.8797
G1 X105.6158 Y67.1585
G3 X105.5741 Y67.1855 I-0.6202 J-0.9085
G1 X105.1512 Y67.447
G3 X105.1083 Y67.4723 I-0.5785 J-0.9356
G1 X104.674 Y67.7144
G3 X104.63 Y67.7376 I-0.5356 J-0.9608
G1 X104.1853 Y67.9598
G3 X104.1401 Y67.9811 I-0.4917 J-0.984
G1 X103.6857 Y68.1829
G3 X103.6402 Y68.2019 I-0.4465 J-1.0053
G1 X103.1772 Y68.3831
G3 X103.1303 Y68.4002 I-0.4009 J-1.0243
G1 X102.6596 Y68.5602
G3 X102.6122 Y68.5752 I-0.354 J-1.0415
G1 X102.1347 Y68.7138
G3 X102.0867 Y68.7265 I-0.3066 J-1.0564
G1 X101.6034 Y68.8434
G3 X101.5548 Y68.854 I-0.2586 J-1.0692
G1 X101.0668 Y68.9489
G3 X101.0179 Y68.9573 I-0.21 J-1.0798
G1 X100.5261 Y69.0301
G3 X100.4767 Y69.0363 I-0.1611 J-1.0881
G1 X99.982 Y69.0868
G3 X99.9325 Y69.0907 I-0.1117 J-1.0943
G1 X99.4362 Y69.1188
G3 X99.3864 Y69.1205 I-0.0622 J-1.0982
G1 X98.8892 Y69.1261
G3 X98.8768 Y69.1262 I-0.0124 J-1.0999
G1 X10.8768
G3 X10.8394 Y69.1255 I0.0 J-1.1
G1 X10.3425 Y69.1086
G3 X10.2931 Y69.1058 I0.0374 J-1.0994
G1 X9.7975 Y69.0666
G3 X9.7477 Y69.0616 I0.0867 J-1.0966
G1 X9.2544 Y68.9999
G3 X9.2053 Y68.9926 I0.1365 J-1.0915
G1 X8.7152 Y68.9087
G3 X8.6665 Y68.8992 I0.1856 J-1.0842
G1 X8.1807 Y68.7933
G3 X8.1323 Y68.7816 I0.2343 J-1.0748
G1 X7.6518 Y68.6538
G3 X7.6042 Y68.64 I0.2828 J-1.063
G1 X7.13 Y68.4907
G3 X7.0827 Y68.4746 I0.3303 J-1.0492
G1 X6.6157 Y68.3039
G3 X6.5696 Y68.2859 I0.3776 J-1.0331
G1 X6.1108 Y68.0944
G3 X6.0653 Y68.0741 I0.4237 J-1.0151
G1 X5.6156 Y67.862
G3 X5.5711 Y67.8398 I0.4693 J-0.9949
G1 X5.1315 Y67.6076
G3 X5.088 Y67.5834 I0.5138 J-0.9726
G1 X4.6593 Y67.3315
G3 X4.6172 Y67.3054 I0.5573 J-0.9484
G1 X4.2003 Y67.0345
G3 X4.1592 Y67.0064 I0.5994 J-0.9224
G1 X3.755 Y66.7169
G3 X3.7152 Y66.687 I0.6405 J-0.8943
G1 X3.3245 Y66.3795
G3 X3.2861 Y66.348 I0.6803 J-0.8644
G1 X2.9097 Y66.0232
G3 X2.8729 Y65.9899 I0.7186 J-0.8328
G1 X2.5115 Y65.6484
G3 X2.4761 Y65.6134 I0.7555 J-0.7995
G1 X2.1305 Y65.2559
G3 X2.0967 Y65.2193 I0.7909 J-0.7645
G1 X1.7677 Y64.8466
G3 X1.7357 Y64.8087 I0.8247 J-0.728
G1 X1.4238 Y64.4215
G3 X1.3934 Y64.382 I0.8566 J-0.69
G1 X1.0994 Y63.9811
G3 X1.0711 Y63.9405 I0.887 J-0.6505
G1 X0.7954 Y63.5267
G3 X0.7686 Y63.4845 I0.9154 J-0.6099
G1 X0.512 Y63.0587
G3 X0.4874 Y63.0157 I0.9421 J-0.5678
G1 X0.2502 Y62.5787
G3 X0.2275 Y62.5344 I0.9668 J-0.5248
G1 X0.0103 Y62.0871
G3 X-0.0105 Y62.0419 I0.9895 J-0.4805
G1 X-0.2072 Y61.5853
G3 X-0.2258 Y61.5393 I1.0102 J-0.4352
G1 X-0.4017 Y61.0743
G3 X-0.4182 Y61.0273 I1.0288 J-0.3892
G1 X-0.5729 Y60.5548
G3 X-0.5873 Y60.5073 I1.0454 J-0.3423
G1 X-0.7205 Y60.0283
G3 X-0.7328 Y59.98 I1.0598 J-0.2947
G1 X-0.8442 Y59.4954
G3 X-0.8542 Y59.4468 I1.072 J-0.2464
G1 X-0.9436 Y58.9578
G3 X-0.9514 Y58.9086 I1.0821 J-0.1978
G1 X-1.0186 Y58.4159
G3 X-1.0242 Y58.3666 I1.0899 J-0.1487
G1 X-1.0691 Y57.8715
G3 X-1.0725 Y57.8219 I1.0955 J-0.0993
G1 X-1.095 Y57.3252
G3 X-1.0961 Y57.2755 I1.0989 J-0.0498
G1 Y10.7783
G3 X-1.095 Y10.7285 I1.1 J0.0
G1 F200.0 Z-2.0
G1 F400.0 X-1.0725 Y10.2318
G3 X-1.0691 Y10.1823 I1.0989 J0.0498
G1 X-1.0242 Y9.6871
G3 X-1.0186 Y9.6378 I1.0955 J0.0993
G1 X-0.9514 Y9.1451
G3 X-0.9436 Y9.096 I1.0899 J0.1487
G1 X-0.8542 Y8.6069
G3 X-0.8442 Y8.5583 I1.0821 J0.1978
G1 X-0.7328 Y8.0737
G3 X-0.7205 Y8.0255 I1.072 J0.2465
G1 X-0.5873 Y7.5465
G3 X-0.5729 Y7.4989 I1.0598 J0.2947
G1 X-0.4182 Y7.0264
G3 X-0.4017 Y6.9795 I1.0454 J0.3423
G1 X-0.2258 Y6.5145
G3 X-0.2072 Y6.4685 I1.0288 J0.3892
G1 X-0.0105 Y6.0119
G3 X0.0103 Y5.9666 I1.0102 J0.4352
G1 X0.2275 Y5.5193
G3 X0.2502 Y5.475 I0.9895 J0.4805
G1 X0.4874 Y5.038
G3 X0.512 Y4.995 I0.9668 J0.5248
G1 X0.7686 Y4.5692
G3 X0.7954 Y4.527 I0.9421 J0.5678
G1 X1.0711 Y4.1132
G3 X1.0994 Y4.0727 I0.9154 J0.6099
G1 X1.3934 Y3.6718
G3 X1.4238 Y3.6322 I0.887 J0.6505
G1 X1.7357 Y3.245
G3 X1.7677 Y3.2071 I0.8566 J0.69
G1 X2.0967 Y2.8344
G3 X2.1305 Y2.7978 I0.8247 J0.728
G1 X2.4761 Y2.4403
G3 X2.5115 Y2.4053 I0.7909 J0.7645
G1 X2.8729 Y2.0638
G3 X2.9097 Y2.0306 I0.7555 J0.7995
G1 X3.2861 Y1.7058
G3 X3.3245 Y1.6742 I0.7186 J0.8328
G1 X3.7152 Y1.3667
G3 X3.755 Y1.3368 I0.6803 J0.8644
G1 X4.1592 Y1.0473
G3 X4.2003 Y1.0192 I0.6405 J0.8943
G1 X4.6172 Y0.7483
G3 X4.6593 Y0.7223 I0.5994 J0.9224
G1 X5.088 Y0.4704
G3 X5.1315 Y0.4461 I0.5573 J0.9484
G1 X5.5711 Y0.2139
G3 X5.6156 Y0.1917 I0.5138 J0.9726
G1 X6.0653 Y-0.0204
G3 X6.1108 Y-0.0407 I0.4693 J0.9949
G1 X6.5696 Y-0.2322
G3 X6.6157 Y-0.2502 I0.4237 J1.0151
G1 X7.0827 Y-0.4209
G3 X7.13 Y-0.437 I0.3776 J1.0331
G1 X7.6042 Y-0.5863
G3 X7.6518 Y-0.6001 I0.3303 J1.0492
G1 X8.1323 Y-0.7279
G3 X8.1807 Y-0.7396 I0.2828 J1.063
G1 X8.6665 Y-0.8455
G3 X8.7152 Y-0.855 I0.2343 J1.0748
G1 X9.2053 Y-0.9389
G3 X9.2544 Y-0.9461 I0.1856 J1.0842
G1 X9.7477 Y-1.0078
G3 X9.7975 Y-1.0129 I0.1365 J1.0915
G1 X10.2931 Y-1.0521
G3 X10.3425 Y-1.0549 I0.0867 J1.0966
G1 X10.8394 Y-1.0718
G3 X10.8768 Y-1.0724 I0.0374 J1.0994
G1 X98.8768
G3 X98.8892 I0.0 J1.1
G1 X99.3864 Y-1.0668
G3 X99.4362 Y-1.0651 I-0.0124 J1.0999
G1 X99.9325 Y-1.037
G3 X99.982 Y-1.0331 I-0.0622 J1.0982
G1 X100.4767 Y-0.9826
G3 X100.5261 Y-0.9764 I-0.1117 J1.0943
G1 X101.0179 Y-0.9036
G3 X101.0668 Y-0.8952 I-0.1611 J1.0881
G1 X101.5548 Y-0.8003
G3 X101.6034 Y-0.7897 I-0.21 J1.0798
G1 X102.0867 Y-0.6728
G3 X102.1347 Y-0.66 I-0.2586 J1.0692
G1 X102.6122 Y-0.5214
G3 X102.6596 Y-0.5065 I-0.3066 J1.0564
G1 X103.1303 Y-0.3465
G3 X103.1772 Y-0.3294 I-0.354 J1.0415
G1 X103.6402 Y-0.1482
G3 X103.6857 Y-0.1292 I-0.4009 J1.0243
G1 X104.1401 Y0.0726
G3 X104.1853 Y0.094 I-0.4465 J1.0053
G1 X104.63 Y0.3162
G3 X104.674 Y0.3394 I-0.4917 J0.984
G1 X105.1083 Y0.5815
G3 X105.1512 Y0.6067 I-0.5356 J0.9608
G1 X105.5741 Y0.8682
G3 X105.6158 Y0.8953 I-0.5785 J0.9356
G1 X106.0264 Y1.1756
G3 X106.0666 Y1.2044 I-0.6202 J0.9085
G1 X106.4642 Y1.5029
G3 X106.5035 Y1.5338 I-0.6604 J0.8797
G1 X106.8872 Y1.8501
G3 X106.9247 Y1.8824 I-0.6997 J0.8488
G1 X107.2937 Y2.2156
G3 X107.33 Y2.2499 I-0.7372 J0.8164
G1 X107.6835 Y2.5995
G3 X107.7179 Y2.6352 I-0.7735 J0.7821
G1 X108.0553 Y3.0004
G3 X108.0882 Y3.0377 I-0.808 J0.7465
G1 X108.4087 Y3.4177
G3 X108.4399 Y3.4564 I-0.8409 J0.7092
G1 X108.743 Y3.8506
G3 X108.7725 Y3.8908 I-0.872 J0.6705
G1 X109.0574 Y4.2983
G3 X109.0849 Y4.3396 I-0.9015 J0.6303
G1 X109.3511 Y4.7595
G3 X109.3767 Y4.802 I-0.929 J0.589
G1 X109.6237 Y5.2335
G3 X109.6475 Y5.2773 I-0.9547 J0.5465
G1 X109.8747 Y5.7195
G3 X109.8964 Y5.7642 I-0.9784 J0.5027
G1 X110.1034 Y6.2163
G3 X110.123 Y6.2618 I-1.0001 J0.4579
G1 X110.3094 Y6.7227
G3 X110.3271 Y6.7694 I-1.0198 J0.4124
G1 X110.4924 Y7.2383
G3 X110.5078 Y7.2854 I-1.0374 J0.3657
G1 X110.6518 Y7.7613
G3 X110.6652 Y7.8093 I-1.0529 J0.3186
G1 X110.7875 Y8.2912
G3 X110.7986 Y8.3395 I-1.0662 J0.2706
G1 X110.8991 Y8.8264
G3 X110.908 Y8.8755 I-1.0773 J0.2223
G1 X110.9863 Y9.3665
G3 X110.9931 Y9.4156 I-1.0863 J0.1732
G1 X111.0492 Y9.9096
G3 X111.0536 Y9.9592 I-1.093 J0.1241
G1 X111.0873 Y10.4552
G3 X111.0896 Y10.505 I-1.0975 J0.0746
G1 X111.1008 Y11.0021
G3 X111.1011 Y11.0269 I-1.0997 J0.0248
G1 Y57.0269
G3 X111.1008 Y57.0516 I-1.1 J0.0
G1 X111.0896 Y57.5487
G3 X111.0873 Y57.5985 I-1.0997 J-0.0248
G1 X111.0536 Y58.0945
G3 X111.0492 Y58.1441 I-1.0975 J-0.0746
G1 X110.9931 Y58.6381
G3 X110.9864 Y58.6872 I-1.093 J-0.1241
G1 X110.9081 Y59.1782
G3 X110.8991 Y59.2273 I-1.0863 J-0.1732
G1 X110.7986 Y59.7142
G3 X110.7875 Y59.7624 I-1.0773 J-0.2224
G1 X110.6652 Y60.2443
G3 X110.6518 Y60.2923 I-1.0662 J-0.2706
G1 X110.5078 Y60.7682
G3 X110.4924 Y60.8154 I-1.0529 J-0.3186
G1 X110.3271 Y61.2843
G3 X110.3094 Y61.331 I-1.0374 J-0.3657
G1 X110.123 Y61.7919
G3 X110.1034 Y61.8374 I-1.0198 J-0.4124
G1 X109.8964 Y62.2895
G3 X109.8747 Y62.3343 I-1.0001 J-0.4579
G1 X109.6475 Y62.7765
G3 X109.6237 Y62.8202 I-0.9784 J-0.5027
G1 X109.3767 Y63.2517
G3 X109.3511 Y63.2942 I-0.9547 J-0.5465
G1 X109.0849 Y63.7141
G3 X109.0574 Y63.7554 I-0.929 J-0.589
G1 X108.7725 Y64.1629
G3 X108.743 Y64.2032 I-0.9015 J-0.6303
G1 X108.4399 Y64.5974
G3 X108.4087 Y64.6361 I-0.872 J-0.6705
G1 X108.0882 Y65.0161
G3 X108.0553 Y65.0533 I-0.8409 J-0.7092
G1 X107.7179 Y65.4185
G3 X107.6835 Y65.4542 I-0.808 J-0.7465
G1 X107.33 Y65.8038
G3 X107.2937 Y65.8381 I-0.7735 J-0.7821
G1 X106.9247 Y66.1713
G3 X106.8872 Y66.2036 I-0.7372 J-0.8164
G1 X106.5035 Y66.5199
G3 X106.4642 Y66.5508 I-0.6997 J-0.8488
G1 X106.0666 Y66.8493
G3 X106.0264 Y66.8782 I-0.6604 J-0.8797
G1 X105.6158 Y67.1585
G3 X105.5741 Y67.1855 I-0.6202 J-0.9085
G1 X105.1512 Y67.447
G3 X105.1083 Y67.4723 I-0.5785 J-0.9356
G1 X104.674 Y67.7144
G3 X104.63 Y67.7376 I-0.5356 J-0.9608
G1 X104.1853 Y67.9598
G3 X104.1401 Y67.9811 I-0.4917 J-0.984
G1 X103.6857 Y68.1829
G3 X103.6402 Y68.2019 I-0.4465 J-1.0053
G1 X103.1772 Y68.3831
G3 X103.1303 Y68.4002 I-0.4009 J-1.0243
G1 X102.6596 Y68.5602
G3 X102.6122 Y68.5752 I-0.354 J-1.0415
G1 X102.1347 Y68.7138
G3 X102.0867 Y68.7265 I-0.3066 J-1.0564
G1 X101.6034 Y68.8434
G3 X101.5548 Y68.854 I-0.2586 J-1.0692
G1 X101.0668 Y68.9489
G3 X101.0179 Y68.9573 I-0.21 J-1.0798
G1 X100.5261 Y69.0301
G3 X100.4767 Y69.0363 I-0.1611 J-1.0881
G1 X99.982 Y69.0868
G3 X99.9325 Y69.0907 I-0.1117 J-1.0943
G1 X99.4362 Y69.1188
G3 X99.3864 Y69.1205 I-0.0622 J-1.0982
G1 X98.8892 Y69.1261
G3 X98.8768 Y69.1262 I-0.0124 J-1.0999
G1 X10.8768
G3 X10.8394 Y69.1255 I0.0 J-1.1
G1 X10.3425 Y69.1086
G3 X10.2931 Y69.1058 I0.0374 J-1.0994
G1 X9.7975 Y69.0666
G3 X9.7477 Y69.0616 I0.0867 J-1.0966
G1 X9.2544 Y68.9999
G3 X9.2053 Y68.9926 I0.1365 J-1.0915
G1 X8.7152 Y68.9087
G3 X8.6665 Y68.8992 I0.1856 J-1.0842
G1 X8.1807 Y68.7933
G3 X8.1323 Y68.7816 I0.2343 J-1.0748
G1 X7.6518 Y68.6538
G3 X7.6042 Y68.64 I0.2828 J-1.063
G1 X7.13 Y68.4907
G3 X7.0827 Y68.4746 I0.3303 J-1.0492
G1 X6.6157 Y68.3039
G3 X6.5696 Y68.2859 I0.3776 J-1.0331
G1 X6.1108 Y68.0944
G3 X6.0653 Y68.0741 I0.4237 J-1.0151
G1 X5.6156 Y67.862
G3 X5.5711 Y67.8398 I0.4693 J-0.9949
G1 X5.1315 Y67.6076
G3 X5.088 Y67.5834 I0.5138 J-0.9726
G1 X4.6593 Y67.3315
G3 X4.6172 Y67.3054 I0.5573 J-0.9484
G1 X4.2003 Y67.0345
G3 X4.1592 Y67.0064 I0.5994 J-0.9224
G1 X3.755 Y66.7169
G3 X3.7152 Y66.687 I0.6405 J-0.8943
G1 X3.3245 Y66.3795
G3 X3.2861 Y66.348 I0.6803 J-0.8644
G1 X2.9097 Y66.0232
G3 X2.8729 Y65.9899 I0.7186 J-0.8328
G1 X2.5115 Y65.6484
G3 X2.4761 Y65.6134 I0.7555 J-0.7995
G1 X2.1305 Y65.2559
G3 X2.0967 Y65.2193 I0.7909 J-0.7645
G1 X1.7677 Y64.8466
G3 X1.7357 Y64.8087 I0.8247 J-0.728
G1 X1.4238 Y64.4215
G3 X1.3934 Y64.382 I0.8566 J-0.69
G1 X1.0994 Y63.9811
G3 X1.0711 Y63.9405 I0.887 J-0.6505
G1 X0.7954 Y63.5267
G3 X0.7686 Y63.4845 I0.9154 J-0.6099
G1 X0.512 Y63.0587
G3 X0.4874 Y63.0157 I0.9421 J-0.5678
G1 X0.2502 Y62.5787
G3 X0.2275 Y62.5344 I0.9668 J-0.5248
G1 X0.0103 Y62.0871
G3 X-0.0105 Y62.0419 I0.9895 J-0.4805
G1 X-0.2072 Y61.5853
G3 X-0.2258 Y61.5393 I1.0102 J-0.4352
G1 X-0.4017 Y61.0743
G3 X-0.4182 Y61.0273 I1.0288 J-0.3892
G1 X-0.5729 Y60.5548
G3 X-0.5873 Y60.5073 I1.0454 J-0.3423
G1 X-0.7205 Y60.0283
G3 X-0.7328 Y59.98 I1.0598 J-0.2947
G1 X-0.8442 Y59.4954
G3 X-0.8542 Y59.4468 I1.072 J-0.2464
G1 X-0.9436 Y58.9578
G3 X-0.9514 Y58.9086 I1.0821 J-0.1978
G1 X-1.0186 Y58.4159
G3 X-1.0242 Y58.3666 I1.0899 J-0.1487
G1 X-1.0691 Y57.8715
G3 X-1.0725 Y57.8219 I1.0955 J-0.0993
G1 X-1.095 Y57.3252
G3 X-1.0961 Y57.2755 I1.0989 J-0.0498
G1 Y10.7783
G3 X-1.095 Y10.7285 I1.1 J0.0
G1 F200.0 Z-2.5
G1 F400.0 X-1.0725 Y10.2318
G3 X-1.0691 Y10.1823 I1.0989 J0.0498
G1 X-1.0242 Y9.6871
G3 X-1.0186 Y9.6378 I1.0955 J0.0993
G1 X-0.9514 Y9.1451
G3 X-0.9436 Y9.096 I1.0899 J0.1487
G1 X-0.8542 Y8.6069
G3 X-0.8442 Y8.5583 I1.0821 J0.1978
G1 X-0.7328 Y8.0737
G3 X-0.7205 Y8.0255 I1.072 J0.2465
G1 X-0.5873 Y7.5465
G3 X-0.5729 Y7.4989 I1.0598 J0.2947
G1 X-0.4182 Y7.0264
G3 X-0.4017 Y6.9795 I1.0454 J0.3423
G1 X-0.2258 Y6.5145
G3 X-0.2072 Y6.4685 I1.0288 J0.3892
G1 X-0.0105 Y6.0119
G3 X0.0103 Y5.9666 I1.0102 J0.4352
G1 X0.2275 Y5.5193
G3 X0.2502 Y5.475 I0.9895 J0.4805
G1 X0.4874 Y5.038
G3 X0.512 Y4.995 I0.9668 J0.5248
G1 X0.7686 Y4.5692
G3 X0.7954 Y4.527 I0.9421 J0.5678
G1 X1.0711 Y4.1132
G3 X1.0994 Y4.0727 I0.9154 J0.6099
G1 X1.3934 Y3.6718
G3 X1.4238 Y3.6322 I0.887 J0.6505
G1 X1.7357 Y3.245
G3 X1.7677 Y3.2071 I0.8566 J0.69
G1 X2.0967 Y2.8344
G3 X2.1305 Y2.7978 I0.8247 J0.728
G1 X2.4761 Y2.4403
G3 X2.5115 Y2.4053 I0.7909 J0.7645
G1 X2.8729 Y2.0638
G3 X2.9097 Y2.0306 I0.7555 J0.7995
G1 X3.2861 Y1.7058
G3 X3.3245 Y1.6742 I0.7186 J0.8328
G1 X3.7152 Y1.3667
G3 X3.755 Y1.3368 I0.6803 J0.8644
G1 X4.1592 Y1.0473
G3 X4.2003 Y1.0192 I0.6405 J0.8943
G1 X4.6172 Y0.7483
G3 X4.6593 Y0.7223 I0.5994 J0.9224
G1 X5.088 Y0.4704
G3 X5.1315 Y0.4461 I0.5573 J0.9484
G1 X5.5711 Y0.2139
G3 X5.6156 Y0.1917 I0.5138 J0.9726
G1 X6.0653 Y-0.0204
G3 X6.1108 Y-0.0407 I0.4693 J0.9949
G1 X6.5696 Y-0.2322
G3 X6.6157 Y-0.2502 I0.4237 J1.0151
G1 X7.0827 Y-0.4209
G3 X7.13 Y-0.437 I0.3776 J1.0331
G1 X7.6042 Y-0.5863
G3 X7.6518 Y-0.6001 I0.3303 J1.0492
G1 X8.1323 Y-0.7279
G3 X8.1807 Y-0.7396 I0.2828 J1.063
G1 X8.6665 Y-0.8455
G3 X8.7152 Y-0.855 I0.2343 J1.0748
G1 X9.2053 Y-0.9389
G3 X9.2544 Y-0.9461 I0.1856 J1.0842
G1 X9.7477 Y-1.0078
G3 X9.7975 Y-1.0129 I0.1365 J1.0915
G1 X10.2931 Y-1.0521
G3 X10.3425 Y-1.0549 I0.0867 J1.0966
G1 X10.8394 Y-1.0718
G3 X10.8768 Y-1.0724 I0.0374 J1.0994
G1 X98.8768
G3 X98.8892 I0.0 J1.1
G1 X99.3864 Y-1.0668
G3 X99.4362 Y-1.0651 I-0.0124 J1.0999
G1 X99.9325 Y-1.037
G3 X99.982 Y-1.0331 I-0.0622 J1.0982
G1 X100.4767 Y-0.9826
G3 X100.5261 Y-0.9764 I-0.1117 J1.0943
G1 X101.0179 Y-0.9036
G3 X101.0668 Y-0.8952 I-0.1611 J1.0881
G1 X101.5548 Y-0.8003
G3 X101.6034 Y-0.7897 I-0.21 J1.0798
G1 X102.0867 Y-0.6728
G3 X102.1347 Y-0.66 I-0.2586 J1.0692
G1 X102.6122 Y-0.5214
G3 X102.6596 Y-0.5065 I-0.3066 J1.0564
G1 X103.1303 Y-0.3465
G3 X103.1772 Y-0.3294 I-0.354 J1.0415
G1 X103.6402 Y-0.1482
G3 X103.6857 Y-0.1292 I-0.4009 J1.0243
G1 X104.1401 Y0.0726
G3 X104.1853 Y0.094 I-0.4465 J1.0053
G1 X104.63 Y0.3162
G3 X104.674 Y0.3394 I-0.4917 J0.984
G1 X105.1083 Y0.5815
G3 X105.1512 Y0.6067 I-0.5356 J0.9608
G1 X105.5741 Y0.8682
G3 X105.6158 Y0.8953 I-0.5785 J0.9356
G1 X106.0264 Y1.1756
G3 X106.0666 Y1.2044 I-0.6202 J0.9085
G1 X106.4642 Y1.5029
G3 X106.5035 Y1.5338 I-0.6604 J0.8797
G1 X106.8872 Y1.8501
G3 X106.9247 Y1.8824 I-0.6997 J0.8488
G1 X107.2937 Y2.2156
G3 X107.33 Y2.2499 I-0.7372 J0.8164
G1 X107.6835 Y2.5995
G3 X107.7179 Y2.6352 I-0.7735 J0.7821
G1 X108.0553 Y3.0004
G3 X108.0882 Y3.0377 I-0.808 J0.7465
G1 X108.4087 Y3.4177
G3 X108.4399 Y3.4564 I-0.8409 J0.7092
G1 X108.743 Y3.8506
G3 X108.7725 Y3.8908 I-0.872 J0.6705
G1 X109.0574 Y4.2983
G3 X109.0849 Y4.3396 I-0.9015 J0.6303
G1 X109.3511 Y4.7595
G3 X109.3767 Y4.802 I-0.929 J0.589
G1 X109.6237 Y5.2335
G3 X109.6475 Y5.2773 I-0.9547 J0.5465
G1 X109.8747 Y5.7195
G3 X109.8964 Y5.7642 I-0.9784 J0.5027
G1 X110.1034 Y6.2163
G3 X110.123 Y6.2618 I-1.0001 J0.4579
G1 X110.3094 Y6.7227
G3 X110.3271 Y6.7694 I-1.0198 J0.4124
G1 X110.4924 Y7.2383
G3 X110.5078 Y7.2854 I-1.0374 J0.3657
G1 X110.6518 Y7.7613
G3 X110.6652 Y7.8093 I-1.0529 J0.3186
G1 X110.7875 Y8.2912
G3 X110.7986 Y8.3395 I-1.0662 J0.2706
G1 X110.8991 Y8.8264
G3 X110.908 Y8.8755 I-1.0773 J0.2223
G1 X110.9863 Y9.3665
G3 X110.9931 Y9.4156 I-1.0863 J0.1732
G1 X111.0492 Y9.9096
G3 X111.0536 Y9.9592 I-1.093 J0.1241
G1 X111.0873 Y10.4552
G3 X111.0896 Y10.505 I-1.0975 J0.0746
G1 X111.1008 Y11.0021
G3 X111.1011 Y11.0269 I-1.0997 J0.0248
G1 Y57.0269
G3 X111.1008 Y57.0516 I-1.1 J0.0
G1 X111.0896 Y57.5487
G3 X111.0873 Y57.5985 I-1.0997 J-0.0248
G1 X111.0536 Y58.0945
G3 X111.0492 Y58.1441 I-1.0975 J-0.0746
G1 X110.9931 Y58.6381
G3 X110.9864 Y58.6872 I-1.093 J-0.1241
G1 X110.9081 Y59.1782
G3 X110.8991 Y59.2273 I-1.0863 J-0.1732
G1 X110.7986 Y59.7142
G3 X110.7875 Y59.7624 I-1.0773 J-0.2224
G1 X110.6652 Y60.2443
G3 X110.6518 Y60.2923 I-1.0662 J-0.2706
G1 X110.5078 Y60.7682
G3 X110.4924 Y60.8154 I-1.0529 J-0.3186
G1 X110.3271 Y61.2843
G3 X110.3094 Y61.331 I-1.0374 J-0.3657
G1 X110.123 Y61.7919
G3 X110.1034 Y61.8374 I-1.0198 J-0.4124
G1 X109.8964 Y62.2895
G3 X109.8747 Y62.3343 I-1.0001 J-0.4579
G1 X109.6475 Y62.7765
G3 X109.6237 Y62.8202 I-0.9784 J-0.5027
G1 X109.3767 Y63.2517
G3 X109.3511 Y63.2942 I-0.9547 J-0.5465
G1 X109.0849 Y63.7141
G3 X109.0574 Y63.7554 I-0.929 J-0.589
G1 X108.7725 Y64.1629
G3 X108.743 Y64.2032 I-0.9015 J-0.6303
G1 X108.4399 Y64.5974
G3 X108.4087 Y64.6361 I-0.872 J-0.6705
G1 X108.0882 Y65.0161
G3 X108.0553 Y65.0533 I-0.8409 J-0.7092
G1 X107.7179 Y65.4185
G3 X107.6835 Y65.4542 I-0.808 J-0.7465
G1 X107.33 Y65.8038
G3 X107.2937 Y65.8381 I-0.7735 J-0.7821
G1 X106.9247 Y66.1713
G3 X106.8872 Y66.2036 I-0.7372 J-0.8164
G1 X106.5035 Y66.5199
G3 X106.4642 Y66.5508 I-0.6997 J-0.8488
G1 X106.0666 Y66.8493
G3 X106.0264 Y66.8782 I-0.6604 J-0.8797
G1 X105.6158 Y67.1585
G3 X105.5741 Y67.1855 I-0.6202 J-0.9085
G1 X105.1512 Y67.447
G3 X105.1083 Y67.4723 I-0.5785 J-0.9356
G1 X104.674 Y67.7144
G3 X104.63 Y67.7376 I-0.5356 J-0.9608
G1 X104.1853 Y67.9598
G3 X104.1401 Y67.9811 I-0.4917 J-0.984
G1 X103.6857 Y68.1829
G3 X103.6402 Y68.2019 I-0.4465 J-1.0053
G1 X103.1772 Y68.3831
G3 X103.1303 Y68.4002 I-0.4009 J-1.0243
G1 X102.6596 Y68.5602
G3 X102.6122 Y68.5752 I-0.354 J-1.0415
G1 X102.1347 Y68.7138
G3 X102.0867 Y68.7265 I-0.3066 J-1.0564
G1 X101.6034 Y68.8434
G3 X101.5548 Y68.854 I-0.2586 J-1.0692
G1 X101.0668 Y68.9489
G3 X101.0179 Y68.9573 I-0.21 J-1.0798
G1 X100.5261 Y69.0301
G3 X100.4767 Y69.0363 I-0.1611 J-1.0881
G1 X99.982 Y69.0868
G3 X99.9325 Y69.0907 I-0.1117 J-1.0943
G1 X99.4362 Y69.1188
G3 X99.3864 Y69.1205 I-0.0622 J-1.0982
G1 X98.8892 Y69.1261
G3 X98.8768 Y69.1262 I-0.0124 J-1.0999
G1 X10.8768
G3 X10.8394 Y69.1255 I0.0 J-1.1
G1 X10.3425 Y69.1086
G3 X10.2931 Y69.1058 I0.0374 J-1.0994
G1 X9.7975 Y69.0666
G3 X9.7477 Y69.0616 I0.0867 J-1.0966
G1 X9.2544 Y68.9999
G3 X9.2053 Y68.9926 I0.1365 J-1.0915
G1 X8.7152 Y68.9087
G3 X8.6665 Y68.8992 I0.1856 J-1.0842
G1 X8.1807 Y68.7933
G3 X8.1323 Y68.7816 I0.2343 J-1.0748
G1 X7.6518 Y68.6538
G3 X7.6042 Y68.64 I0.2828 J-1.063
G1 X7.13 Y68.4907
G3 X7.0827 Y68.4746 I0.3303 J-1.0492
G1 X6.6157 Y68.3039
G3 X6.5696 Y68.2859 I0.3776 J-1.0331
G1 X6.1108 Y68.0944
G3 X6.0653 Y68.0741 I0.4237 J-1.0151
G1 X5.6156 Y67.862
G3 X5.5711 Y67.8398 I0.4693 J-0.9949
G1 X5.1315 Y67.6076
G3 X5.088 Y67.5834 I0.5138 J-0.9726
G1 X4.6593 Y67.3315
G3 X4.6172 Y67.3054 I0.5573 J-0.9484
G1 X4.2003 Y67.0345
G3 X4.1592 Y67.0064 I0.5994 J-0.9224
G1 X3.755 Y66.7169
G3 X3.7152 Y66.687 I0.6405 J-0.8943
G1 X3.3245 Y66.3795
G3 X3.2861 Y66.348 I0.6803 J-0.8644
G1 X2.9097 Y66.0232
G3 X2.8729 Y65.9899 I0.7186 J-0.8328
G1 X2.5115 Y65.6484
G3 X2.4761 Y65.6134 I0.7555 J-0.7995
G1 X2.1305 Y65.2559
G3 X2.0967 Y65.2193 I0.7909 J-0.7645
G1 X1.7677 Y64.8466
G3 X1.7357 Y64.8087 I0.8247 J-0.728
G1 X1.4238 Y64.4215
G3 X1.3934 Y64.382 I0.8566 J-0.69
G1 X1.0994 Y63.9811
G3 X1.0711 Y63.9405 I0.887 J-0.6505
G1 X0.7954 Y63.5267
G3 X0.7686 Y63.4845 I0.9154 J-0.6099
G1 X0.512 Y63.0587
G3 X0.4874 Y63.0157 I0.9421 J-0.5678
G1 X0.2502 Y62.5787
G3 X0.2275 Y62.5344 I0.9668 J-0.5248
G1 X0.0103 Y62.0871
G3 X-0.0105 Y62.0419 I0.9895 J-0.4805
G1 X-0.2072 Y61.5853
G3 X-0.2258 Y61.5393 I1.0102 J-0.4352
G1 X-0.4017 Y61.0743
G3 X-0.4182 Y61.0273 I1.0288 J-0.3892
G1 X-0.5729 Y60.5548
G3 X-0.5873 Y60.5073 I1.0454 J-0.3423
G1 X-0.7205 Y60.0283
G3 X-0.7328 Y59.98 I1.0598 J-0.2947
G1 X-0.8442 Y59.4954
G3 X-0.8542 Y59.4468 I1.072 J-0.2464
G1 X-0.9436 Y58.9578
G3 X-0.9514 Y58.9086 I1.0821 J-0.1978
G1 X-1.0186 Y58.4159
G3 X-1.0242 Y58.3666 I1.0899 J-0.1487
G1 X-1.0691 Y57.8715
G3 X-1.0725 Y57.8219 I1.0955 J-0.0993
G1 X-1.095 Y57.3252
G3 X-1.0961 Y57.2755 I1.0989 J-0.0498
G1 Y10.7783
G3 X-1.095 Y10.7285 I1.1 J0.0
G1 F200.0 Z-3.0
G1 F400.0 X-1.0725 Y10.2318
G3 X-1.0691 Y10.1823 I1.0989 J0.0498
G1 X-1.0242 Y9.6871
G3 X-1.0186 Y9.6378 I1.0955 J0.0993
G1 X-0.9514 Y9.1451
G3 X-0.9436 Y9.096 I1.0899 J0.1487
G1 X-0.8542 Y8.6069
G3 X-0.8442 Y8.5583 I1.0821 J0.1978
G1 X-0.7328 Y8.0737
G3 X-0.7205 Y8.0255 I1.072 J0.2465
G1 X-0.5873 Y7.5465
G3 X-0.5729 Y7.4989 I1.0598 J0.2947
G1 X-0.4182 Y7.0264
G3 X-0.4017 Y6.9795 I1.0454 J0.3423
G1 X-0.2258 Y6.5145
G3 X-0.2072 Y6.4685 I1.0288 J0.3892
G1 X-0.0105 Y6.0119
G3 X0.0103 Y5.9666 I1.0102 J0.4352
G1 X0.2275 Y5.5193
G3 X0.2502 Y5.475 I0.9895 J0.4805
G1 X0.4874 Y5.038
G3 X0.512 Y4.995 I0.9668 J0.5248
G1 X0.7686 Y4.5692
G3 X0.7954 Y4.527 I0.9421 J0.5678
G1 X1.0711 Y4.1132
G3 X1.0994 Y4.0727 I0.9154 J0.6099
G1 X1.3934 Y3.6718
G3 X1.4238 Y3.6322 I0.887 J0.6505
G1 X1.7357 Y3.245
G3 X1.7677 Y3.2071 I0.8566 J0.69
G1 X2.0967 Y2.8344
G3 X2.1305 Y2.7978 I0.8247 J0.728
G1 X2.4761 Y2.4403
G3 X2.5115 Y2.4053 I0.7909 J0.7645
G1 X2.8729 Y2.0638
G3 X2.9097 Y2.0306 I0.7555 J0.7995
G1 X3.2861 Y1.7058
G3 X3.3245 Y1.6742 I0.7186 J0.8328
G1 X3.7152 Y1.3667
G3 X3.755 Y1.3368 I0.6803 J0.8644
G1 X4.1592 Y1.0473
G3 X4.2003 Y1.0192 I0.6405 J0.8943
G1 X4.6172 Y0.7483
G3 X4.6593 Y0.7223 I0.5994 J0.9224
G1 X5.088 Y0.4704
G3 X5.1315 Y0.4461 I0.5573 J0.9484
G1 X5.5711 Y0.2139
G3 X5.6156 Y0.1917 I0.5138 J0.9726
G1 X6.0653 Y-0.0204
G3 X6.1108 Y-0.0407 I0.4693 J0.9949
G1 X6.5696 Y-0.2322
G3 X6.6157 Y-0.2502 I0.4237 J1.0151
G1 X7.0827 Y-0.4209
G3 X7.13 Y-0.437 I0.3776 J1.0331
G1 X7.6042 Y-0.5863
G3 X7.6518 Y-0.6001 I0.3303 J1.0492
G1 X8.1323 Y-0.7279
G3 X8.1807 Y-0.7396 I0.2828 J1.063
G1 X8.6665 Y-0.8455
G3 X8.7152 Y-0.855 I0.2343 J1.0748
G1 X9.2053 Y-0.9389
G3 X9.2544 Y-0.9461 I0.1856 J1.0842
G1 X9.7477 Y-1.0078
G3 X9.7975 Y-1.0129 I0.1365 J1.0915
G1 X10.2931 Y-1.0521
G3 X10.3425 Y-1.0549 I0.0867 J1.0966
G1 X10.8394 Y-1.0718
G3 X10.8768 Y-1.0724 I0.0374 J1.0994
G1 X98.8768
G3 X98.8892 I0.0 J1.1
G1 X99.3864 Y-1.0668
G3 X99.4362 Y-1.0651 I-0.0124 J1.0999
G1 X99.9325 Y-1.037
G3 X99.982 Y-1.0331 I-0.0622 J1.0982
G1 X100.4767 Y-0.9826
G3 X100.5261 Y-0.9764 I-0.1117 J1.0943
G1 X101.0179 Y-0.9036
G3 X101.0668 Y-0.8952 I-0.1611 J1.0881
G1 X101.5548 Y-0.8003
G3 X101.6034 Y-0.7897 I-0.21 J1.0798
G1 X102.0867 Y-0.6728
G3 X102.1347 Y-0.66 I-0.2586 J1.0692
G1 X102.6122 Y-0.5214
G3 X102.6596 Y-0.5065 I-0.3066 J1.0564
G1 X103.1303 Y-0.3465
G3 X103.1772 Y-0.3294 I-0.354 J1.0415
G1 X103.6402 Y-0.1482
G3 X103.6857 Y-0.1292 I-0.4009 J1.0243
G1 X104.1401 Y0.0726
G3 X104.1853 Y0.094 I-0.4465 J1.0053
G1 X104.63 Y0.3162
G3 X104.674 Y0.3394 I-0.4917 J0.984
G1 X105.1083 Y0.5815
G3 X105.1512 Y0.6067 I-0.5356 J0.9608
G1 X105.5741 Y0.8682
G3 X105.6158 Y0.8953 I-0.5785 J0.9356
G1 X106.0264 Y1.1756
G3 X106.0666 Y1.2044 I-0.6202 J0.9085
G1 X106.4642 Y1.5029
G3 X106.5035 Y1.5338 I-0.6604 J0.8797
G1 X106.8872 Y1.8501
G3 X106.9247 Y1.8824 I-0.6997 J0.8488
G1 X107.2937 Y2.2156
G3 X107.33 Y2.2499 I-0.7372 J0.8164
G1 X107.6835 Y2.5995
G3 X107.7179 Y2.6352 I-0.7735 J0.7821
G1 X108.0553 Y3.0004
G3 X108.0882 Y3.0377 I-0.808 J0.7465
G1 X108.4087 Y3.4177
G3 X108.4399 Y3.4564 I-0.8409 J0.7092
G1 X108.743 Y3.8506
G3 X108.7725 Y3.8908 I-0.872 J0.6705
G1 X109.0574 Y4.2983
G3 X109.0849 Y4.3396 I-0.9015 J0.6303
G1 X109.3511 Y4.7595
G3 X109.3767 Y4.802 I-0.929 J0.589
G1 X109.6237 Y5.2335
G3 X109.6475 Y5.2773 I-0.9547 J0.5465
G1 X109.8747 Y5.7195
G3 X109.8964 Y5.7642 I-0.9784 J0.5027
G1 X110.1034 Y6.2163
G3 X110.123 Y6.2618 I-1.0001 J0.4579
G1 X110.3094 Y6.7227
G3 X110.3271 Y6.7694 I-1.0198 J0.4124
G1 X110.4924 Y7.2383
G3 X110.5078 Y7.2854 I-1.0374 J0.3657
G1 X110.6518 Y7.7613
G3 X110.6652 Y7.8093 I-1.0529 J0.3186
G1 X110.7875 Y8.2912
G3 X110.7986 Y8.3395 I-1.0662 J0.2706
G1 X110.8991 Y8.8264
G3 X110.908 Y8.8755 I-1.0773 J0.2223
G1 X110.9863 Y9.3665
G3 X110.9931 Y9.4156 I-1.0863 J0.1732
G1 X111.0492 Y9.9096
G3 X111.0536 Y9.9592 I-1.093 J0.1241
G1 X111.0873 Y10.4552
G3 X111.0896 Y10.505 I-1.0975 J0.0746
G1 X111.1008 Y11.0021
G3 X111.1011 Y11.0269 I-1.0997 J0.0248
G1 Y57.0269
G3 X111.1008 Y57.0516 I-1.1 J0.0
G1 X111.0896 Y57.5487
G3 X111.0873 Y57.5985 I-1.0997 J-0.0248
G1 X111.0536 Y58.0945
G3 X111.0492 Y58.1441 I-1.0975 J-0.0746
G1 X110.9931 Y58.6381
G3 X110.9864 Y58.6872 I-1.093 J-0.1241
G1 X110.9081 Y59.1782
G3 X110.8991 Y59.2273 I-1.0863 J-0.1732
G1 X110.7986 Y59.7142
G3 X110.7875 Y59.7624 I-1.0773 J-0.2224
G1 X110.6652 Y60.2443
G3 X110.6518 Y60.2923 I-1.0662 J-0.2706
G1 X110.5078 Y60.7682
G3 X110.4924 Y60.8154 I-1.0529 J-0.3186
G1 X110.3271 Y61.2843
G3 X110.3094 Y61.331 I-1.0374 J-0.3657
G1 X110.123 Y61.7919
G3 X110.1034 Y61.8374 I-1.0198 J-0.4124
G1 X109.8964 Y62.2895
G3 X109.8747 Y62.3343 I-1.0001 J-0.4579
G1 X109.6475 Y62.7765
G3 X109.6237 Y62.8202 I-0.9784 J-0.5027
G1 X109.3767 Y63.2517
G3 X109.3511 Y63.2942 I-0.9547 J-0.5465
G1 X109.0849 Y63.7141
G3 X109.0574 Y63.7554 I-0.929 J-0.589
G1 X108.7725 Y64.1629
G3 X108.743 Y64.2032 I-0.9015 J-0.6303
G1 X108.4399 Y64.5974
G3 X108.4087 Y64.6361 I-0.872 J-0.6705
G1 X108.0882 Y65.0161
G3 X108.0553 Y65.0533 I-0.8409 J-0.7092
G1 X107.7179 Y65.4185
G3 X107.6835 Y65.4542 I-0.808 J-0.7465
G1 X107.33 Y65.8038
G3 X107.2937 Y65.8381 I-0.7735 J-0.7821
G1 X106.9247 Y66.1713
G3 X106.8872 Y66.2036 I-0.7372 J-0.8164
G1 X106.5035 Y66.5199
G3 X106.4642 Y66.5508 I-0.6997 J-0.8488
G1 X106.0666 Y66.8493
G3 X106.0264 Y66.8782 I-0.6604 J-0.8797
G1 X105.6158 Y67.1585
G3 X105.5741 Y67.1855 I-0.6202 J-0.9085
G1 X105.1512 Y67.447
G3 X105.1083 Y67.4723 I-0.5785 J-0.9356
G1 X104.674 Y67.7144
G3 X104.63 Y67.7376 I-0.5356 J-0.9608
G1 X104.1853 Y67.9598
G3 X104.1401 Y67.9811 I-0.4917 J-0.984
G1 X103.6857 Y68.1829
G3 X103.6402 Y68.2019 I-0.4465 J-1.0053
G1 X103.1772 Y68.3831
G3 X103.1303 Y68.4002 I-0.4009 J-1.0243
G1 X102.6596 Y68.5602
G3 X102.6122 Y68.5752 I-0.354 J-1.0415
G1 X102.1347 Y68.7138
G3 X102.0867 Y68.7265 I-0.3066 J-1.0564
G1 X101.6034 Y68.8434
G3 X101.5548 Y68.854 I-0.2586 J-1.0692
G1 X101.0668 Y68.9489
G3 X101.0179 Y68.9573 I-0.21 J-1.0798
G1 X100.5261 Y69.0301
G3 X100.4767 Y69.0363 I-0.1611 J-1.0881
G1 X99.982 Y69.0868
G3 X99.9325 Y69.0907 I-0.1117 J-1.0943
G1 X99.4362 Y69.1188
G3 X99.3864 Y69.1205 I-0.0622 J-1.0982
G1 X98.8892 Y69.1261
G3 X98.8768 Y69.1262 I-0.0124 J-1.0999
G1 X10.8768
G3 X10.8394 Y69.1255 I0.0 J-1.1
G1 X10.3425 Y69.1086
G3 X10.2931 Y69.1058 I0.0374 J-1.0994
G1 X9.7975 Y69.0666
G3 X9.7477 Y69.0616 I0.0867 J-1.0966
G1 X9.2544 Y68.9999
G3 X9.2053 Y68.9926 I0.1365 J-1.0915
G1 X8.7152 Y68.9087
G3 X8.6665 Y68.8992 I0.1856 J-1.0842
G1 X8.1807 Y68.7933
G3 X8.1323 Y68.7816 I0.2343 J-1.0748
G1 X7.6518 Y68.6538
G3 X7.6042 Y68.64 I0.2828 J-1.063
G1 X7.13 Y68.4907
G3 X7.0827 Y68.4746 I0.3303 J-1.0492
G1 X6.6157 Y68.3039
G3 X6.5696 Y68.2859 I0.3776 J-1.0331
G1 X6.1108 Y68.0944
G3 X6.0653 Y68.0741 I0.4237 J-1.0151
G1 X5.6156 Y67.862
G3 X5.5711 Y67.8398 I0.4693 J-0.9949
G1 X5.1315 Y67.6076
G3 X5.088 Y67.5834 I0.5138 J-0.9726
G1 X4.6593 Y67.3315
G3 X4.6172 Y67.3054 I0.5573 J-0.9484
G1 X4.2003 Y67.0345
G3 X4.1592 Y67.0064 I0.5994 J-0.9224
G1 X3.755 Y66.7169
G3 X3.7152 Y66.687 I0.6405 J-0.8943
G1 X3.3245 Y66.3795
G3 X3.2861 Y66.348 I0.6803 J-0.8644
G1 X2.9097 Y66.0232
G3 X2.8729 Y65.9899 I0.7186 J-0.8328
G1 X2.5115 Y65.6484
G3 X2.4761 Y65.6134 I0.7555 J-0.7995
G1 X2.1305 Y65.2559
G3 X2.0967 Y65.2193 I0.7909 J-0.7645
G1 X1.7677 Y64.8466
G3 X1.7357 Y64.8087 I0.8247 J-0.728
G1 X1.4238 Y64.4215
G3 X1.3934 Y64.382 I0.8566 J-0.69
G1 X1.0994 Y63.9811
G3 X1.0711 Y63.9405 I0.887 J-0.6505
G1 X0.7954 Y63.5267
G3 X0.7686 Y63.4845 I0.9154 J-0.6099
G1 X0.512 Y63.0587
G3 X0.4874 Y63.0157 I0.9421 J-0.5678
G1 X0.2502 Y62.5787
G3 X0.2275 Y62.5344 I0.9668 J-0.5248
G1 X0.0103 Y62.0871
G3 X-0.0105 Y62.0419 I0.9895 J-0.4805
G1 X-0.2072 Y61.5853
G3 X-0.2258 Y61.5393 I1.0102 J-0.4352
G1 X-0.4017 Y61.0743
G3 X-0.4182 Y61.0273 I1.0288 J-0.3892
G1 X-0.5729 Y60.5548
G3 X-0.5873 Y60.5073 I1.0454 J-0.3423
G1 X-0.7205 Y60.0283
G3 X-0.7328 Y59.98 I1.0598 J-0.2947
G1 X-0.8442 Y59.4954
G3 X-0.8542 Y59.4468 I1.072 J-0.2464
G1 X-0.9436 Y58.9578
G3 X-0.9514 Y58.9086 I1.0821 J-0.1978
G1 X-1.0186 Y58.4159
G3 X-1.0242 Y58.3666 I1.0899 J-0.1487
G1 X-1.0691 Y57.8715
G3 X-1.0725 Y57.8219 I1.0955 J-0.0993
G1 X-1.095 Y57.3252
G3 X-1.0961 Y57.2755 I1.0989 J-0.0498
G1 Y10.7783
G3 X-1.095 Y10.7285 I1.1 J0.0
G1 F200.0 Z-3.5
G1 F400.0 X-1.0725 Y10.2318
G3 X-1.0691 Y10.1823 I1.0989 J0.0498
G1 X-1.0242 Y9.6871
G3 X-1.0186 Y9.6378 I1.0955 J0.0993
G1 X-0.9514 Y9.1451
G3 X-0.9436 Y9.096 I1.0899 J0.1487
G1 X-0.8542 Y8.6069
G3 X-0.8442 Y8.5583 I1.0821 J0.1978
G1 X-0.7328 Y8.0737
G3 X-0.7205 Y8.0255 I1.072 J0.2465
G1 X-0.5873 Y7.5465
G3 X-0.5729 Y7.4989 I1.0598 J0.2947
G1 X-0.4182 Y7.0264
G3 X-0.4017 Y6.9795 I1.0454 J0.3423
G1 X-0.2258 Y6.5145
G3 X-0.2072 Y6.4685 I1.0288 J0.3892
G1 X-0.0105 Y6.0119
G3 X0.0103 Y5.9666 I1.0102 J0.4352
G1 X0.2275 Y5.5193
G3 X0.2502 Y5.475 I0.9895 J0.4805
G1 X0.4874 Y5.038
G3 X0.512 Y4.995 I0.9668 J0.5248
G1 X0.7686 Y4.5692
G3 X0.7954 Y4.527 I0.9421 J0.5678
G1 X1.0711 Y4.1132
G3 X1.0994 Y4.0727 I0.9154 J0.6099
G1 X1.3934 Y3.6718
G3 X1.4238 Y3.6322 I0.887 J0.6505
G1 X1.7357 Y3.245
G3 X1.7677 Y3.2071 I0.8566 J0.69
G1 X2.0967 Y2.8344
G3 X2.1305 Y2.7978 I0.8247 J0.728
G1 X2.4761 Y2.4403
G3 X2.5115 Y2.4053 I0.7909 J0.7645
G1 X2.8729 Y2.0638
G3 X2.9097 Y2.0306 I0.7555 J0.7995
G1 X3.2861 Y1.7058
G3 X3.3245 Y1.6742 I0.7186 J0.8328
G1 X3.7152 Y1.3667
G3 X3.755 Y1.3368 I0.6803 J0.8644
G1 X4.1592 Y1.0473
G3 X4.2003 Y1.0192 I0.6405 J0.8943
G1 X4.6172 Y0.7483
G3 X4.6593 Y0.7223 I0.5994 J0.9224
G1 X5.088 Y0.4704
G3 X5.1315 Y0.4461 I0.5573 J0.9484
G1 X5.5711 Y0.2139
G3 X5.6156 Y0.1917 I0.5138 J0.9726
G1 X6.0653 Y-0.0204
G3 X6.1108 Y-0.0407 I0.4693 J0.9949
G1 X6.5696 Y-0.2322
G3 X6.6157 Y-0.2502 I0.4237 J1.0151
G1 X7.0827 Y-0.4209
G3 X7.13 Y-0.437 I0.3776 J1.0331
G1 X7.6042 Y-0.5863
G3 X7.6518 Y-0.6001 I0.3303 J1.0492
G1 X8.1323 Y-0.7279
G3 X8.1807 Y-0.7396 I0.2828 J1.063
G1 X8.6665 Y-0.8455
G3 X8.7152 Y-0.855 I0.2343 J1.0748
G1 X9.2053 Y-0.9389
G3 X9.2544 Y-0.9461 I0.1856 J1.0842
G1 X9.7477 Y-1.0078
G3 X9.7975 Y-1.0129 I0.1365 J1.0915
G1 X10.2931 Y-1.0521
G3 X10.3425 Y-1.0549 I0.0867 J1.0966
G1 X10.8394 Y-1.0718
G3 X10.8768 Y-1.0724 I0.0374 J1.0994
G1 X98.8768
G3 X98.8892 I0.0 J1.1
G1 X99.3864 Y-1.0668
G3 X99.4362 Y-1.0651 I-0.0124 J1.0999
G1 X99.9325 Y-1.037
G3 X99.982 Y-1.0331 I-0.0622 J1.0982
G1 X100.4767 Y-0.9826
G3 X100.5261 Y-0.9764 I-0.1117 J1.0943
G1 X101.0179 Y-0.9036
G3 X101.0668 Y-0.8952 I-0.1611 J1.0881
G1 X101.5548 Y-0.8003
G3 X101.6034 Y-0.7897 I-0.21 J1.0798
G1 X102.0867 Y-0.6728
G3 X102.1347 Y-0.66 I-0.2586 J1.0692
G1 X102.6122 Y-0.5214
G3 X102.6596 Y-0.5065 I-0.3066 J1.0564
G1 X103.1303 Y-0.3465
G3 X103.1772 Y-0.3294 I-0.354 J1.0415
G1 X103.6402 Y-0.1482
G3 X103.6857 Y-0.1292 I-0.4009 J1.0243
G1 X104.1401 Y0.0726
G3 X104.1853 Y0.094 I-0.4465 J1.0053
G1 X104.63 Y0.3162
G3 X104.674 Y0.3394 I-0.4917 J0.984
G1 X105.1083 Y0.5815
G3 X105.1512 Y0.6067 I-0.5356 J0.9608
G1 X105.5741 Y0.8682
G3 X105.6158 Y0.8953 I-0.5785 J0.9356
G1 X106.0264 Y1.1756
G3 X106.0666 Y1.2044 I-0.6202 J0.9085
G1 X106.4642 Y1.5029
G3 X106.5035 Y1.5338 I-0.6604 J0.8797
G1 X106.8872 Y1.8501
G3 X106.9247 Y1.8824 I-0.6997 J0.8488
G1 X107.2937 Y2.2156
G3 X107.33 Y2.2499 I-0.7372 J0.8164
G1 X107.6835 Y2.5995
G3 X107.7179 Y2.6352 I-0.7735 J0.7821
G1 X108.0553 Y3.0004
G3 X108.0882 Y3.0377 I-0.808 J0.7465
G1 X108.4087 Y3.4177
G3 X108.4399 Y3.4564 I-0.8409 J0.7092
G1 X108.743 Y3.8506
G3 X108.7725 Y3.8908 I-0.872 J0.6705
G1 X109.0574 Y4.2983
G3 X109.0849 Y4.3396 I-0.9015 J0.6303
G1 X109.3511 Y4.7595
G3 X109.3767 Y4.802 I-0.929 J0.589
G1 X109.6237 Y5.2335
G3 X109.6475 Y5.2773 I-0.9547 J0.5465
G1 X109.8747 Y5.7195
G3 X109.8964 Y5.7642 I-0.9784 J0.5027
G1 X110.1034 Y6.2163
G3 X110.123 Y6.2618 I-1.0001 J0.4579
G1 X110.3094 Y6.7227
G3 X110.3271 Y6.7694 I-1.0198 J0.4124
G1 X110.4924 Y7.2383
G3 X110.5078 Y7.2854 I-1.0374 J0.3657
G1 X110.6518 Y7.7613
G3 X110.6652 Y7.8093 I-1.0529 J0.3186
G1 X110.7875 Y8.2912
G3 X110.7986 Y8.3395 I-1.0662 J0.2706
G1 X110.8991 Y8.8264
G3 X110.908 Y8.8755 I-1.0773 J0.2223
G1 X110.9863 Y9.3665
G3 X110.9931 Y9.4156 I-1.0863 J0.1732
G1 X111.0492 Y9.9096
G3 X111.0536 Y9.9592 I-1.093 J0.1241
G1 X111.0873 Y10.4552
G3 X111.0896 Y10.505 I-1.0975 J0.0746
G1 X111.1008 Y11.0021
G3 X111.1011 Y11.0269 I-1.0997 J0.0248
G1 Y57.0269
G3 X111.1008 Y57.0516 I-1.1 J0.0
G1 X111.0896 Y57.5487
G3 X111.0873 Y57.5985 I-1.0997 J-0.0248
G1 X111.0536 Y58.0945
G3 X111.0492 Y58.1441 I-1.0975 J-0.0746
G1 X110.9931 Y58.6381
G3 X110.9864 Y58.6872 I-1.093 J-0.1241
G1 X110.9081 Y59.1782
G3 X110.8991 Y59.2273 I-1.0863 J-0.1732
G1 X110.7986 Y59.7142
G3 X110.7875 Y59.7624 I-1.0773 J-0.2224
G1 X110.6652 Y60.2443
G3 X110.6518 Y60.2923 I-1.0662 J-0.2706
G1 X110.5078 Y60.7682
G3 X110.4924 Y60.8154 I-1.0529 J-0.3186
G1 X110.3271 Y61.2843
G3 X110.3094 Y61.331 I-1.0374 J-0.3657
G1 X110.123 Y61.7919
G3 X110.1034 Y61.8374 I-1.0198 J-0.4124
G1 X109.8964 Y62.2895
G3 X109.8747 Y62.3343 I-1.0001 J-0.4579
G1 X109.6475 Y62.7765
G3 X109.6237 Y62.8202 I-0.9784 J-0.5027
G1 X109.3767 Y63.2517
G3 X109.3511 Y63.2942 I-0.9547 J-0.5465
G1 X109.0849 Y63.7141
G3 X109.0574 Y63.7554 I-0.929 J-0.589
G1 X108.7725 Y64.1629
G3 X108.743 Y64.2032 I-0.9015 J-0.6303
G1 X108.4399 Y64.5974
G3 X108.4087 Y64.6361 I-0.872 J-0.6705
G1 X108.0882 Y65.0161
G3 X108.0553 Y65.0533 I-0.8409 J-0.7092
G1 X107.7179 Y65.4185
G3 X107.6835 Y65.4542 I-0.808 J-0.7465
G1 X107.33 Y65.8038
G3 X107.2937 Y65.8381 I-0.7735 J-0.7821
G1 X106.9247 Y66.1713
G3 X106.8872 Y66.2036 I-0.7372 J-0.8164
G1 X106.5035 Y66.5199
G3 X106.4642 Y66.5508 I-0.6997 J-0.8488
G1 X106.0666 Y66.8493
G3 X106.0264 Y66.8782 I-0.6604 J-0.8797
G1 X105.6158 Y67.1585
G3 X105.5741 Y67.1855 I-0.6202 J-0.9085
G1 X105.1512 Y67.447
G3 X105.1083 Y67.4723 I-0.5785 J-0.9356
G1 X104.674 Y67.7144
G3 X104.63 Y67.7376 I-0.5356 J-0.9608
G1 X104.1853 Y67.9598
G3 X104.1401 Y67.9811 I-0.4917 J-0.984
G1 X103.6857 Y68.1829
G3 X103.6402 Y68.2019 I-0.4465 J-1.0053
G1 X103.1772 Y68.3831
G3 X103.1303 Y68.4002 I-0.4009 J-1.0243
G1 X102.6596 Y68.5602
G3 X102.6122 Y68.5752 I-0.354 J-1.0415
G1 X102.1347 Y68.7138
G3 X102.0867 Y68.7265 I-0.3066 J-1.0564
G1 X101.6034 Y68.8434
G3 X101.5548 Y68.854 I-0.2586 J-1.0692
G1 X101.0668 Y68.9489
G3 X101.0179 Y68.9573 I-0.21 J-1.0798
G1 X100.5261 Y69.0301
G3 X100.4767 Y69.0363 I-0.1611 J-1.0881
G1 X99.982 Y69.0868
G3 X99.9325 Y69.0907 I-0.1117 J-1.0943
G1 X99.4362 Y69.1188
G3 X99.3864 Y69.1205 I-0.0622 J-1.0982
G1 X98.8892 Y69.1261
G3 X98.8768 Y69.1262 I-0.0124 J-1.0999
G1 X10.8768
G3 X10.8394 Y69.1255 I0.0 J-1.1
G1 X10.3425 Y69.1086
G3 X10.2931 Y69.1058 I0.0374 J-1.0994
G1 X9.7975 Y69.0666
G3 X9.7477 Y69.0616 I0.0867 J-1.0966
G1 X9.2544 Y68.9999
G3 X9.2053 Y68.9926 I0.1365 J-1.0915
G1 X8.7152 Y68.9087
G3 X8.6665 Y68.8992 I0.1856 J-1.0842
G1 X8.1807 Y68.7933
G3 X8.1323 Y68.7816 I0.2343 J-1.0748
G1 X7.6518 Y68.6538
G3 X7.6042 Y68.64 I0.2828 J-1.063
G1 X7.13 Y68.4907
G3 X7.0827 Y68.4746 I0.3303 J-1.0492
G1 X6.6157 Y68.3039
G3 X6.5696 Y68.2859 I0.3776 J-1.0331
G1 X6.1108 Y68.0944
G3 X6.0653 Y68.0741 I0.4237 J-1.0151
G1 X5.6156 Y67.862
G3 X5.5711 Y67.8398 I0.4693 J-0.9949
G1 X5.1315 Y67.6076
G3 X5.088 Y67.5834 I0.5138 J-0.9726
G1 X4.6593 Y67.3315
G3 X4.6172 Y67.3054 I0.5573 J-0.9484
G1 X4.2003 Y67.0345
G3 X4.1592 Y67.0064 I0.5994 J-0.9224
G1 X3.755 Y66.7169
G3 X3.7152 Y66.687 I0.6405 J-0.8943
G1 X3.3245 Y66.3795
G3 X3.2861 Y66.348 I0.6803 J-0.8644
G1 X2.9097 Y66.0232
G3 X2.8729 Y65.9899 I0.7186 J-0.8328
G1 X2.5115 Y65.6484
G3 X2.4761 Y65.6134 I0.7555 J-0.7995
G1 X2.1305 Y65.2559
G3 X2.0967 Y65.2193 I0.7909 J-0.7645
G1 X1.7677 Y64.8466
G3 X1.7357 Y64.8087 I0.8247 J-0.728
G1 X1.4238 Y64.4215
G3 X1.3934 Y64.382 I0.8566 J-0.69
G1 X1.0994 Y63.9811
G3 X1.0711 Y63.9405 I0.887 J-0.6505
G1 X0.7954 Y63.5267
G3 X0.7686 Y63.4845 I0.9154 J-0.6099
G1 X0.512 Y63.0587
G3 X0.4874 Y63.0157 I0.9421 J-0.5678
G1 X0.2502 Y62.5787
G3 X0.2275 Y62.5344 I0.9668 J-0.5248
G1 X0.0103 Y62.0871
G3 X-0.0105 Y62.0419 I0.9895 J-0.4805
G1 X-0.2072 Y61.5853
G3 X-0.2258 Y61.5393 I1.0102 J-0.4352
G1 X-0.4017 Y61.0743
G3 X-0.4182 Y61.0273 I1.0288 J-0.3892
G1 X-0.5729 Y60.5548
G3 X-0.5873 Y60.5073 I1.0454 J-0.3423
G1 X-0.7205 Y60.0283
G3 X-0.7328 Y59.98 I1.0598 J-0.2947
G1 X-0.8442 Y59.4954
G3 X-0.8542 Y59.4468 I1.072 J-0.2464
G1 X-0.9436 Y58.9578
G3 X-0.9514 Y58.9086 I1.0821 J-0.1978
G1 X-1.0186 Y58.4159
G3 X-1.0242 Y58.3666 I1.0899 J-0.1487
G1 X-1.0691 Y57.8715
G3 X-1.0725 Y57.8219 I1.0955 J-0.0993
G1 X-1.095 Y57.3252
G3 X-1.0961 Y57.2755 I1.0989 J-0.0498
G1 Y10.7783
G3 X-1.095 Y10.7285 I1.1 J0.0
G1 F200.0 Z-4.0
G1 F400.0 X-1.0725 Y10.2318
G3 X-1.0691 Y10.1823 I1.0989 J0.0498
G1 X-1.0242 Y9.6871
G3 X-1.0186 Y9.6378 I1.0955 J0.0993
G1 X-0.9514 Y9.1451
G3 X-0.9436 Y9.096 I1.0899 J0.1487
G1 X-0.8542 Y8.6069
G3 X-0.8442 Y8.5583 I1.0821 J0.1978
G1 X-0.7328 Y8.0737
G3 X-0.7205 Y8.0255 I1.072 J0.2465
G1 X-0.5873 Y7.5465
G3 X-0.5729 Y7.4989 I1.0598 J0.2947
G1 X-0.4182 Y7.0264
G3 X-0.4017 Y6.9795 I1.0454 J0.3423
G1 X-0.2258 Y6.5145
G3 X-0.2072 Y6.4685 I1.0288 J0.3892
G1 X-0.0105 Y6.0119
G3 X0.0103 Y5.9666 I1.0102 J0.4352
G1 X0.2275 Y5.5193
G3 X0.2502 Y5.475 I0.9895 J0.4805
G1 X0.4874 Y5.038
G3 X0.512 Y4.995 I0.9668 J0.5248
G1 X0.7686 Y4.5692
G3 X0.7954 Y4.527 I0.9421 J0.5678
G1 X1.0711 Y4.1132
G3 X1.0994 Y4.0727 I0.9154 J0.6099
G1 X1.3934 Y3.6718
G3 X1.4238 Y3.6322 I0.887 J0.6505
G1 X1.7357 Y3.245
G3 X1.7677 Y3.2071 I0.8566 J0.69
G1 X2.0967 Y2.8344
G3 X2.1305 Y2.7978 I0.8247 J0.728
G1 X2.4761 Y2.4403
G3 X2.5115 Y2.4053 I0.7909 J0.7645
G1 X2.8729 Y2.0638
G3 X2.9097 Y2.0306 I0.7555 J0.7995
G1 X3.2861 Y1.7058
G3 X3.3245 Y1.6742 I0.7186 J0.8328
G1 X3.7152 Y1.3667
G3 X3.755 Y1.3368 I0.6803 J0.8644
G1 X4.1592 Y1.0473
G3 X4.2003 Y1.0192 I0.6405 J0.8943
G1 X4.6172 Y0.7483
G3 X4.6593 Y0.7223 I0.5994 J0.9224
G1 X5.088 Y0.4704
G3 X5.1315 Y0.4461 I0.5573 J0.9484
G1 X5.5711 Y0.2139
G3 X5.6156 Y0.1917 I0.5138 J0.9726
G1 X6.0653 Y-0.0204
G3 X6.1108 Y-0.0407 I0.4693 J0.9949
G1 X6.5696 Y-0.2322
G3 X6.6157 Y-0.2502 I0.4237 J1.0151
G1 X7.0827 Y-0.4209
G3 X7.13 Y-0.437 I0.3776 J1.0331
G1 X7.6042 Y-0.5863
G3 X7.6518 Y-0.6001 I0.3303 J1.0492
G1 X8.1323 Y-0.7279
G3 X8.1807 Y-0.7396 I0.2828 J1.063
G1 X8.6665 Y-0.8455
G3 X8.7152 Y-0.855 I0.2343 J1.0748
G1 X9.2053 Y-0.9389
G3 X9.2544 Y-0.9461 I0.1856 J1.0842
G1 X9.7477 Y-1.0078
G3 X9.7975 Y-1.0129 I0.1365 J1.0915
G1 X10.2931 Y-1.0521
G3 X10.3425 Y-1.0549 I0.0867 J1.0966
G1 X10.8394 Y-1.0718
G3 X10.8768 Y-1.0724 I0.0374 J1.0994
G1 X98.8768
G3 X98.8892 I0.0 J1.1
G1 X99.3864 Y-1.0668
G3 X99.4362 Y-1.0651 I-0.0124 J1.0999
G1 X99.9325 Y-1.037
G3 X99.982 Y-1.0331 I-0.0622 J1.0982
G1 X100.4767 Y-0.9826
G3 X100.5261 Y-0.9764 I-0.1117 J1.0943
G1 X101.0179 Y-0.9036
G3 X101.0668 Y-0.8952 I-0.1611 J1.0881
G1 X101.5548 Y-0.8003
G3 X101.6034 Y-0.7897 I-0.21 J1.0798
G1 X102.0867 Y-0.6728
G3 X102.1347 Y-0.66 I-0.2586 J1.0692
G1 X102.6122 Y-0.5214
G3 X102.6596 Y-0.5065 I-0.3066 J1.0564
G1 X103.1303 Y-0.3465
G3 X103.1772 Y-0.3294 I-0.354 J1.0415
G1 X103.6402 Y-0.1482
G3 X103.6857 Y-0.1292 I-0.4009 J1.0243
G1 X104.1401 Y0.0726
G3 X104.1853 Y0.094 I-0.4465 J1.0053
G1 X104.63 Y0.3162
G3 X104.674 Y0.3394 I-0.4917 J0.984
G1 X105.1083 Y0.5815
G3 X105.1512 Y0.6067 I-0.5356 J0.9608
G1 X105.5741 Y0.8682
G3 X105.6158 Y0.8953 I-0.5785 J0.9356
G1 X106.0264 Y1.1756
G3 X106.0666 Y1.2044 I-0.6202 J0.9085
G1 X106.4642 Y1.5029
G3 X106.5035 Y1.5338 I-0.6604 J0.8797
G1 X106.8872 Y1.8501
G3 X106.9247 Y1.8824 I-0.6997 J0.8488
G1 X107.2937 Y2.2156
G3 X107.33 Y2.2499 I-0.7372 J0.8164
G1 X107.6835 Y2.5995
G3 X107.7179 Y2.6352 I-0.7735 J0.7821
G1 X108.0553 Y3.0004
G3 X108.0882 Y3.0377 I-0.808 J0.7465
G1 X108.4087 Y3.4177
G3 X108.4399 Y3.4564 I-0.8409 J0.7092
G1 X108.743 Y3.8506
G3 X108.7725 Y3.8908 I-0.872 J0.6705
G1 X109.0574 Y4.2983
G3 X109.0849 Y4.3396 I-0.9015 J0.6303
G1 X109.3511 Y4.7595
G3 X109.3767 Y4.802 I-0.929 J0.589
G1 X109.6237 Y5.2335
G3 X109.6475 Y5.2773 I-0.9547 J0.5465
G1 X109.8747 Y5.7195
G3 X109.8964 Y5.7642 I-0.9784 J0.5027
G1 X110.1034 Y6.2163
G3 X110.123 Y6.2618 I-1.0001 J0.4579
G1 X110.3094 Y6.7227
G3 X110.3271 Y6.7694 I-1.0198 J0.4124
G1 X110.4924 Y7.2383
G3 X110.5078 Y7.2854 I-1.0374 J0.3657
G1 X110.6518 Y7.7613
G3 X110.6652 Y7.8093 I-1.0529 J0.3186
G1 X110.7875 Y8.2912
G3 X110.7986 Y8.3395 I-1.0662 J0.2706
G1 X110.8991 Y8.8264
G3 X110.908 Y8.8755 I-1.0773 J0.2223
G1 X110.9863 Y9.3665
G3 X110.9931 Y9.4156 I-1.0863 J0.1732
G1 X111.0492 Y9.9096
G3 X111.0536 Y9.9592 I-1.093 J0.1241
G1 X111.0873 Y10.4552
G3 X111.0896 Y10.505 I-1.0975 J0.0746
G1 X111.1008 Y11.0021
G3 X111.1011 Y11.0269 I-1.0997 J0.0248
G1 Y57.0269
G3 X111.1008 Y57.0516 I-1.1 J0.0
G1 X111.0896 Y57.5487
G3 X111.0873 Y57.5985 I-1.0997 J-0.0248
G1 X111.0536 Y58.0945
G3 X111.0492 Y58.1441 I-1.0975 J-0.0746
G1 X110.9931 Y58.6381
G3 X110.9864 Y58.6872 I-1.093 J-0.1241
G1 X110.9081 Y59.1782
G3 X110.8991 Y59.2273 I-1.0863 J-0.1732
G1 X110.7986 Y59.7142
G3 X110.7875 Y59.7624 I-1.0773 J-0.2224
G1 X110.6652 Y60.2443
G3 X110.6518 Y60.2923 I-1.0662 J-0.2706
G1 X110.5078 Y60.7682
G3 X110.4924 Y60.8154 I-1.0529 J-0.3186
G1 X110.3271 Y61.2843
G3 X110.3094 Y61.331 I-1.0374 J-0.3657
G1 X110.123 Y61.7919
G3 X110.1034 Y61.8374 I-1.0198 J-0.4124
G1 X109.8964 Y62.2895
G3 X109.8747 Y62.3343 I-1.0001 J-0.4579
G1 X109.6475 Y62.7765
G3 X109.6237 Y62.8202 I-0.9784 J-0.5027
G1 X109.3767 Y63.2517
G3 X109.3511 Y63.2942 I-0.9547 J-0.5465
G1 X109.0849 Y63.7141
G3 X109.0574 Y63.7554 I-0.929 J-0.589
G1 X108.7725 Y64.1629
G3 X108.743 Y64.2032 I-0.9015 J-0.6303
G1 X108.4399 Y64.5974
G3 X108.4087 Y64.6361 I-0.872 J-0.6705
G1 X108.0882 Y65.0161
G3 X108.0553 Y65.0533 I-0.8409 J-0.7092
G1 X107.7179 Y65.4185
G3 X107.6835 Y65.4542 I-0.808 J-0.7465
G1 X107.33 Y65.8038
G3 X107.2937 Y65.8381 I-0.7735 J-0.7821
G1 X106.9247 Y66.1713
G3 X106.8872 Y66.2036 I-0.7372 J-0.8164
G1 X106.5035 Y66.5199
G3 X106.4642 Y66.5508 I-0.6997 J-0.8488
G1 X106.0666 Y66.8493
G3 X106.0264 Y66.8782 I-0.6604 J-0.8797
G1 X105.6158 Y67.1585
G3 X105.5741 Y67.1855 I-0.6202 J-0.9085
G1 X105.1512 Y67.447
G3 X105.1083 Y67.4723 I-0.5785 J-0.9356
G1 X104.674 Y67.7144
G3 X104.63 Y67.7376 I-0.5356 J-0.9608
G1 X104.1853 Y67.9598
G3 X104.1401 Y67.9811 I-0.4917 J-0.984
G1 X103.6857 Y68.1829
G3 X103.6402 Y68.2019 I-0.4465 J-1.0053
G1 X103.1772 Y68.3831
G3 X103.1303 Y68.4002 I-0.4009 J-1.0243
G1 X102.6596 Y68.5602
G3 X102.6122 Y68.5752 I-0.354 J-1.0415
G1 X102.1347 Y68.7138
G3 X102.0867 Y68.7265 I-0.3066 J-1.0564
G1 X101.6034 Y68.8434
G3 X101.5548 Y68.854 I-0.2586 J-1.0692
G1 X101.0668 Y68.9489
G3 X101.0179 Y68.9573 I-0.21 J-1.0798
G1 X100.5261 Y69.0301
G3 X100.4767 Y69.0363 I-0.1611 J-1.0881
G1 X99.982 Y69.0868
G3 X99.9325 Y69.0907 I-0.1117 J-1.0943
G1 X99.4362 Y69.1188
G3 X99.3864 Y69.1205 I-0.0622 J-1.0982
G1 X98.8892 Y69.1261
G3 X98.8768 Y69.1262 I-0.0124 J-1.0999
G1 X10.8768
G3 X10.8394 Y69.1255 I0.0 J-1.1
G1 X10.3425 Y69.1086
G3 X10.2931 Y69.1058 I0.0374 J-1.0994
G1 X9.7975 Y69.0666
G3 X9.7477 Y69.0616 I0.0867 J-1.0966
G1 X9.2544 Y68.9999
G3 X9.2053 Y68.9926 I0.1365 J-1.0915
G1 X8.7152 Y68.9087
G3 X8.6665 Y68.8992 I0.1856 J-1.0842
G1 X8.1807 Y68.7933
G3 X8.1323 Y68.7816 I0.2343 J-1.0748
G1 X7.6518 Y68.6538
G3 X7.6042 Y68.64 I0.2828 J-1.063
G1 X7.13 Y68.4907
G3 X7.0827 Y68.4746 I0.3303 J-1.0492
G1 X6.6157 Y68.3039
G3 X6.5696 Y68.2859 I0.3776 J-1.0331
G1 X6.1108 Y68.0944
G3 X6.0653 Y68.0741 I0.4237 J-1.0151
G1 X5.6156 Y67.862
G3 X5.5711 Y67.8398 I0.4693 J-0.9949
G1 X5.1315 Y67.6076
G3 X5.088 Y67.5834 I0.5138 J-0.9726
G1 X4.6593 Y67.3315
G3 X4.6172 Y67.3054 I0.5573 J-0.9484
G1 X4.2003 Y67.0345
G3 X4.1592 Y67.0064 I0.5994 J-0.9224
G1 X3.755 Y66.7169
G3 X3.7152 Y66.687 I0.6405 J-0.8943
G1 X3.3245 Y66.3795
G3 X3.2861 Y66.348 I0.6803 J-0.8644
G1 X2.9097 Y66.0232
G3 X2.8729 Y65.9899 I0.7186 J-0.8328
G1 X2.5115 Y65.6484
G3 X2.4761 Y65.6134 I0.7555 J-0.7995
G1 X2.1305 Y65.2559
G3 X2.0967 Y65.2193 I0.7909 J-0.7645
G1 X1.7677 Y64.8466
G3 X1.7357 Y64.8087 I0.8247 J-0.728
G1 X1.4238 Y64.4215
G3 X1.3934 Y64.382 I0.8566 J-0.69
G1 X1.0994 Y63.9811
G3 X1.0711 Y63.9405 I0.887 J-0.6505
G1 X0.7954 Y63.5267
G3 X0.7686 Y63.4845 I0.9154 J-0.6099
G1 X0.512 Y63.0587
G3 X0.4874 Y63.0157 I0.9421 J-0.5678
G1 X0.2502 Y62.5787
G3 X0.2275 Y62.5344 I0.9668 J-0.5248
G1 X0.0103 Y62.0871
G3 X-0.0105 Y62.0419 I0.9895 J-0.4805
G1 X-0.2072 Y61.5853
G3 X-0.2258 Y61.5393 I1.0102 J-0.4352
G1 X-0.4017 Y61.0743
G3 X-0.4182 Y61.0273 I1.0288 J-0.3892
G1 X-0.5729 Y60.5548
G3 X-0.5873 Y60.5073 I1.0454 J-0.3423
G1 X-0.7205 Y60.0283
G3 X-0.7328 Y59.98 I1.0598 J-0.2947
G1 X-0.8442 Y59.4954
G3 X-0.8542 Y59.4468 I1.072 J-0.2464
G1 X-0.9436 Y58.9578
G3 X-0.9514 Y58.9086 I1.0821 J-0.1978
G1 X-1.0186 Y58.4159
G3 X-1.0242 Y58.3666 I1.0899 J-0.1487
G1 X-1.0691 Y57.8715
G3 X-1.0725 Y57.8219 I1.0955 J-0.0993
G1 X-1.095 Y57.3252
G3 X-1.0961 Y57.2755 I1.0989 J-0.0498
G1 Y10.7783
G3 X-1.095 Y10.7285 I1.1 J0.0
G1 F200.0 Z-4.5
G1 F400.0 X-1.0725 Y10.2318
G3 X-1.0691 Y10.1823 I1.0989 J0.0498
G1 X-1.0242 Y9.6871
G3 X-1.0186 Y9.6378 I1.0955 J0.0993
G1 X-0.9514 Y9.1451
G3 X-0.9436 Y9.096 I1.0899 J0.1487
G1 X-0.8542 Y8.6069
G3 X-0.8442 Y8.5583 I1.0821 J0.1978
G1 X-0.7328 Y8.0737
G3 X-0.7205 Y8.0255 I1.072 J0.2465
G1 X-0.5873 Y7.5465
G3 X-0.5729 Y7.4989 I1.0598 J0.2947
G1 X-0.4182 Y7.0264
G3 X-0.4017 Y6.9795 I1.0454 J0.3423
G1 X-0.2258 Y6.5145
G3 X-0.2072 Y6.4685 I1.0288 J0.3892
G1 X-0.0105 Y6.0119
G3 X0.0103 Y5.9666 I1.0102 J0.4352
G1 X0.2275 Y5.5193
G3 X0.2502 Y5.475 I0.9895 J0.4805
G1 X0.4874 Y5.038
G3 X0.512 Y4.995 I0.9668 J0.5248
G1 X0.7686 Y4.5692
G3 X0.7954 Y4.527 I0.9421 J0.5678
G1 X1.0711 Y4.1132
G3 X1.0994 Y4.0727 I0.9154 J0.6099
G1 X1.3934 Y3.6718
G3 X1.4238 Y3.6322 I0.887 J0.6505
G1 X1.7357 Y3.245
G3 X1.7677 Y3.2071 I0.8566 J0.69
G1 X2.0967 Y2.8344
G3 X2.1305 Y2.7978 I0.8247 J0.728
G1 X2.4761 Y2.4403
G3 X2.5115 Y2.4053 I0.7909 J0.7645
G1 X2.8729 Y2.0638
G3 X2.9097 Y2.0306 I0.7555 J0.7995
G1 X3.2861 Y1.7058
G3 X3.3245 Y1.6742 I0.7186 J0.8328
G1 X3.7152 Y1.3667
G3 X3.755 Y1.3368 I0.6803 J0.8644
G1 X4.1592 Y1.0473
G3 X4.2003 Y1.0192 I0.6405 J0.8943
G1 X4.6172 Y0.7483
G3 X4.6593 Y0.7223 I0.5994 J0.9224
G1 X5.088 Y0.4704
G3 X5.1315 Y0.4461 I0.5573 J0.9484
G1 X5.5711 Y0.2139
G3 X5.6156 Y0.1917 I0.5138 J0.9726
G1 X6.0653 Y-0.0204
G3 X6.1108 Y-0.0407 I0.4693 J0.9949
G1 X6.5696 Y-0.2322
G3 X6.6157 Y-0.2502 I0.4237 J1.0151
G1 X7.0827 Y-0.4209
G3 X7.13 Y-0.437 I0.3776 J1.0331
G1 X7.6042 Y-0.5863
G3 X7.6518 Y-0.6001 I0.3303 J1.0492
G1 X8.1323 Y-0.7279
G3 X8.1807 Y-0.7396 I0.2828 J1.063
G1 X8.6665 Y-0.8455
G3 X8.7152 Y-0.855 I0.2343 J1.0748
G1 X9.2053 Y-0.9389
G3 X9.2544 Y-0.9461 I0.1856 J1.0842
G1 X9.7477 Y-1.0078
G3 X9.7975 Y-1.0129 I0.1365 J1.0915
G1 X10.2931 Y-1.0521
G3 X10.3425 Y-1.0549 I0.0867 J1.0966
G1 X10.8394 Y-1.0718
G3 X10.8768 Y-1.0724 I0.0374 J1.0994
G1 X98.8768
G3 X98.8892 I0.0 J1.1
G1 X99.3864 Y-1.0668
G3 X99.4362 Y-1.0651 I-0.0124 J1.0999
G1 X99.9325 Y-1.037
G3 X99.982 Y-1.0331 I-0.0622 J1.0982
G1 X100.4767 Y-0.9826
G3 X100.5261 Y-0.9764 I-0.1117 J1.0943
G1 X101.0179 Y-0.9036
G3 X101.0668 Y-0.8952 I-0.1611 J1.0881
G1 X101.5548 Y-0.8003
G3 X101.6034 Y-0.7897 I-0.21 J1.0798
G1 X102.0867 Y-0.6728
G3 X102.1347 Y-0.66 I-0.2586 J1.0692
G1 X102.6122 Y-0.5214
G3 X102.6596 Y-0.5065 I-0.3066 J1.0564
G1 X103.1303 Y-0.3465
G3 X103.1772 Y-0.3294 I-0.354 J1.0415
G1 X103.6402 Y-0.1482
G3 X103.6857 Y-0.1292 I-0.4009 J1.0243
G1 X104.1401 Y0.0726
G3 X104.1853 Y0.094 I-0.4465 J1.0053
G1 X104.63 Y0.3162
G3 X104.674 Y0.3394 I-0.4917 J0.984
G1 X105.1083 Y0.5815
G3 X105.1512 Y0.6067 I-0.5356 J0.9608
G1 X105.5741 Y0.8682
G3 X105.6158 Y0.8953 I-0.5785 J0.9356
G1 X106.0264 Y1.1756
G3 X106.0666 Y1.2044 I-0.6202 J0.9085
G1 X106.4642 Y1.5029
G3 X106.5035 Y1.5338 I-0.6604 J0.8797
G1 X106.8872 Y1.8501
G3 X106.9247 Y1.8824 I-0.6997 J0.8488
G1 X107.2937 Y2.2156
G3 X107.33 Y2.2499 I-0.7372 J0.8164
G1 X107.6835 Y2.5995
G3 X107.7179 Y2.6352 I-0.7735 J0.7821
G1 X108.0553 Y3.0004
G3 X108.0882 Y3.0377 I-0.808 J0.7465
G1 X108.4087 Y3.4177
G3 X108.4399 Y3.4564 I-0.8409 J0.7092
G1 X108.743 Y3.8506
G3 X108.7725 Y3.8908 I-0.872 J0.6705
G1 X109.0574 Y4.2983
G3 X109.0849 Y4.3396 I-0.9015 J0.6303
G1 X109.3511 Y4.7595
G3 X109.3767 Y4.802 I-0.929 J0.589
G1 X109.6237 Y5.2335
G3 X109.6475 Y5.2773 I-0.9547 J0.5465
G1 X109.8747 Y5.7195
G3 X109.8964 Y5.7642 I-0.9784 J0.5027
G1 X110.1034 Y6.2163
G3 X110.123 Y6.2618 I-1.0001 J0.4579
G1 X110.3094 Y6.7227
G3 X110.3271 Y6.7694 I-1.0198 J0.4124
G1 X110.4924 Y7.2383
G3 X110.5078 Y7.2854 I-1.0374 J0.3657
G1 X110.6518 Y7.7613
G3 X110.6652 Y7.8093 I-1.0529 J0.3186
G1 X110.7875 Y8.2912
G3 X110.7986 Y8.3395 I-1.0662 J0.2706
G1 X110.8991 Y8.8264
G3 X110.908 Y8.8755 I-1.0773 J0.2223
G1 X110.9863 Y9.3665
G3 X110.9931 Y9.4156 I-1.0863 J0.1732
G1 X111.0492 Y9.9096
G3 X111.0536 Y9.9592 I-1.093 J0.1241
G1 X111.0873 Y10.4552
G3 X111.0896 Y10.505 I-1.0975 J0.0746
G1 X111.1008 Y11.0021
G3 X111.1011 Y11.0269 I-1.0997 J0.0248
G1 Y57.0269
G3 X111.1008 Y57.0516 I-1.1 J0.0
G1 X111.0896 Y57.5487
G3 X111.0873 Y57.5985 I-1.0997 J-0.0248
G1 X111.0536 Y58.0945
G3 X111.0492 Y58.1441 I-1.0975 J-0.0746
G1 X110.9931 Y58.6381
G3 X110.9864 Y58.6872 I-1.093 J-0.1241
G1 X110.9081 Y59.1782
G3 X110.8991 Y59.2273 I-1.0863 J-0.1732
G1 X110.7986 Y59.7142
G3 X110.7875 Y59.7624 I-1.0773 J-0.2224
G1 X110.6652 Y60.2443
G3 X110.6518 Y60.2923 I-1.0662 J-0.2706
G1 X110.5078 Y60.7682
G3 X110.4924 Y60.8154 I-1.0529 J-0.3186
G1 X110.3271 Y61.2843
G3 X110.3094 Y61.331 I-1.0374 J-0.3657
G1 X110.123 Y61.7919
G3 X110.1034 Y61.8374 I-1.0198 J-0.4124
G1 X109.8964 Y62.2895
G3 X109.8747 Y62.3343 I-1.0001 J-0.4579
G1 X109.6475 Y62.7765
G3 X109.6237 Y62.8202 I-0.9784 J-0.5027
G1 X109.3767 Y63.2517
G3 X109.3511 Y63.2942 I-0.9547 J-0.5465
G1 X109.0849 Y63.7141
G3 X109.0574 Y63.7554 I-0.929 J-0.589
G1 X108.7725 Y64.1629
G3 X108.743 Y64.2032 I-0.9015 J-0.6303
G1 X108.4399 Y64.5974
G3 X108.4087 Y64.6361 I-0.872 J-0.6705
G1 X108.0882 Y65.0161
G3 X108.0553 Y65.0533 I-0.8409 J-0.7092
G1 X107.7179 Y65.4185
G3 X107.6835 Y65.4542 I-0.808 J-0.7465
G1 X107.33 Y65.8038
G3 X107.2937 Y65.8381 I-0.7735 J-0.7821
G1 X106.9247 Y66.1713
G3 X106.8872 Y66.2036 I-0.7372 J-0.8164
G1 X106.5035 Y66.5199
G3 X106.4642 Y66.5508 I-0.6997 J-0.8488
G1 X106.0666 Y66.8493
G3 X106.0264 Y66.8782 I-0.6604 J-0.8797
G1 X105.6158 Y67.1585
G3 X105.5741 Y67.1855 I-0.6202 J-0.9085
G1 X105.1512 Y67.447
G3 X105.1083 Y67.4723 I-0.5785 J-0.9356
G1 X104.674 Y67.7144
G3 X104.63 Y67.7376 I-0.5356 J-0.9608
G1 X104.1853 Y67.9598
G3 X104.1401 Y67.9811 I-0.4917 J-0.984
G1 X103.6857 Y68.1829
G3 X103.6402 Y68.2019 I-0.4465 J-1.0053
G1 X103.1772 Y68.3831
G3 X103.1303 Y68.4002 I-0.4009 J-1.0243
G1 X102.6596 Y68.5602
G3 X102.6122 Y68.5752 I-0.354 J-1.0415
G1 X102.1347 Y68.7138
G3 X102.0867 Y68.7265 I-0.3066 J-1.0564
G1 X101.6034 Y68.8434
G3 X101.5548 Y68.854 I-0.2586 J-1.0692
G1 X101.0668 Y68.9489
G3 X101.0179 Y68.9573 I-0.21 J-1.0798
G1 X100.5261 Y69.0301
G3 X100.4767 Y69.0363 I-0.1611 J-1.0881
G1 X99.982 Y69.0868
G3 X99.9325 Y69.0907 I-0.1117 J-1.0943
G1 X99.4362 Y69.1188
G3 X99.3864 Y69.1205 I-0.0622 J-1.0982
G1 X98.8892 Y69.1261
G3 X98.8768 Y69.1262 I-0.0124 J-1.0999
G1 X10.8768
G3 X10.8394 Y69.1255 I0.0 J-1.1
G1 X10.3425 Y69.1086
G3 X10.2931 Y69.1058 I0.0374 J-1.0994
G1 X9.7975 Y69.0666
G3 X9.7477 Y69.0616 I0.0867 J-1.0966
G1 X9.2544 Y68.9999
G3 X9.2053 Y68.9926 I0.1365 J-1.0915
G1 X8.7152 Y68.9087
G3 X8.6665 Y68.8992 I0.1856 J-1.0842
G1 X8.1807 Y68.7933
G3 X8.1323 Y68.7816 I0.2343 J-1.0748
G1 X7.6518 Y68.6538
G3 X7.6042 Y68.64 I0.2828 J-1.063
G1 X7.13 Y68.4907
G3 X7.0827 Y68.4746 I0.3303 J-1.0492
G1 X6.6157 Y68.3039
G3 X6.5696 Y68.2859 I0.3776 J-1.0331
G1 X6.1108 Y68.0944
G3 X6.0653 Y68.0741 I0.4237 J-1.0151
G1 X5.6156 Y67.862
G3 X5.5711 Y67.8398 I0.4693 J-0.9949
G1 X5.1315 Y67.6076
G3 X5.088 Y67.5834 I0.5138 J-0.9726
G1 X4.6593 Y67.3315
G3 X4.6172 Y67.3054 I0.5573 J-0.9484
G1 X4.2003 Y67.0345
G3 X4.1592 Y67.0064 I0.5994 J-0.9224
G1 X3.755 Y66.7169
G3 X3.7152 Y66.687 I0.6405 J-0.8943
G1 X3.3245 Y66.3795
G3 X3.2861 Y66.348 I0.6803 J-0.8644
G1 X2.9097 Y66.0232
G3 X2.8729 Y65.9899 I0.7186 J-0.8328
G1 X2.5115 Y65.6484
G3 X2.4761 Y65.6134 I0.7555 J-0.7995
G1 X2.1305 Y65.2559
G3 X2.0967 Y65.2193 I0.7909 J-0.7645
G1 X1.7677 Y64.8466
G3 X1.7357 Y64.8087 I0.8247 J-0.728
G1 X1.4238 Y64.4215
G3 X1.3934 Y64.382 I0.8566 J-0.69
G1 X1.0994 Y63.9811
G3 X1.0711 Y63.9405 I0.887 J-0.6505
G1 X0.7954 Y63.5267
G3 X0.7686 Y63.4845 I0.9154 J-0.6099
G1 X0.512 Y63.0587
G3 X0.4874 Y63.0157 I0.9421 J-0.5678
G1 X0.2502 Y62.5787
G3 X0.2275 Y62.5344 I0.9668 J-0.5248
G1 X0.0103 Y62.0871
G3 X-0.0105 Y62.0419 I0.9895 J-0.4805
G1 X-0.2072 Y61.5853
G3 X-0.2258 Y61.5393 I1.0102 J-0.4352
G1 X-0.4017 Y61.0743
G3 X-0.4182 Y61.0273 I1.0288 J-0.3892
G1 X-0.5729 Y60.5548
G3 X-0.5873 Y60.5073 I1.0454 J-0.3423
G1 X-0.7205 Y60.0283
G3 X-0.7328 Y59.98 I1.0598 J-0.2947
G1 X-0.8442 Y59.4954
G3 X-0.8542 Y59.4468 I1.072 J-0.2464
G1 X-0.9436 Y58.9578
G3 X-0.9514 Y58.9086 I1.0821 J-0.1978
G1 X-1.0186 Y58.4159
G3 X-1.0242 Y58.3666 I1.0899 J-0.1487
G1 X-1.0691 Y57.8715
G3 X-1.0725 Y57.8219 I1.0955 J-0.0993
G1 X-1.095 Y57.3252
G3 X-1.0961 Y57.2755 I1.0989 J-0.0498
G1 Y10.7783
G3 X-1.095 Y10.7285 I1.1 J0.0
G1 F200.0 Z-5.0
G1 F400.0 X-1.0725 Y10.2318
G3 X-1.0691 Y10.1823 I1.0989 J0.0498
G1 X-1.0242 Y9.6871
G3 X-1.0186 Y9.6378 I1.0955 J0.0993
G1 X-0.9514 Y9.1451
G3 X-0.9436 Y9.096 I1.0899 J0.1487
G1 X-0.8542 Y8.6069
G3 X-0.8442 Y8.5583 I1.0821 J0.1978
G1 X-0.7328 Y8.0737
G3 X-0.7205 Y8.0255 I1.072 J0.2465
G1 X-0.5873 Y7.5465
G3 X-0.5729 Y7.4989 I1.0598 J0.2947
G1 X-0.4182 Y7.0264
G3 X-0.4017 Y6.9795 I1.0454 J0.3423
G1 X-0.2258 Y6.5145
G3 X-0.2072 Y6.4685 I1.0288 J0.3892
G1 X-0.0105 Y6.0119
G3 X0.0103 Y5.9666 I1.0102 J0.4352
G1 X0.2275 Y5.5193
G3 X0.2502 Y5.475 I0.9895 J0.4805
G1 X0.4874 Y5.038
G3 X0.512 Y4.995 I0.9668 J0.5248
G1 X0.7686 Y4.5692
G3 X0.7954 Y4.527 I0.9421 J0.5678
G1 X1.0711 Y4.1132
G3 X1.0994 Y4.0727 I0.9154 J0.6099
G1 X1.3934 Y3.6718
G3 X1.4238 Y3.6322 I0.887 J0.6505
G1 X1.7357 Y3.245
G3 X1.7677 Y3.2071 I0.8566 J0.69
G1 X2.0967 Y2.8344
G3 X2.1305 Y2.7978 I0.8247 J0.728
G1 X2.4761 Y2.4403
G3 X2.5115 Y2.4053 I0.7909 J0.7645
G1 X2.8729 Y2.0638
G3 X2.9097 Y2.0306 I0.7555 J0.7995
G1 X3.2861 Y1.7058
G3 X3.3245 Y1.6742 I0.7186 J0.8328
G1 X3.7152 Y1.3667
G3 X3.755 Y1.3368 I0.6803 J0.8644
G1 X4.1592 Y1.0473
G3 X4.2003 Y1.0192 I0.6405 J0.8943
G1 X4.6172 Y0.7483
G3 X4.6593 Y0.7223 I0.5994 J0.9224
G1 X5.088 Y0.4704
G3 X5.1315 Y0.4461 I0.5573 J0.9484
G1 X5.5711 Y0.2139
G3 X5.6156 Y0.1917 I0.5138 J0.9726
G1 X6.0653 Y-0.0204
G3 X6.1108 Y-0.0407 I0.4693 J0.9949
G1 X6.5696 Y-0.2322
G3 X6.6157 Y-0.2502 I0.4237 J1.0151
G1 X7.0827 Y-0.4209
G3 X7.13 Y-0.437 I0.3776 J1.0331
G1 X7.6042 Y-0.5863
G3 X7.6518 Y-0.6001 I0.3303 J1.0492
G1 X8.1323 Y-0.7279
G3 X8.1807 Y-0.7396 I0.2828 J1.063
G1 X8.6665 Y-0.8455
G3 X8.7152 Y-0.855 I0.2343 J1.0748
G1 X9.2053 Y-0.9389
G3 X9.2544 Y-0.9461 I0.1856 J1.0842
G1 X9.7477 Y-1.0078
G3 X9.7975 Y-1.0129 I0.1365 J1.0915
G1 X10.2931 Y-1.0521
G3 X10.3425 Y-1.0549 I0.0867 J1.0966
G1 X10.8394 Y-1.0718
G3 X10.8768 Y-1.0724 I0.0374 J1.0994
G1 X98.8768
G3 X98.8892 I0.0 J1.1
G1 X99.3864 Y-1.0668
G3 X99.4362 Y-1.0651 I-0.0124 J1.0999
G1 X99.9325 Y-1.037
G3 X99.982 Y-1.0331 I-0.0622 J1.0982
G1 X100.4767 Y-0.9826
G3 X100.5261 Y-0.9764 I-0.1117 J1.0943
G1 X101.0179 Y-0.9036
G3 X101.0668 Y-0.8952 I-0.1611 J1.0881
G1 X101.5548 Y-0.8003
G3 X101.6034 Y-0.7897 I-0.21 J1.0798
G1 X102.0867 Y-0.6728
G3 X102.1347 Y-0.66 I-0.2586 J1.0692
G1 X102.6122 Y-0.5214
G3 X102.6596 Y-0.5065 I-0.3066 J1.0564
G1 X103.1303 Y-0.3465
G3 X103.1772 Y-0.3294 I-0.354 J1.0415
G1 X103.6402 Y-0.1482
G3 X103.6857 Y-0.1292 I-0.4009 J1.0243
G1 X104.1401 Y0.0726
G3 X104.1853 Y0.094 I-0.4465 J1.0053
G1 X104.63 Y0.3162
G3 X104.674 Y0.3394 I-0.4917 J0.984
G1 X105.1083 Y0.5815
G3 X105.1512 Y0.6067 I-0.5356 J0.9608
G1 X105.5741 Y0.8682
G3 X105.6158 Y0.8953 I-0.5785 J0.9356
G1 X106.0264 Y1.1756
G3 X106.0666 Y1.2044 I-0.6202 J0.9085
G1 X106.4642 Y1.5029
G3 X106.5035 Y1.5338 I-0.6604 J0.8797
G1 X106.8872 Y1.8501
G3 X106.9247 Y1.8824 I-0.6997 J0.8488
G1 X107.2937 Y2.2156
G3 X107.33 Y2.2499 I-0.7372 J0.8164
G1 X107.6835 Y2.5995
G3 X107.7179 Y2.6352 I-0.7735 J0.7821
G1 X108.0553 Y3.0004
G3 X108.0882 Y3.0377 I-0.808 J0.7465
G1 X108.4087 Y3.4177
G3 X108.4399 Y3.4564 I-0.8409 J0.7092
G1 X108.743 Y3.8506
G3 X108.7725 Y3.8908 I-0.872 J0.6705
G1 X109.0574 Y4.2983
G3 X109.0849 Y4.3396 I-0.9015 J0.6303
G1 X109.3511 Y4.7595
G3 X109.3767 Y4.802 I-0.929 J0.589
G1 X109.6237 Y5.2335
G3 X109.6475 Y5.2773 I-0.9547 J0.5465
G1 X109.8747 Y5.7195
G3 X109.8964 Y5.7642 I-0.9784 J0.5027
G1 X110.1034 Y6.2163
G3 X110.123 Y6.2618 I-1.0001 J0.4579
G1 X110.3094 Y6.7227
G3 X110.3271 Y6.7694 I-1.0198 J0.4124
G1 X110.4924 Y7.2383
G3 X110.5078 Y7.2854 I-1.0374 J0.3657
G1 X110.6518 Y7.7613
G3 X110.6652 Y7.8093 I-1.0529 J0.3186
G1 X110.7875 Y8.2912
G3 X110.7986 Y8.3395 I-1.0662 J0.2706
G1 X110.8991 Y8.8264
G3 X110.908 Y8.8755 I-1.0773 J0.2223
G1 X110.9863 Y9.3665
G3 X110.9931 Y9.4156 I-1.0863 J0.1732
G1 X111.0492 Y9.9096
G3 X111.0536 Y9.9592 I-1.093 J0.1241
G1 X111.0873 Y10.4552
G3 X111.0896 Y10.505 I-1.0975 J0.0746
G1 X111.1008 Y11.0021
G3 X111.1011 Y11.0269 I-1.0997 J0.0248
G1 Y57.0269
G3 X111.1008 Y57.0516 I-1.1 J0.0
G1 X111.0896 Y57.5487
G3 X111.0873 Y57.5985 I-1.0997 J-0.0248
G1 X111.0536 Y58.0945
G3 X111.0492 Y58.1441 I-1.0975 J-0.0746
G1 X110.9931 Y58.6381
G3 X110.9864 Y58.6872 I-1.093 J-0.1241
G1 X110.9081 Y59.1782
G3 X110.8991 Y59.2273 I-1.0863 J-0.1732
G1 X110.7986 Y59.7142
G3 X110.7875 Y59.7624 I-1.0773 J-0.2224
G1 X110.6652 Y60.2443
G3 X110.6518 Y60.2923 I-1.0662 J-0.2706
G1 X110.5078 Y60.7682
G3 X110.4924 Y60.8154 I-1.0529 J-0.3186
G1 X110.3271 Y61.2843
G3 X110.3094 Y61.331 I-1.0374 J-0.3657
G1 X110.123 Y61.7919
G3 X110.1034 Y61.8374 I-1.0198 J-0.4124
G1 X109.8964 Y62.2895
G3 X109.8747 Y62.3343 I-1.0001 J-0.4579
G1 X109.6475 Y62.7765
G3 X109.6237 Y62.8202 I-0.9784 J-0.5027
G1 X109.3767 Y63.2517
G3 X109.3511 Y63.2942 I-0.9547 J-0.5465
G1 X109.0849 Y63.7141
G3 X109.0574 Y63.7554 I-0.929 J-0.589
G1 X108.7725 Y64.1629
G3 X108.743 Y64.2032 I-0.9015 J-0.6303
G1 X108.4399 Y64.5974
G3 X108.4087 Y64.6361 I-0.872 J-0.6705
G1 X108.0882 Y65.0161
G3 X108.0553 Y65.0533 I-0.8409 J-0.7092
G1 X107.7179 Y65.4185
G3 X107.6835 Y65.4542 I-0.808 J-0.7465
G1 X107.33 Y65.8038
G3 X107.2937 Y65.8381 I-0.7735 J-0.7821
G1 X106.9247 Y66.1713
G3 X106.8872 Y66.2036 I-0.7372 J-0.8164
G1 X106.5035 Y66.5199
G3 X106.4642 Y66.5508 I-0.6997 J-0.8488
G1 X106.0666 Y66.8493
G3 X106.0264 Y66.8782 I-0.6604 J-0.8797
G1 X105.6158 Y67.1585
G3 X105.5741 Y67.1855 I-0.6202 J-0.9085
G1 X105.1512 Y67.447
G3 X105.1083 Y67.4723 I-0.5785 J-0.9356
G1 X104.674 Y67.7144
G3 X104.63 Y67.7376 I-0.5356 J-0.9608
G1 X104.1853 Y67.9598
G3 X104.1401 Y67.9811 I-0.4917 J-0.984
G1 X103.6857 Y68.1829
G3 X103.6402 Y68.2019 I-0.4465 J-1.0053
G1 X103.1772 Y68.3831
G3 X103.1303 Y68.4002 I-0.4009 J-1.0243
G1 X102.6596 Y68.5602
G3 X102.6122 Y68.5752 I-0.354 J-1.0415
G1 X102.1347 Y68.7138
G3 X102.0867 Y68.7265 I-0.3066 J-1.0564
G1 X101.6034 Y68.8434
G3 X101.5548 Y68.854 I-0.2586 J-1.0692
G1 X101.0668 Y68.9489
G3 X101.0179 Y68.9573 I-0.21 J-1.0798
G1 X100.5261 Y69.0301
G3 X100.4767 Y69.0363 I-0.1611 J-1.0881
G1 X99.982 Y69.0868
G3 X99.9325 Y69.0907 I-0.1117 J-1.0943
G1 X99.4362 Y69.1188
G3 X99.3864 Y69.1205 I-0.0622 J-1.0982
G1 X98.8892 Y69.1261
G3 X98.8768 Y69.1262 I-0.0124 J-1.0999
G1 X10.8768
G3 X10.8394 Y69.1255 I0.0 J-1.1
G1 X10.3425 Y69.1086
G3 X10.2931 Y69.1058 I0.0374 J-1.0994
G1 X9.7975 Y69.0666
G3 X9.7477 Y69.0616 I0.0867 J-1.0966
G1 X9.2544 Y68.9999
G3 X9.2053 Y68.9926 I0.1365 J-1.0915
G1 X8.7152 Y68.9087
G3 X8.6665 Y68.8992 I0.1856 J-1.0842
G1 X8.1807 Y68.7933
G3 X8.1323 Y68.7816 I0.2343 J-1.0748
G1 X7.6518 Y68.6538
G3 X7.6042 Y68.64 I0.2828 J-1.063
G1 X7.13 Y68.4907
G3 X7.0827 Y68.4746 I0.3303 J-1.0492
G1 X6.6157 Y68.3039
G3 X6.5696 Y68.2859 I0.3776 J-1.0331
G1 X6.1108 Y68.0944
G3 X6.0653 Y68.0741 I0.4237 J-1.0151
G1 X5.6156 Y67.862
G3 X5.5711 Y67.8398 I0.4693 J-0.9949
G1 X5.1315 Y67.6076
G3 X5.088 Y67.5834 I0.5138 J-0.9726
G1 X4.6593 Y67.3315
G3 X4.6172 Y67.3054 I0.5573 J-0.9484
G1 X4.2003 Y67.0345
G3 X4.1592 Y67.0064 I0.5994 J-0.9224
G1 X3.755 Y66.7169
G3 X3.7152 Y66.687 I0.6405 J-0.8943
G1 X3.3245 Y66.3795
G3 X3.2861 Y66.348 I0.6803 J-0.8644
G1 X2.9097 Y66.0232
G3 X2.8729 Y65.9899 I0.7186 J-0.8328
G1 X2.5115 Y65.6484
G3 X2.4761 Y65.6134 I0.7555 J-0.7995
G1 X2.1305 Y65.2559
G3 X2.0967 Y65.2193 I0.7909 J-0.7645
G1 X1.7677 Y64.8466
G3 X1.7357 Y64.8087 I0.8247 J-0.728
G1 X1.4238 Y64.4215
G3 X1.3934 Y64.382 I0.8566 J-0.69
G1 X1.0994 Y63.9811
G3 X1.0711 Y63.9405 I0.887 J-0.6505
G1 X0.7954 Y63.5267
G3 X0.7686 Y63.4845 I0.9154 J-0.6099
G1 X0.512 Y63.0587
G3 X0.4874 Y63.0157 I0.9421 J-0.5678
G1 X0.2502 Y62.5787
G3 X0.2275 Y62.5344 I0.9668 J-0.5248
G1 X0.0103 Y62.0871
G3 X-0.0105 Y62.0419 I0.9895 J-0.4805
G1 X-0.2072 Y61.5853
G3 X-0.2258 Y61.5393 I1.0102 J-0.4352
G1 X-0.4017 Y61.0743
G3 X-0.4182 Y61.0273 I1.0288 J-0.3892
G1 X-0.5729 Y60.5548
G3 X-0.5873 Y60.5073 I1.0454 J-0.3423
G1 X-0.7205 Y60.0283
G3 X-0.7328 Y59.98 I1.0598 J-0.2947
G1 X-0.8442 Y59.4954
G3 X-0.8542 Y59.4468 I1.072 J-0.2464
G1 X-0.9436 Y58.9578
G3 X-0.9514 Y58.9086 I1.0821 J-0.1978
G1 X-1.0186 Y58.4159
G3 X-1.0242 Y58.3666 I1.0899 J-0.1487
G1 X-1.0691 Y57.8715
G3 X-1.0725 Y57.8219 I1.0955 J-0.0993
G1 X-1.095 Y57.3252
G3 X-1.0961 Y57.2755 I1.0989 J-0.0498
G1 Y10.7783
G3 X-1.095 Y10.7285 I1.1 J0.0
G1 F200.0 Z-5.5
G1 F400.0 X-1.0725 Y10.2318
G3 X-1.0691 Y10.1823 I1.0989 J0.0498
G1 X-1.0242 Y9.6871
G3 X-1.0186 Y9.6378 I1.0955 J0.0993
G1 X-0.9514 Y9.1451
G3 X-0.9436 Y9.096 I1.0899 J0.1487
G1 X-0.8542 Y8.6069
G3 X-0.8442 Y8.5583 I1.0821 J0.1978
G1 X-0.7328 Y8.0737
G3 X-0.7205 Y8.0255 I1.072 J0.2465
G1 X-0.5873 Y7.5465
G3 X-0.5729 Y7.4989 I1.0598 J0.2947
G1 X-0.4182 Y7.0264
G3 X-0.4017 Y6.9795 I1.0454 J0.3423
G1 X-0.2258 Y6.5145
G3 X-0.2072 Y6.4685 I1.0288 J0.3892
G1 X-0.0105 Y6.0119
G3 X0.0103 Y5.9666 I1.0102 J0.4352
G1 X0.2275 Y5.5193
G3 X0.2502 Y5.475 I0.9895 J0.4805
G1 X0.4874 Y5.038
G3 X0.512 Y4.995 I0.9668 J0.5248
G1 X0.7686 Y4.5692
G3 X0.7954 Y4.527 I0.9421 J0.5678
G1 X1.0711 Y4.1132
G3 X1.0994 Y4.0727 I0.9154 J0.6099
G1 X1.3934 Y3.6718
G3 X1.4238 Y3.6322 I0.887 J0.6505
G1 X1.7357 Y3.245
G3 X1.7677 Y3.2071 I0.8566 J0.69
G1 X2.0967 Y2.8344
G3 X2.1305 Y2.7978 I0.8247 J0.728
G1 X2.4761 Y2.4403
G3 X2.5115 Y2.4053 I0.7909 J0.7645
G1 X2.8729 Y2.0638
G3 X2.9097 Y2.0306 I0.7555 J0.7995
G1 X3.2861 Y1.7058
G3 X3.3245 Y1.6742 I0.7186 J0.8328
G1 X3.7152 Y1.3667
G3 X3.755 Y1.3368 I0.6803 J0.8644
G1 X4.1592 Y1.0473
G3 X4.2003 Y1.0192 I0.6405 J0.8943
G1 X4.6172 Y0.7483
G3 X4.6593 Y0.7223 I0.5994 J0.9224
G1 X5.088 Y0.4704
G3 X5.1315 Y0.4461 I0.5573 J0.9484
G1 X5.5711 Y0.2139
G3 X5.6156 Y0.1917 I0.5138 J0.9726
G1 X6.0653 Y-0.0204
G3 X6.1108 Y-0.0407 I0.4693 J0.9949
G1 X6.5696 Y-0.2322
G3 X6.6157 Y-0.2502 I0.4237 J1.0151
G1 X7.0827 Y-0.4209
G3 X7.13 Y-0.437 I0.3776 J1.0331
G1 X7.6042 Y-0.5863
G3 X7.6518 Y-0.6001 I0.3303 J1.0492
G1 X8.1323 Y-0.7279
G3 X8.1807 Y-0.7396 I0.2828 J1.063
G1 X8.6665 Y-0.8455
G3 X8.7152 Y-0.855 I0.2343 J1.0748
G1 X9.2053 Y-0.9389
G3 X9.2544 Y-0.9461 I0.1856 J1.0842
G1 X9.7477 Y-1.0078
G3 X9.7975 Y-1.0129 I0.1365 J1.0915
G1 X10.2931 Y-1.0521
G3 X10.3425 Y-1.0549 I0.0867 J1.0966
G1 X10.8394 Y-1.0718
G3 X10.8768 Y-1.0724 I0.0374 J1.0994
G1 X98.8768
G3 X98.8892 I0.0 J1.1
G1 X99.3864 Y-1.0668
G3 X99.4362 Y-1.0651 I-0.0124 J1.0999
G1 X99.9325 Y-1.037
G3 X99.982 Y-1.0331 I-0.0622 J1.0982
G1 X100.4767 Y-0.9826
G3 X100.5261 Y-0.9764 I-0.1117 J1.0943
G1 X101.0179 Y-0.9036
G3 X101.0668 Y-0.8952 I-0.1611 J1.0881
G1 X101.5548 Y-0.8003
G3 X101.6034 Y-0.7897 I-0.21 J1.0798
G1 X102.0867 Y-0.6728
G3 X102.1347 Y-0.66 I-0.2586 J1.0692
G1 X102.6122 Y-0.5214
G3 X102.6596 Y-0.5065 I-0.3066 J1.0564
G1 X103.1303 Y-0.3465
G3 X103.1772 Y-0.3294 I-0.354 J1.0415
G1 X103.6402 Y-0.1482
G3 X103.6857 Y-0.1292 I-0.4009 J1.0243
G1 X104.1401 Y0.0726
G3 X104.1853 Y0.094 I-0.4465 J1.0053
G1 X104.63 Y0.3162
G3 X104.674 Y0.3394 I-0.4917 J0.984
G1 X105.1083 Y0.5815
G3 X105.1512 Y0.6067 I-0.5356 J0.9608
G1 X105.5741 Y0.8682
G3 X105.6158 Y0.8953 I-0.5785 J0.9356
G1 X106.0264 Y1.1756
G3 X106.0666 Y1.2044 I-0.6202 J0.9085
G1 X106.4642 Y1.5029
G3 X106.5035 Y1.5338 I-0.6604 J0.8797
G1 X106.8872 Y1.8501
G3 X106.9247 Y1.8824 I-0.6997 J0.8488
G1 X107.2937 Y2.2156
G3 X107.33 Y2.2499 I-0.7372 J0.8164
G1 X107.6835 Y2.5995
G3 X107.7179 Y2.6352 I-0.7735 J0.7821
G1 X108.0553 Y3.0004
G3 X108.0882 Y3.0377 I-0.808 J0.7465
G1 X108.4087 Y3.4177
G3 X108.4399 Y3.4564 I-0.8409 J0.7092
G1 X108.743 Y3.8506
G3 X108.7725 Y3.8908 I-0.872 J0.6705
G1 X109.0574 Y4.2983
G3 X109.0849 Y4.3396 I-0.9015 J0.6303
G1 X109.3511 Y4.7595
G3 X109.3767 Y4.802 I-0.929 J0.589
G1 X109.6237 Y5.2335
G3 X109.6475 Y5.2773 I-0.9547 J0.5465
G1 X109.8747 Y5.7195
G3 X109.8964 Y5.7642 I-0.9784 J0.5027
G1 X110.1034 Y6.2163
G3 X110.123 Y6.2618 I-1.0001 J0.4579
G1 X110.3094 Y6.7227
G3 X110.3271 Y6.7694 I-1.0198 J0.4124
G1 X110.4924 Y7.2383
G3 X110.5078 Y7.2854 I-1.0374 J0.3657
G1 X110.6518 Y7.7613
G3 X110.6652 Y7.8093 I-1.0529 J0.3186
G1 X110.7875 Y8.2912
G3 X110.7986 Y8.3395 I-1.0662 J0.2706
G1 X110.8991 Y8.8264
G3 X110.908 Y8.8755 I-1.0773 J0.2223
G1 X110.9863 Y9.3665
G3 X110.9931 Y9.4156 I-1.0863 J0.1732
G1 X111.0492 Y9.9096
G3 X111.0536 Y9.9592 I-1.093 J0.1241
G1 X111.0873 Y10.4552
G3 X111.0896 Y10.505 I-1.0975 J0.0746
G1 X111.1008 Y11.0021
G3 X111.1011 Y11.0269 I-1.0997 J0.0248
G1 Y57.0269
G3 X111.1008 Y57.0516 I-1.1 J0.0
G1 X111.0896 Y57.5487
G3 X111.0873 Y57.5985 I-1.0997 J-0.0248
G1 X111.0536 Y58.0945
G3 X111.0492 Y58.1441 I-1.0975 J-0.0746
G1 X110.9931 Y58.6381
G3 X110.9864 Y58.6872 I-1.093 J-0.1241
G1 X110.9081 Y59.1782
G3 X110.8991 Y59.2273 I-1.0863 J-0.1732
G1 X110.7986 Y59.7142
G3 X110.7875 Y59.7624 I-1.0773 J-0.2224
G1 X110.6652 Y60.2443
G3 X110.6518 Y60.2923 I-1.0662 J-0.2706
G1 X110.5078 Y60.7682
G3 X110.4924 Y60.8154 I-1.0529 J-0.3186
G1 X110.3271 Y61.2843
G3 X110.3094 Y61.331 I-1.0374 J-0.3657
G1 X110.123 Y61.7919
G3 X110.1034 Y61.8374 I-1.0198 J-0.4124
G1 X109.8964 Y62.2895
G3 X109.8747 Y62.3343 I-1.0001 J-0.4579
G1 X109.6475 Y62.7765
G3 X109.6237 Y62.8202 I-0.9784 J-0.5027
G1 X109.3767 Y63.2517
G3 X109.3511 Y63.2942 I-0.9547 J-0.5465
G1 X109.0849 Y63.7141
G3 X109.0574 Y63.7554 I-0.929 J-0.589
G1 X108.7725 Y64.1629
G3 X108.743 Y64.2032 I-0.9015 J-0.6303
G1 X108.4399 Y64.5974
G3 X108.4087 Y64.6361 I-0.872 J-0.6705
G1 X108.0882 Y65.0161
G3 X108.0553 Y65.0533 I-0.8409 J-0.7092
G1 X107.7179 Y65.4185
G3 X107.6835 Y65.4542 I-0.808 J-0.7465
G1 X107.33 Y65.8038
G3 X107.2937 Y65.8381 I-0.7735 J-0.7821
G1 X106.9247 Y66.1713
G3 X106.8872 Y66.2036 I-0.7372 J-0.8164
G1 X106.5035 Y66.5199
G3 X106.4642 Y66.5508 I-0.6997 J-0.8488
G1 X106.0666 Y66.8493
G3 X106.0264 Y66.8782 I-0.6604 J-0.8797
G1 X105.6158 Y67.1585
G3 X105.5741 Y67.1855 I-0.6202 J-0.9085
G1 X105.1512 Y67.447
G3 X105.1083 Y67.4723 I-0.5785 J-0.9356
G1 X104.674 Y67.7144
G3 X104.63 Y67.7376 I-0.5356 J-0.9608
G1 X104.1853 Y67.9598
G3 X104.1401 Y67.9811 I-0.4917 J-0.984
G1 X103.6857 Y68.1829
G3 X103.6402 Y68.2019 I-0.4465 J-1.0053
G1 X103.1772 Y68.3831
G3 X103.1303 Y68.4002 I-0.4009 J-1.0243
G1 X102.6596 Y68.5602
G3 X102.6122 Y68.5752 I-0.354 J-1.0415
G1 X102.1347 Y68.7138
G3 X102.0867 Y68.7265 I-0.3066 J-1.0564
G1 X101.6034 Y68.8434
G3 X101.5548 Y68.854 I-0.2586 J-1.0692
G1 X101.0668 Y68.9489
G3 X101.0179 Y68.9573 I-0.21 J-1.0798
G1 X100.5261 Y69.0301
G3 X100.4767 Y69.0363 I-0.1611 J-1.0881
G1 X99.982 Y69.0868
G3 X99.9325 Y69.0907 I-0.1117 J-1.0943
G1 X99.4362 Y69.1188
G3 X99.3864 Y69.1205 I-0.0622 J-1.0982
G1 X98.8892 Y69.1261
G3 X98.8768 Y69.1262 I-0.0124 J-1.0999
G1 X10.8768
G3 X10.8394 Y69.1255 I0.0 J-1.1
G1 X10.3425 Y69.1086
G3 X10.2931 Y69.1058 I0.0374 J-1.0994
G1 X9.7975 Y69.0666
G3 X9.7477 Y69.0616 I0.0867 J-1.0966
G1 X9.2544 Y68.9999
G3 X9.2053 Y68.9926 I0.1365 J-1.0915
G1 X8.7152 Y68.9087
G3 X8.6665 Y68.8992 I0.1856 J-1.0842
G1 X8.1807 Y68.7933
G3 X8.1323 Y68.7816 I0.2343 J-1.0748
G1 X7.6518 Y68.6538
G3 X7.6042 Y68.64 I0.2828 J-1.063
G1 X7.13 Y68.4907
G3 X7.0827 Y68.4746 I0.3303 J-1.0492
G1 X6.6157 Y68.3039
G3 X6.5696 Y68.2859 I0.3776 J-1.0331
G1 X6.1108 Y68.0944
G3 X6.0653 Y68.0741 I0.4237 J-1.0151
G1 X5.6156 Y67.862
G3 X5.5711 Y67.8398 I0.4693 J-0.9949
G1 X5.1315 Y67.6076
G3 X5.088 Y67.5834 I0.5138 J-0.9726
G1 X4.6593 Y67.3315
G3 X4.6172 Y67.3054 I0.5573 J-0.9484
G1 X4.2003 Y67.0345
G3 X4.1592 Y67.0064 I0.5994 J-0.9224
G1 X3.755 Y66.7169
G3 X3.7152 Y66.687 I0.6405 J-0.8943
G1 X3.3245 Y66.3795
G3 X3.2861 Y66.348 I0.6803 J-0.8644
G1 X2.9097 Y66.0232
G3 X2.8729 Y65.9899 I0.7186 J-0.8328
G1 X2.5115 Y65.6484
G3 X2.4761 Y65.6134 I0.7555 J-0.7995
G1 X2.1305 Y65.2559
G3 X2.0967 Y65.2193 I0.7909 J-0.7645
G1 X1.7677 Y64.8466
G3 X1.7357 Y64.8087 I0.8247 J-0.728
G1 X1.4238 Y64.4215
G3 X1.3934 Y64.382 I0.8566 J-0.69
G1 X1.0994 Y63.9811
G3 X1.0711 Y63.9405 I0.887 J-0.6505
G1 X0.7954 Y63.5267
G3 X0.7686 Y63.4845 I0.9154 J-0.6099
G1 X0.512 Y63.0587
G3 X0.4874 Y63.0157 I0.9421 J-0.5678
G1 X0.2502 Y62.5787
G3 X0.2275 Y62.5344 I0.9668 J-0.5248
G1 X0.0103 Y62.0871
G3 X-0.0105 Y62.0419 I0.9895 J-0.4805
G1 X-0.2072 Y61.5853
G3 X-0.2258 Y61.5393 I1.0102 J-0.4352
G1 X-0.4017 Y61.0743
G3 X-0.4182 Y61.0273 I1.0288 J-0.3892
G1 X-0.5729 Y60.5548
G3 X-0.5873 Y60.5073 I1.0454 J-0.3423
G1 X-0.7205 Y60.0283
G3 X-0.7328 Y59.98 I1.0598 J-0.2947
G1 X-0.8442 Y59.4954
G3 X-0.8542 Y59.4468 I1.072 J-0.2464
G1 X-0.9436 Y58.9578
G3 X-0.9514 Y58.9086 I1.0821 J-0.1978
G1 X-1.0186 Y58.4159
G3 X-1.0242 Y58.3666 I1.0899 J-0.1487
G1 X-1.0691 Y57.8715
G3 X-1.0725 Y57.8219 I1.0955 J-0.0993
G1 X-1.095 Y57.3252
G3 X-1.0961 Y57.2755 I1.0989 J-0.0498
G1 Y10.7783
G3 X-1.095 Y10.7285 I1.1 J0.0
G1 F200.0 Z-6.0
G1 F400.0 X-1.0725 Y10.2318
G3 X-1.0691 Y10.1823 I1.0989 J0.0498
G1 X-1.0242 Y9.6871
G3 X-1.0186 Y9.6378 I1.0955 J0.0993
G1 X-0.9514 Y9.1451
G3 X-0.9436 Y9.096 I1.0899 J0.1487
G1 X-0.8542 Y8.6069
G3 X-0.8442 Y8.5583 I1.0821 J0.1978
G1 X-0.7328 Y8.0737
G3 X-0.7205 Y8.0255 I1.072 J0.2465
G1 X-0.5873 Y7.5465
G3 X-0.5729 Y7.4989 I1.0598 J0.2947
G1 X-0.4182 Y7.0264
G3 X-0.4017 Y6.9795 I1.0454 J0.3423
G1 X-0.2258 Y6.5145
G3 X-0.2072 Y6.4685 I1.0288 J0.3892
G1 X-0.0105 Y6.0119
G3 X0.0103 Y5.9666 I1.0102 J0.4352
G1 X0.2275 Y5.5193
G3 X0.2502 Y5.475 I0.9895 J0.4805
G1 X0.4874 Y5.038
G3 X0.512 Y4.995 I0.9668 J0.5248
G1 X0.7686 Y4.5692
G3 X0.7954 Y4.527 I0.9421 J0.5678
G1 X1.0711 Y4.1132
G3 X1.0994 Y4.0727 I0.9154 J0.6099
G1 X1.3934 Y3.6718
G3 X1.4238 Y3.6322 I0.887 J0.6505
G1 X1.7357 Y3.245
G3 X1.7677 Y3.2071 I0.8566 J0.69
G1 X2.0967 Y2.8344
G3 X2.1305 Y2.7978 I0.8247 J0.728
G1 X2.4761 Y2.4403
G3 X2.5115 Y2.4053 I0.7909 J0.7645
G1 X2.8729 Y2.0638
G3 X2.9097 Y2.0306 I0.7555 J0.7995
G1 X3.2861 Y1.7058
G3 X3.3245 Y1.6742 I0.7186 J0.8328
G1 X3.7152 Y1.3667
G3 X3.755 Y1.3368 I0.6803 J0.8644
G1 X4.1592 Y1.0473
G3 X4.2003 Y1.0192 I0.6405 J0.8943
G1 X4.6172 Y0.7483
G3 X4.6593 Y0.7223 I0.5994 J0.9224
G1 X5.088 Y0.4704
G3 X5.1315 Y0.4461 I0.5573 J0.9484
G1 X5.5711 Y0.2139
G3 X5.6156 Y0.1917 I0.5138 J0.9726
G1 X6.0653 Y-0.0204
G3 X6.1108 Y-0.0407 I0.4693 J0.9949
G1 X6.5696 Y-0.2322
G3 X6.6157 Y-0.2502 I0.4237 J1.0151
G1 X7.0827 Y-0.4209
G3 X7.13 Y-0.437 I0.3776 J1.0331
G1 X7.6042 Y-0.5863
G3 X7.6518 Y-0.6001 I0.3303 J1.0492
G1 X8.1323 Y-0.7279
G3 X8.1807 Y-0.7396 I0.2828 J1.063
G1 X8.6665 Y-0.8455
G3 X8.7152 Y-0.855 I0.2343 J1.0748
G1 X9.2053 Y-0.9389
G3 X9.2544 Y-0.9461 I0.1856 J1.0842
G1 X9.7477 Y-1.0078
G3 X9.7975 Y-1.0129 I0.1365 J1.0915
G1 X10.2931 Y-1.0521
G3 X10.3425 Y-1.0549 I0.0867 J1.0966
G1 X10.8394 Y-1.0718
G3 X10.8768 Y-1.0724 I0.0374 J1.0994
G1 X98.8768
G3 X98.8892 I0.0 J1.1
G1 X99.3864 Y-1.0668
G3 X99.4362 Y-1.0651 I-0.0124 J1.0999
G1 X99.9325 Y-1.037
G3 X99.982 Y-1.0331 I-0.0622 J1.0982
G1 X100.4767 Y-0.9826
G3 X100.5261 Y-0.9764 I-0.1117 J1.0943
G1 X101.0179 Y-0.9036
G3 X101.0668 Y-0.8952 I-0.1611 J1.0881
G1 X101.5548 Y-0.8003
G3 X101.6034 Y-0.7897 I-0.21 J1.0798
G1 X102.0867 Y-0.6728
G3 X102.1347 Y-0.66 I-0.2586 J1.0692
G1 X102.6122 Y-0.5214
G3 X102.6596 Y-0.5065 I-0.3066 J1.0564
G1 X103.1303 Y-0.3465
G3 X103.1772 Y-0.3294 I-0.354 J1.0415
G1 X103.6402 Y-0.1482
G3 X103.6857 Y-0.1292 I-0.4009 J1.0243
G1 X104.1401 Y0.0726
G3 X104.1853 Y0.094 I-0.4465 J1.0053
G1 X104.63 Y0.3162
G3 X104.674 Y0.3394 I-0.4917 J0.984
G1 X105.1083 Y0.5815
G3 X105.1512 Y0.6067 I-0.5356 J0.9608
G1 X105.5741 Y0.8682
G3 X105.6158 Y0.8953 I-0.5785 J0.9356
G1 X106.0264 Y1.1756
G3 X106.0666 Y1.2044 I-0.6202 J0.9085
G1 X106.4642 Y1.5029
G3 X106.5035 Y1.5338 I-0.6604 J0.8797
G1 X106.8872 Y1.8501
G3 X106.9247 Y1.8824 I-0.6997 J0.8488
G1 X107.2937 Y2.2156
G3 X107.33 Y2.2499 I-0.7372 J0.8164
G1 X107.6835 Y2.5995
G3 X107.7179 Y2.6352 I-0.7735 J0.7821
G1 X108.0553 Y3.0004
G3 X108.0882 Y3.0377 I-0.808 J0.7465
G1 X108.4087 Y3.4177
G3 X108.4399 Y3.4564 I-0.8409 J0.7092
G1 X108.743 Y3.8506
G3 X108.7725 Y3.8908 I-0.872 J0.6705
G1 X109.0574 Y4.2983
G3 X109.0849 Y4.3396 I-0.9015 J0.6303
G1 X109.3511 Y4.7595
G3 X109.3767 Y4.802 I-0.929 J0.589
G1 X109.6237 Y5.2335
G3 X109.6475 Y5.2773 I-0.9547 J0.5465
G1 X109.8747 Y5.7195
G3 X109.8964 Y5.7642 I-0.9784 J0.5027
G1 X110.1034 Y6.2163
G3 X110.123 Y6.2618 I-1.0001 J0.4579
G1 X110.3094 Y6.7227
G3 X110.3271 Y6.7694 I-1.0198 J0.4124
G1 X110.4924 Y7.2383
G3 X110.5078 Y7.2854 I-1.0374 J0.3657
G1 X110.6518 Y7.7613
G3 X110.6652 Y7.8093 I-1.0529 J0.3186
G1 X110.7875 Y8.2912
G3 X110.7986 Y8.3395 I-1.0662 J0.2706
G1 X110.8991 Y8.8264
G3 X110.908 Y8.8755 I-1.0773 J0.2223
G1 X110.9863 Y9.3665
G3 X110.9931 Y9.4156 I-1.0863 J0.1732
G1 X111.0492 Y9.9096
G3 X111.0536 Y9.9592 I-1.093 J0.1241
G1 X111.0873 Y10.4552
G3 X111.0896 Y10.505 I-1.0975 J0.0746
G1 X111.1008 Y11.0021
G3 X111.1011 Y11.0269 I-1.0997 J0.0248
G1 Y57.0269
G3 X111.1008 Y57.0516 I-1.1 J0.0
G1 X111.0896 Y57.5487
G3 X111.0873 Y57.5985 I-1.0997 J-0.0248
G1 X111.0536 Y58.0945
G3 X111.0492 Y58.1441 I-1.0975 J-0.0746
G1 X110.9931 Y58.6381
G3 X110.9864 Y58.6872 I-1.093 J-0.1241
G1 X110.9081 Y59.1782
G3 X110.8991 Y59.2273 I-1.0863 J-0.1732
G1 X110.7986 Y59.7142
G3 X110.7875 Y59.7624 I-1.0773 J-0.2224
G1 X110.6652 Y60.2443
G3 X110.6518 Y60.2923 I-1.0662 J-0.2706
G1 X110.5078 Y60.7682
G3 X110.4924 Y60.8154 I-1.0529 J-0.3186
G1 X110.3271 Y61.2843
G3 X110.3094 Y61.331 I-1.0374 J-0.3657
G1 X110.123 Y61.7919
G3 X110.1034 Y61.8374 I-1.0198 J-0.4124
G1 X109.8964 Y62.2895
G3 X109.8747 Y62.3343 I-1.0001 J-0.4579
G1 X109.6475 Y62.7765
G3 X109.6237 Y62.8202 I-0.9784 J-0.5027
G1 X109.3767 Y63.2517
G3 X109.3511 Y63.2942 I-0.9547 J-0.5465
G1 X109.0849 Y63.7141
G3 X109.0574 Y63.7554 I-0.929 J-0.589
G1 X108.7725 Y64.1629
G3 X108.743 Y64.2032 I-0.9015 J-0.6303
G1 X108.4399 Y64.5974
G3 X108.4087 Y64.6361 I-0.872 J-0.6705
G1 X108.0882 Y65.0161
G3 X108.0553 Y65.0533 I-0.8409 J-0.7092
G1 X107.7179 Y65.4185
G3 X107.6835 Y65.4542 I-0.808 J-0.7465
G1 X107.33 Y65.8038
G3 X107.2937 Y65.8381 I-0.7735 J-0.7821
G1 X106.9247 Y66.1713
G3 X106.8872 Y66.2036 I-0.7372 J-0.8164
G1 X106.5035 Y66.5199
G3 X106.4642 Y66.5508 I-0.6997 J-0.8488
G1 X106.0666 Y66.8493
G3 X106.0264 Y66.8782 I-0.6604 J-0.8797
G1 X105.6158 Y67.1585
G3 X105.5741 Y67.1855 I-0.6202 J-0.9085
G1 X105.1512 Y67.447
G3 X105.1083 Y67.4723 I-0.5785 J-0.9356
G1 X104.674 Y67.7144
G3 X104.63 Y67.7376 I-0.5356 J-0.9608
G1 X104.1853 Y67.9598
G3 X104.1401 Y67.9811 I-0.4917 J-0.984
G1 X103.6857 Y68.1829
G3 X103.6402 Y68.2019 I-0.4465 J-1.0053
G1 X103.1772 Y68.3831
G3 X103.1303 Y68.4002 I-0.4009 J-1.0243
G1 X102.6596 Y68.5602
G3 X102.6122 Y68.5752 I-0.354 J-1.0415
G1 X102.1347 Y68.7138
G3 X102.0867 Y68.7265 I-0.3066 J-1.0564
G1 X101.6034 Y68.8434
G3 X101.5548 Y68.854 I-0.2586 J-1.0692
G1 X101.0668 Y68.9489
G3 X101.0179 Y68.9573 I-0.21 J-1.0798
G1 X100.5261 Y69.0301
G3 X100.4767 Y69.0363 I-0.1611 J-1.0881
G1 X99.982 Y69.0868
G3 X99.9325 Y69.0907 I-0.1117 J-1.0943
G1 X99.4362 Y69.1188
G3 X99.3864 Y69.1205 I-0.0622 J-1.0982
G1 X98.8892 Y69.1261
G3 X98.8768 Y69.1262 I-0.0124 J-1.0999
G1 X10.8768
G3 X10.8394 Y69.1255 I0.0 J-1.1
G1 X10.3425 Y69.1086
G3 X10.2931 Y69.1058 I0.0374 J-1.0994
G1 X9.7975 Y69.0666
G3 X9.7477 Y69.0616 I0.0867 J-1.0966
