( Made using CamBam - http://www.cambam.co.uk )
( face_plate 3/13/2022 2:25:33 PM )
( Post processor: Default )
( T0 : 2.0 )
G21 G90
G0 Z3.0
( T0 : 2.0 )
( Chamfer )
G17
M3 S10000
G0 X89.9369 Y17.8411
G0 Z1.0
G1 F200.0 Z-0.4
G1 F300.0 X20.0653
G1 Y50.2126
G1 X89.9369
G1 Y17.8411
G1 F200.0 Y17.0411
G1 F300.0 X19.7511
G2 X19.2653 Y17.5269 I0.0 J0.4858
G1 Y50.5269
G2 X19.7511 Y51.0126 I0.4858 J0.0
G1 X90.2511
G2 X90.7369 Y50.5269 I0.0 J-0.4858
G1 Y17.5269
G2 X90.2511 Y17.0411 I-0.4858 J0.0
G1 X89.9369
G1 F200.0 Y16.2411
G1 F300.0 X19.7511
G2 X18.4653 Y17.5269 I0.0 J1.2858
G1 Y50.5269
G2 X19.7511 Y51.8126 I1.2858 J0.0
G1 X90.2511
G2 X91.5369 Y50.5269 I0.0 J-1.2858
G1 Y17.5269
G2 X90.2511 Y16.2411 I-1.2858 J0.0
G1 X89.9369
G1 F200.0 Y15.4411
G1 F300.0 X19.7511
G2 X17.6653 Y17.5269 I0.0 J2.0858
G1 Y50.5269
G2 X19.7511 Y52.6126 I2.0858 J0.0
G1 X90.2511
G2 X92.3369 Y50.5269 I0.0 J-2.0858
G1 Y17.5269
G2 X90.2511 Y15.4411 I-2.0858 J0.0
G1 X89.9369
G1 F200.0 Y14.6411
G1 F300.0 X19.7511
G2 X16.8653 Y17.5269 I0.0 J2.8858
G1 Y50.5269
G2 X19.7511 Y53.4126 I2.8858 J0.0
G1 X90.2511
G2 X93.1369 Y50.5269 I0.0 J-2.8858
G1 Y17.5269
G2 X90.2511 Y14.6411 I-2.8858 J0.0
G1 X89.9369
G1 F200.0 Y13.8411
G1 F300.0 X19.7511
G2 X16.0653 Y17.5269 I0.0 J3.6858
G1 Y50.5269
G2 X19.7511 Y54.2126 I3.6858 J0.0
G1 X90.2511
G2 X93.9369 Y50.5269 I0.0 J-3.6858
G1 Y17.5269
G2 X90.2511 Y13.8411 I-3.6858 J0.0
G1 X89.9369
G1 F200.0 Y13.0411
G1 F300.0 X19.7511
G2 X15.2653 Y17.5269 I0.0 J4.4858
G1 Y50.5269
G2 X19.7511 Y55.0126 I4.4858 J0.0
G1 X90.2511
G2 X94.7369 Y50.5269 I0.0 J-4.4858
G1 Y17.5269
G2 X90.2511 Y13.0411 I-4.4858 J0.0
G1 X89.9369
G1 F200.0 Y12.9411
G1 F300.0 X19.7511
G2 X15.1653 Y17.5269 I0.0 J4.5858
G1 Y50.5269
G2 X19.7511 Y55.1126 I4.5858 J0.0
G1 X90.2511
G2 X94.8369 Y50.5269 I0.0 J-4.5858
G1 Y17.5269
G2 X90.2511 Y12.9411 I-4.5858 J0.0
G1 X89.9369
G0 Z3.0
G0 Y17.8411
G0 Z0.6
G1 F200.0 Z-0.8
G1 F300.0 X20.0653
G1 Y50.2126
G1 X89.9369
G1 Y17.8411
G1 F200.0 Y17.0411
G1 F300.0 X19.7511
G2 X19.2653 Y17.5269 I0.0 J0.4858
G1 Y50.5269
G2 X19.7511 Y51.0126 I0.4858 J0.0
G1 X90.2511
G2 X90.7369 Y50.5269 I0.0 J-0.4858
G1 Y17.5269
G2 X90.2511 Y17.0411 I-0.4858 J0.0
G1 X89.9369
G1 F200.0 Y16.2411
G1 F300.0 X19.7511
G2 X18.4653 Y17.5269 I0.0 J1.2858
G1 Y50.5269
G2 X19.7511 Y51.8126 I1.2858 J0.0
G1 X90.2511
G2 X91.5369 Y50.5269 I0.0 J-1.2858
G1 Y17.5269
G2 X90.2511 Y16.2411 I-1.2858 J0.0
G1 X89.9369
G1 F200.0 Y15.4411
G1 F300.0 X19.7511
G2 X17.6653 Y17.5269 I0.0 J2.0858
G1 Y50.5269
G2 X19.7511 Y52.6126 I2.0858 J0.0
G1 X90.2511
G2 X92.3369 Y50.5269 I0.0 J-2.0858
G1 Y17.5269
G2 X90.2511 Y15.4411 I-2.0858 J0.0
G1 X89.9369
G1 F200.0 Y14.6411
G1 F300.0 X19.7511
G2 X16.8653 Y17.5269 I0.0 J2.8858
G1 Y50.5269
G2 X19.7511 Y53.4126 I2.8858 J0.0
G1 X90.2511
G2 X93.1369 Y50.5269 I0.0 J-2.8858
G1 Y17.5269
G2 X90.2511 Y14.6411 I-2.8858 J0.0
G1 X89.9369
G1 F200.0 Y13.8411
G1 F300.0 X19.7511
G2 X16.0653 Y17.5269 I0.0 J3.6858
G1 Y50.5269
G2 X19.7511 Y54.2126 I3.6858 J0.0
G1 X90.2511
G2 X93.9369 Y50.5269 I0.0 J-3.6858
G1 Y17.5269
G2 X90.2511 Y13.8411 I-3.6858 J0.0
G1 X89.9369
G1 F200.0 Y13.3411
G1 F300.0 X19.7511
G2 X15.5653 Y17.5269 I0.0 J4.1858
G1 Y50.5269
G2 X19.7511 Y54.7126 I4.1858 J0.0
G1 X90.2511
G2 X94.4369 Y50.5269 I0.0 J-4.1858
G1 Y17.5269
G2 X90.2511 Y13.3411 I-4.1858 J0.0
G1 X89.9369
G0 Z3.0
G0 Y17.8411
G0 Z0.2
G1 F200.0 Z-1.2
G1 F300.0 X20.0653
G1 Y50.2126
G1 X89.9369
G1 Y17.8411
G1 F200.0 Y17.0411
G1 F300.0 X19.7511
G2 X19.2653 Y17.5269 I0.0 J0.4858
G1 Y50.5269
G2 X19.7511 Y51.0126 I0.4858 J0.0
G1 X90.2511
G2 X90.7369 Y50.5269 I0.0 J-0.4858
G1 Y17.5269
G2 X90.2511 Y17.0411 I-0.4858 J0.0
G1 X89.9369
G1 F200.0 Y16.2411
G1 F300.0 X19.7511
G2 X18.4653 Y17.5269 I0.0 J1.2858
G1 Y50.5269
G2 X19.7511 Y51.8126 I1.2858 J0.0
G1 X90.2511
G2 X91.5369 Y50.5269 I0.0 J-1.2858
G1 Y17.5269
G2 X90.2511 Y16.2411 I-1.2858 J0.0
G1 X89.9369
G1 F200.0 Y15.4411
G1 F300.0 X19.7511
G2 X17.6653 Y17.5269 I0.0 J2.0858
G1 Y50.5269
G2 X19.7511 Y52.6126 I2.0858 J0.0
G1 X90.2511
G2 X92.3369 Y50.5269 I0.0 J-2.0858
G1 Y17.5269
G2 X90.2511 Y15.4411 I-2.0858 J0.0
G1 X89.9369
G1 F200.0 Y14.6411
G1 F300.0 X19.7511
G2 X16.8653 Y17.5269 I0.0 J2.8858
G1 Y50.5269
G2 X19.7511 Y53.4126 I2.8858 J0.0
G1 X90.2511
G2 X93.1369 Y50.5269 I0.0 J-2.8858
G1 Y17.5269
G2 X90.2511 Y14.6411 I-2.8858 J0.0
G1 X89.9369
G1 F200.0 Y13.8411
G1 F300.0 X19.7511
G2 X16.0653 Y17.5269 I0.0 J3.6858
G1 Y50.5269
G2 X19.7511 Y54.2126 I3.6858 J0.0
G1 X90.2511
G2 X93.9369 Y50.5269 I0.0 J-3.6858
G1 Y17.5269
G2 X90.2511 Y13.8411 I-3.6858 J0.0
G1 X89.9369
G1 F200.0 Y13.7411
G1 F300.0 X19.7511
G2 X15.9653 Y17.5269 I0.0 J3.7858
G1 Y50.5269
G2 X19.7511 Y54.3126 I3.7858 J0.0
G1 X90.2511
G2 X94.0369 Y50.5269 I0.0 J-3.7858
G1 Y17.5269
G2 X90.2511 Y13.7411 I-3.7858 J0.0
G1 X89.9369
G0 Z3.0
G0 Y17.8411
G0 Z-0.2
G1 F200.0 Z-1.6
G1 F300.0 X20.0653
G1 Y50.2126
G1 X89.9369
G1 Y17.8411
G1 F200.0 Y17.0411
G1 F300.0 X19.7511
G2 X19.2653 Y17.5269 I0.0 J0.4858
G1 Y50.5269
G2 X19.7511 Y51.0126 I0.4858 J0.0
G1 X90.2511
G2 X90.7369 Y50.5269 I0.0 J-0.4858
G1 Y17.5269
G2 X90.2511 Y17.0411 I-0.4858 J0.0
G1 X89.9369
G1 F200.0 Y16.2411
G1 F300.0 X19.7511
G2 X18.4653 Y17.5269 I0.0 J1.2858
G1 Y50.5269
G2 X19.7511 Y51.8126 I1.2858 J0.0
G1 X90.2511
G2 X91.5369 Y50.5269 I0.0 J-1.2858
G1 Y17.5269
G2 X90.2511 Y16.2411 I-1.2858 J0.0
G1 X89.9369
G1 F200.0 Y15.4411
G1 F300.0 X19.7511
G2 X17.6653 Y17.5269 I0.0 J2.0858
G1 Y50.5269
G2 X19.7511 Y52.6126 I2.0858 J0.0
G1 X90.2511
G2 X92.3369 Y50.5269 I0.0 J-2.0858
G1 Y17.5269
G2 X90.2511 Y15.4411 I-2.0858 J0.0
G1 X89.9369
G1 F200.0 Y14.6411
G1 F300.0 X19.7511
G2 X16.8653 Y17.5269 I0.0 J2.8858
G1 Y50.5269
G2 X19.7511 Y53.4126 I2.8858 J0.0
G1 X90.2511
G2 X93.1369 Y50.5269 I0.0 J-2.8858
G1 Y17.5269
G2 X90.2511 Y14.6411 I-2.8858 J0.0
G1 X89.9369
G1 F200.0 Y14.1411
G1 F300.0 X19.7511
G2 X16.3653 Y17.5269 I0.0 J3.3858
G1 Y50.5269
G2 X19.7511 Y53.9126 I3.3858 J0.0
G1 X90.2511
G2 X93.6369 Y50.5269 I0.0 J-3.3858
G1 Y17.5269
G2 X90.2511 Y14.1411 I-3.3858 J0.0
G1 X89.9369
G0 Z3.0
G0 Y17.8411
G0 Z-0.6
G1 F200.0 Z-2.0
G1 F300.0 X20.0653
G1 Y50.2126
G1 X89.9369
G1 Y17.8411
G1 F200.0 Y17.0411
G1 F300.0 X19.7511
G2 X19.2653 Y17.5269 I0.0 J0.4858
G1 Y50.5269
G2 X19.7511 Y51.0126 I0.4858 J0.0
G1 X90.2511
G2 X90.7369 Y50.5269 I0.0 J-0.4858
G1 Y17.5269
G2 X90.2511 Y17.0411 I-0.4858 J0.0
G1 X89.9369
G1 F200.0 Y16.2411
G1 F300.0 X19.7511
G2 X18.4653 Y17.5269 I0.0 J1.2858
G1 Y50.5269
G2 X19.7511 Y51.8126 I1.2858 J0.0
G1 X90.2511
G2 X91.5369 Y50.5269 I0.0 J-1.2858
G1 Y17.5269
G2 X90.2511 Y16.2411 I-1.2858 J0.0
G1 X89.9369
G1 F200.0 Y15.4411
G1 F300.0 X19.7511
G2 X17.6653 Y17.5269 I0.0 J2.0858
G1 Y50.5269
G2 X19.7511 Y52.6126 I2.0858 J0.0
G1 X90.2511
G2 X92.3369 Y50.5269 I0.0 J-2.0858
G1 Y17.5269
G2 X90.2511 Y15.4411 I-2.0858 J0.0
G1 X89.9369
G1 F200.0 Y14.6411
G1 F300.0 X19.7511
G2 X16.8653 Y17.5269 I0.0 J2.8858
G1 Y50.5269
G2 X19.7511 Y53.4126 I2.8858 J0.0
G1 X90.2511
G2 X93.1369 Y50.5269 I0.0 J-2.8858
G1 Y17.5269
G2 X90.2511 Y14.6411 I-2.8858 J0.0
G1 X89.9369
G1 F200.0 Y14.5411
G1 F300.0 X19.7511
G2 X16.7653 Y17.5269 I0.0 J2.9858
G1 Y50.5269
G2 X19.7511 Y53.5126 I2.9858 J0.0
G1 X90.2511
G2 X93.2369 Y50.5269 I0.0 J-2.9858
G1 Y17.5269
G2 X90.2511 Y14.5411 I-2.9858 J0.0
G1 X89.9369
G0 Z3.0
G0 Y17.8411
G0 Z-1.0
G1 F200.0 Z-2.4
G1 F300.0 X20.0653
G1 Y50.2126
G1 X89.9369
G1 Y17.8411
G1 F200.0 Y17.0411
G1 F300.0 X19.7511
G2 X19.2653 Y17.5269 I0.0 J0.4858
G1 Y50.5269
G2 X19.7511 Y51.0126 I0.4858 J0.0
G1 X90.2511
G2 X90.7369 Y50.5269 I0.0 J-0.4858
G1 Y17.5269
G2 X90.2511 Y17.0411 I-0.4858 J0.0
G1 X89.9369
G1 F200.0 Y16.2411
G1 F300.0 X19.7511
G2 X18.4653 Y17.5269 I0.0 J1.2858
G1 Y50.5269
G2 X19.7511 Y51.8126 I1.2858 J0.0
G1 X90.2511
G2 X91.5369 Y50.5269 I0.0 J-1.2858
G1 Y17.5269
G2 X90.2511 Y16.2411 I-1.2858 J0.0
G1 X89.9369
G1 F200.0 Y15.4411
G1 F300.0 X19.7511
G2 X17.6653 Y17.5269 I0.0 J2.0858
G1 Y50.5269
G2 X19.7511 Y52.6126 I2.0858 J0.0
G1 X90.2511
G2 X92.3369 Y50.5269 I0.0 J-2.0858
G1 Y17.5269
G2 X90.2511 Y15.4411 I-2.0858 J0.0
G1 X89.9369
G1 F200.0 Y14.9411
G1 F300.0 X19.7511
G2 X17.1653 Y17.5269 I0.0 J2.5858
G1 Y50.5269
G2 X19.7511 Y53.1126 I2.5858 J0.0
G1 X90.2511
G2 X92.8369 Y50.5269 I0.0 J-2.5858
G1 Y17.5269
G2 X90.2511 Y14.9411 I-2.5858 J0.0
G1 X89.9369
G0 Z3.0
G0 Y17.8411
G0 Z-1.4
G1 F200.0 Z-2.8
G1 F300.0 X20.0653
G1 Y50.2126
G1 X89.9369
G1 Y17.8411
G1 F200.0 Y17.0411
G1 F300.0 X19.7511
G2 X19.2653 Y17.5269 I0.0 J0.4858
G1 Y50.5269
G2 X19.7511 Y51.0126 I0.4858 J0.0
G1 X90.2511
G2 X90.7369 Y50.5269 I0.0 J-0.4858
G1 Y17.5269
G2 X90.2511 Y17.0411 I-0.4858 J0.0
G1 X89.9369
G1 F200.0 Y16.2411
G1 F300.0 X19.7511
G2 X18.4653 Y17.5269 I0.0 J1.2858
G1 Y50.5269
G2 X19.7511 Y51.8126 I1.2858 J0.0
G1 X90.2511
G2 X91.5369 Y50.5269 I0.0 J-1.2858
G1 Y17.5269
G2 X90.2511 Y16.2411 I-1.2858 J0.0
G1 X89.9369
G1 F200.0 Y15.4411
G1 F300.0 X19.7511
G2 X17.6653 Y17.5269 I0.0 J2.0858
G1 Y50.5269
G2 X19.7511 Y52.6126 I2.0858 J0.0
G1 X90.2511
G2 X92.3369 Y50.5269 I0.0 J-2.0858
G1 Y17.5269
G2 X90.2511 Y15.4411 I-2.0858 J0.0
G1 X89.9369
G1 F200.0 Y15.3411
G1 F300.0 X19.7511
G2 X17.5653 Y17.5269 I0.0 J2.1858
G1 Y50.5269
G2 X19.7511 Y52.7126 I2.1858 J0.0
G1 X90.2511
G2 X92.4369 Y50.5269 I0.0 J-2.1858
G1 Y17.5269
G2 X90.2511 Y15.3411 I-2.1858 J0.0
G1 X89.9369
G0 Z3.0
G0 Y17.8411
G0 Z-1.8
G1 F200.0 Z-3.2
G1 F300.0 X20.0653
G1 Y50.2126
G1 X89.9369
G1 Y17.8411
G1 F200.0 Y17.0411
G1 F300.0 X19.7511
G2 X19.2653 Y17.5269 I0.0 J0.4858
G1 Y50.5269
G2 X19.7511 Y51.0126 I0.4858 J0.0
G1 X90.2511
G2 X90.7369 Y50.5269 I0.0 J-0.4858
G1 Y17.5269
G2 X90.2511 Y17.0411 I-0.4858 J0.0
G1 X89.9369
G1 F200.0 Y16.2411
G1 F300.0 X19.7511
G2 X18.4653 Y17.5269 I0.0 J1.2858
G1 Y50.5269
G2 X19.7511 Y51.8126 I1.2858 J0.0
G1 X90.2511
G2 X91.5369 Y50.5269 I0.0 J-1.2858
G1 Y17.5269
G2 X90.2511 Y16.2411 I-1.2858 J0.0
G1 X89.9369
G1 F200.0 Y15.7411
G1 F300.0 X19.7511
G2 X17.9653 Y17.5269 I0.0 J1.7858
G1 Y50.5269
G2 X19.7511 Y52.3126 I1.7858 J0.0
G1 X90.2511
G2 X92.0369 Y50.5269 I0.0 J-1.7858
G1 Y17.5269
G2 X90.2511 Y15.7411 I-1.7858 J0.0
G1 X89.9369
G0 Z3.0
G0 Y17.8411
G0 Z-2.2
G1 F200.0 Z-3.6
G1 F300.0 X20.0653
G1 Y50.2126
G1 X89.9369
G1 Y17.8411
G1 F200.0 Y17.0411
G1 F300.0 X19.7511
G2 X19.2653 Y17.5269 I0.0 J0.4858
G1 Y50.5269
G2 X19.7511 Y51.0126 I0.4858 J0.0
G1 X90.2511
G2 X90.7369 Y50.5269 I0.0 J-0.4858
G1 Y17.5269
G2 X90.2511 Y17.0411 I-0.4858 J0.0
G1 X89.9369
G1 F200.0 Y16.2411
G1 F300.0 X19.7511
G2 X18.4653 Y17.5269 I0.0 J1.2858
G1 Y50.5269
G2 X19.7511 Y51.8126 I1.2858 J0.0
G1 X90.2511
G2 X91.5369 Y50.5269 I0.0 J-1.2858
G1 Y17.5269
G2 X90.2511 Y16.2411 I-1.2858 J0.0
G1 X89.9369
G1 F200.0 Y16.1411
G1 F300.0 X19.7511
G2 X18.3653 Y17.5269 I0.0 J1.3858
G1 Y50.5269
G2 X19.7511 Y51.9126 I1.3858 J0.0
G1 X90.2511
G2 X91.6369 Y50.5269 I0.0 J-1.3858
G1 Y17.5269
G2 X90.2511 Y16.1411 I-1.3858 J0.0
G1 X89.9369
G0 Z3.0
G0 Y17.8411
G0 Z-2.6
G1 F200.0 Z-4.0
G1 F300.0 X20.0653
G1 Y50.2126
G1 X89.9369
G1 Y17.8411
G1 F200.0 Y17.0411
G1 F300.0 X19.7511
G2 X19.2653 Y17.5269 I0.0 J0.4858
G1 Y50.5269
G2 X19.7511 Y51.0126 I0.4858 J0.0
G1 X90.2511
G2 X90.7369 Y50.5269 I0.0 J-0.4858
G1 Y17.5269
G2 X90.2511 Y17.0411 I-0.4858 J0.0
G1 X89.9369
G1 F200.0 Y16.5411
G1 F300.0 X19.7511
G2 X18.7653 Y17.5269 I0.0 J0.9858
G1 Y50.5269
G2 X19.7511 Y51.5126 I0.9858 J0.0
G1 X90.2511
G2 X91.2369 Y50.5269 I0.0 J-0.9858
G1 Y17.5269
G2 X90.2511 Y16.5411 I-0.9858 J0.0
G1 X89.9369
G1 F200.0 Y17.8411
G1 Z-4.4
G1 F300.0 X20.0653
G1 Y50.2126
G1 X89.9369
G1 Y17.8411
G1 F200.0 Y17.0411
G1 F300.0 X19.7511
G2 X19.2653 Y17.5269 I0.0 J0.4858
G1 Y50.5269
G2 X19.7511 Y51.0126 I0.4858 J0.0
G1 X90.2511
G2 X90.7369 Y50.5269 I0.0 J-0.4858
G1 Y17.5269
G2 X90.2511 Y17.0411 I-0.4858 J0.0
G1 X89.9369
G1 F200.0 Y16.9411
G1 F300.0 X19.7511
G2 X19.1653 Y17.5269 I0.0 J0.5858
G1 Y50.5269
G2 X19.7511 Y51.1126 I0.5858 J0.0
G1 X90.2511
G2 X90.8369 Y50.5269 I0.0 J-0.5858
G1 Y17.5269
G2 X90.2511 Y16.9411 I-0.5858 J0.0
G1 X89.9369
G1 F200.0 Y17.8411
G1 Z-4.8
G1 F300.0 X20.0653
G1 Y50.2126
G1 X89.9369
G1 Y17.8411
G1 F200.0 Y17.3411
G1 F300.0 X19.7511
G2 X19.5653 Y17.5269 I0.0 J0.1858
G1 Y50.5269
G2 X19.7511 Y50.7126 I0.1858 J0.0
G1 X90.2511
G2 X90.4369 Y50.5269 I0.0 J-0.1858
G1 Y17.5269
G2 X90.2511 Y17.3411 I-0.1858 J0.0
G1 X89.9369
G1 F200.0 Y17.8411
G1 Z-5.2
G1 F300.0 X20.0653
G1 Y50.2126
G1 X89.9369
G1 Y17.8411
G1 F200.0 Y17.7411
G1 F300.0 X19.9653
G1 Y50.3126
G1 X90.0369
G1 Y17.7411
G1 X89.9369
G1 F200.0 Y17.8411
G1 Z-5.3
G1 F300.0 X20.0653
G1 Y50.2126
G1 X89.9369
G1 Y17.8411
G0 Z3.0
M5
M30
