( Made using CamBam - http://www.cambam.co.uk )
( top_cover.WoodMini 3/29/2022 4:52:14 PM )
( Post processor: Matt )
( T0 : 2.2 )
G21 G90
G0 Z2.0
( T0 : 2.2 )
( Slot )
G17
M3 S10000
G0 X14.7 Y42.4
G0 Z1.0
G1 F200.0 Z-0.5
G1 F350.0 X32.5
G2 X34.4 Y40.5 I0.0 J-1.9
G2 X32.5 Y38.6 I-1.9 J0.0
G1 X14.7
G2 X13.75 Y38.8546 I0.0 J1.9
G2 Y42.1454 I0.95 J1.6454
G2 X14.7 Y42.4 I0.95 J-1.6454
G1 F200.0 Z-1.0
G1 F350.0 X32.5
G2 X34.4 Y40.5 I0.0 J-1.9
G2 X32.5 Y38.6 I-1.9 J0.0
G1 X14.7
G2 X13.75 Y38.8546 I0.0 J1.9
G2 Y42.1454 I0.95 J1.6454
G2 X14.7 Y42.4 I0.95 J-1.6454
G1 F200.0 Z-1.5
G1 F350.0 X32.5
G2 X34.4 Y40.5 I0.0 J-1.9
G2 X32.5 Y38.6 I-1.9 J0.0
G1 X14.7
G2 X13.75 Y38.8546 I0.0 J1.9
G2 Y42.1454 I0.95 J1.6454
G2 X14.7 Y42.4 I0.95 J-1.6454
G1 F200.0 Z-2.0
G1 F350.0 X32.5
G2 X34.4 Y40.5 I0.0 J-1.9
G2 X32.5 Y38.6 I-1.9 J0.0
G1 X14.7
G2 X13.75 Y38.8546 I0.0 J1.9
G2 Y42.1454 I0.95 J1.6454
G2 X14.7 Y42.4 I0.95 J-1.6454
G1 F200.0 Z-2.5
G1 F350.0 X32.5
G2 X34.4 Y40.5 I0.0 J-1.9
G2 X32.5 Y38.6 I-1.9 J0.0
G1 X14.7
G2 X13.75 Y38.8546 I0.0 J1.9
G2 Y42.1454 I0.95 J1.6454
G2 X14.7 Y42.4 I0.95 J-1.6454
G1 F200.0 Z-3.0
G1 F350.0 X32.5
G2 X34.4 Y40.5 I0.0 J-1.9
G2 X32.5 Y38.6 I-1.9 J0.0
G1 X14.7
G2 X13.75 Y38.8546 I0.0 J1.9
G2 Y42.1454 I0.95 J1.6454
G2 X14.7 Y42.4 I0.95 J-1.6454
G1 F200.0 Z-3.15
G1 F350.0 X32.5
G2 X34.4 Y40.5 I0.0 J-1.9
G2 X32.5 Y38.6 I-1.9 J0.0
G1 X14.7
G2 X13.75 Y38.8546 I0.0 J1.9
G2 Y42.1454 I0.95 J1.6454
G2 X14.7 Y42.4 I0.95 J-1.6454
G0 Z2.0
M5
M30
