( Made using CamBam - http://www.cambam.co.uk )
( top_cover 3/10/2022 5:02:16 PM )
( Post processor: Default )
( T0 : 2.0 )
G21 G90 G94
G0 Z2.0
( OutsideEdge )
G17
M3 S10000
G0 X86.0981 Y49.8615
G0 Z1.0
G1 F200.0 Z-0.53
G1 F350.0 X86.0678 Y50.353
G3 X86.0527 Y50.4752 I-0.9981 J-0.0615
G1 X85.9622 Y50.9594
G3 X85.9321 Y51.0789 I-0.983 J-0.1837
G1 X85.7828 Y51.5482
G3 X85.7383 Y51.6631 I-0.9529 J-0.3032
G1 X85.5324 Y52.1105
G3 X85.4743 Y52.2188 I-0.9084 J-0.4181
G1 X85.2151 Y52.6375
G3 X85.1438 Y52.7381 I-0.8503 J-0.5264
G1 X84.835 Y53.1218
G3 X84.7522 Y53.2127 I-0.779 J-0.627
G1 X84.3987 Y53.5555
G3 X84.3052 Y53.6356 I-0.6962 J-0.7179
G1 X83.9122 Y53.9324
G3 X83.8094 Y54.0005 I-0.6027 J-0.798
G1 X83.3828 Y54.2467
G3 X83.2728 Y54.3015 I-0.4999 J-0.8661
G1 X82.8193 Y54.4935
G3 X82.7031 Y54.5344 I-0.3899 J-0.9209
G1 X82.2294 Y54.6692
G3 X82.109 Y54.6956 I-0.2737 J-0.9618
G1 X81.6224 Y54.7711
G3 X81.5 Y54.7824 I-0.1533 J-0.9882
G1 X81.0077 Y54.7976
G3 X80.9768 Y54.7981 I-0.0309 J-0.9995
G1 X4.9768
G3 X4.8846 Y54.7938 I0.0 J-1.0
G1 X4.3942 Y54.7484
G3 X4.2724 Y54.7295 I0.0922 J-0.9957
G1 X3.7913 Y54.6241
G3 X3.6729 Y54.5904 I0.214 J-0.9768
G1 X3.2085 Y54.4267
G3 X3.0951 Y54.3788 I0.3324 J-0.9431
G1 X2.6543 Y54.1593
G3 X2.5477 Y54.0977 I0.4457 J-0.8952
G1 X2.1371 Y53.8257
G3 X2.0387 Y53.7514 I0.5523 J-0.8336
G1 X1.6647 Y53.4309
G3 X1.5765 Y53.3454 I0.6507 J-0.7593
G1 X1.2447 Y52.9815
G3 X1.1674 Y52.8854 I0.739 J-0.6738
G1 X0.8829 Y52.4834
G3 X0.8181 Y52.3788 I0.8162 J-0.5777
G1 X0.5851 Y51.9449
G3 X0.5337 Y51.8331 I0.881 J-0.4731
G1 X0.3558 Y51.3739
G3 X0.3184 Y51.2565 I0.9325 J-0.3613
G1 X0.1983 Y50.7789
G3 X0.1757 Y50.6579 I0.9698 J-0.2439
G1 X0.1152 Y50.1691
G3 X0.1076 Y50.0462 I0.9924 J-0.1229
G1 Y5.4
G3 X1.1076 Y4.4 I1.0 J0.0
G1 X85.1
G3 X86.1 Y5.4 I0.0 J1.0
G1 Y49.8
G3 X86.0981 Y49.8615 I-1.0 J0.0
G1 F200.0 Z-1.06
G1 F350.0 X86.0678 Y50.353
G3 X86.0527 Y50.4752 I-0.9981 J-0.0615
G1 X85.9622 Y50.9594
G3 X85.9321 Y51.0789 I-0.983 J-0.1837
G1 X85.7828 Y51.5482
G3 X85.7383 Y51.6631 I-0.9529 J-0.3032
G1 X85.5324 Y52.1105
G3 X85.4743 Y52.2188 I-0.9084 J-0.4181
G1 X85.2151 Y52.6375
G3 X85.1438 Y52.7381 I-0.8503 J-0.5264
G1 X84.835 Y53.1218
G3 X84.7522 Y53.2127 I-0.779 J-0.627
G1 X84.3987 Y53.5555
G3 X84.3052 Y53.6356 I-0.6962 J-0.7179
G1 X83.9122 Y53.9324
G3 X83.8094 Y54.0005 I-0.6027 J-0.798
G1 X83.3828 Y54.2467
G3 X83.2728 Y54.3015 I-0.4999 J-0.8661
G1 X82.8193 Y54.4935
G3 X82.7031 Y54.5344 I-0.3899 J-0.9209
G1 X82.2294 Y54.6692
G3 X82.109 Y54.6956 I-0.2737 J-0.9618
G1 X81.6224 Y54.7711
G3 X81.5 Y54.7824 I-0.1533 J-0.9882
G1 X81.0077 Y54.7976
G3 X80.9768 Y54.7981 I-0.0309 J-0.9995
G1 X4.9768
G3 X4.8846 Y54.7938 I0.0 J-1.0
G1 X4.3942 Y54.7484
G3 X4.2724 Y54.7295 I0.0922 J-0.9957
G1 X3.7913 Y54.6241
G3 X3.6729 Y54.5904 I0.214 J-0.9768
G1 X3.2085 Y54.4267
G3 X3.0951 Y54.3788 I0.3324 J-0.9431
G1 X2.6543 Y54.1593
G3 X2.5477 Y54.0977 I0.4457 J-0.8952
G1 X2.1371 Y53.8257
G3 X2.0387 Y53.7514 I0.5523 J-0.8336
G1 X1.6647 Y53.4309
G3 X1.5765 Y53.3454 I0.6507 J-0.7593
G1 X1.2447 Y52.9815
G3 X1.1674 Y52.8854 I0.739 J-0.6738
G1 X0.8829 Y52.4834
G3 X0.8181 Y52.3788 I0.8162 J-0.5777
G1 X0.5851 Y51.9449
G3 X0.5337 Y51.8331 I0.881 J-0.4731
G1 X0.3558 Y51.3739
G3 X0.3184 Y51.2565 I0.9325 J-0.3613
G1 X0.1983 Y50.7789
G3 X0.1757 Y50.6579 I0.9698 J-0.2439
G1 X0.1152 Y50.1691
G3 X0.1076 Y50.0462 I0.9924 J-0.1229
G1 Y5.4
G3 X1.1076 Y4.4 I1.0 J0.0
G1 X85.1
G3 X86.1 Y5.4 I0.0 J1.0
G1 Y49.8
G3 X86.0981 Y49.8615 I-1.0 J0.0
G1 F200.0 Z-1.59
G1 F350.0 X86.0678 Y50.353
G3 X86.0527 Y50.4752 I-0.9981 J-0.0615
G1 X85.9622 Y50.9594
G3 X85.9321 Y51.0789 I-0.983 J-0.1837
G1 X85.7828 Y51.5482
G3 X85.7383 Y51.6631 I-0.9529 J-0.3032
G1 X85.5324 Y52.1105
G3 X85.4743 Y52.2188 I-0.9084 J-0.4181
G1 X85.2151 Y52.6375
G3 X85.1438 Y52.7381 I-0.8503 J-0.5264
G1 X84.835 Y53.1218
G3 X84.7522 Y53.2127 I-0.779 J-0.627
G1 X84.3987 Y53.5555
G3 X84.3052 Y53.6356 I-0.6962 J-0.7179
G1 X83.9122 Y53.9324
G3 X83.8094 Y54.0005 I-0.6027 J-0.798
G1 X83.3828 Y54.2467
G3 X83.2728 Y54.3015 I-0.4999 J-0.8661
G1 X82.8193 Y54.4935
G3 X82.7031 Y54.5344 I-0.3899 J-0.9209
G1 X82.2294 Y54.6692
G3 X82.109 Y54.6956 I-0.2737 J-0.9618
G1 X81.6224 Y54.7711
G3 X81.5 Y54.7824 I-0.1533 J-0.9882
G1 X81.0077 Y54.7976
G3 X80.9768 Y54.7981 I-0.0309 J-0.9995
G1 X4.9768
G3 X4.8846 Y54.7938 I0.0 J-1.0
G1 X4.3942 Y54.7484
G3 X4.2724 Y54.7295 I0.0922 J-0.9957
G1 X3.7913 Y54.6241
G3 X3.6729 Y54.5904 I0.214 J-0.9768
G1 X3.2085 Y54.4267
G3 X3.0951 Y54.3788 I0.3324 J-0.9431
G1 X2.6543 Y54.1593
G3 X2.5477 Y54.0977 I0.4457 J-0.8952
G1 X2.1371 Y53.8257
G3 X2.0387 Y53.7514 I0.5523 J-0.8336
G1 X1.6647 Y53.4309
G3 X1.5765 Y53.3454 I0.6507 J-0.7593
G1 X1.2447 Y52.9815
G3 X1.1674 Y52.8854 I0.739 J-0.6738
G1 X0.8829 Y52.4834
G3 X0.8181 Y52.3788 I0.8162 J-0.5777
G1 X0.5851 Y51.9449
G3 X0.5337 Y51.8331 I0.881 J-0.4731
G1 X0.3558 Y51.3739
G3 X0.3184 Y51.2565 I0.9325 J-0.3613
G1 X0.1983 Y50.7789
G3 X0.1757 Y50.6579 I0.9698 J-0.2439
G1 X0.1152 Y50.1691
G3 X0.1076 Y50.0462 I0.9924 J-0.1229
G1 Y5.4
G3 X1.1076 Y4.4 I1.0 J0.0
G1 X85.1
G3 X86.1 Y5.4 I0.0 J1.0
G1 Y49.8
G3 X86.0981 Y49.8615 I-1.0 J0.0
G1 F200.0 Z-2.12
G1 F350.0 X86.0678 Y50.353
G3 X86.0527 Y50.4752 I-0.9981 J-0.0615
G1 X85.9622 Y50.9594
G3 X85.9321 Y51.0789 I-0.983 J-0.1837
G1 X85.7828 Y51.5482
G3 X85.7383 Y51.6631 I-0.9529 J-0.3032
G1 X85.5324 Y52.1105
G3 X85.4743 Y52.2188 I-0.9084 J-0.4181
G1 X85.2151 Y52.6375
G3 X85.1438 Y52.7381 I-0.8503 J-0.5264
G1 X84.835 Y53.1218
G3 X84.7522 Y53.2127 I-0.779 J-0.627
G1 X84.3987 Y53.5555
G3 X84.3052 Y53.6356 I-0.6962 J-0.7179
G1 X83.9122 Y53.9324
G3 X83.8094 Y54.0005 I-0.6027 J-0.798
G1 X83.3828 Y54.2467
G3 X83.2728 Y54.3015 I-0.4999 J-0.8661
G1 X82.8193 Y54.4935
G3 X82.7031 Y54.5344 I-0.3899 J-0.9209
G1 X82.2294 Y54.6692
G3 X82.109 Y54.6956 I-0.2737 J-0.9618
G1 X81.6224 Y54.7711
G3 X81.5 Y54.7824 I-0.1533 J-0.9882
G1 X81.0077 Y54.7976
G3 X80.9768 Y54.7981 I-0.0309 J-0.9995
G1 X4.9768
G3 X4.8846 Y54.7938 I0.0 J-1.0
G1 X4.3942 Y54.7484
G3 X4.2724 Y54.7295 I0.0922 J-0.9957
G1 X3.7913 Y54.6241
G3 X3.6729 Y54.5904 I0.214 J-0.9768
G1 X3.2085 Y54.4267
G3 X3.0951 Y54.3788 I0.3324 J-0.9431
G1 X2.6543 Y54.1593
G3 X2.5477 Y54.0977 I0.4457 J-0.8952
G1 X2.1371 Y53.8257
G3 X2.0387 Y53.7514 I0.5523 J-0.8336
G1 X1.6647 Y53.4309
G3 X1.5765 Y53.3454 I0.6507 J-0.7593
G1 X1.2447 Y52.9815
G3 X1.1674 Y52.8854 I0.739 J-0.6738
G1 X0.8829 Y52.4834
G3 X0.8181 Y52.3788 I0.8162 J-0.5777
G1 X0.5851 Y51.9449
G3 X0.5337 Y51.8331 I0.881 J-0.4731
G1 X0.3558 Y51.3739
G3 X0.3184 Y51.2565 I0.9325 J-0.3613
G1 X0.1983 Y50.7789
G3 X0.1757 Y50.6579 I0.9698 J-0.2439
G1 X0.1152 Y50.1691
G3 X0.1076 Y50.0462 I0.9924 J-0.1229
G1 Y5.4
G3 X1.1076 Y4.4 I1.0 J0.0
G1 X85.1
G3 X86.1 Y5.4 I0.0 J1.0
G1 Y49.8
G3 X86.0981 Y49.8615 I-1.0 J0.0
G1 F200.0 Z-2.65
G1 F350.0 X86.0678 Y50.353
G3 X86.0527 Y50.4752 I-0.9981 J-0.0615
G1 X85.9622 Y50.9594
G3 X85.9321 Y51.0789 I-0.983 J-0.1837
G1 X85.7828 Y51.5482
G3 X85.7383 Y51.6631 I-0.9529 J-0.3032
G1 X85.5324 Y52.1105
G3 X85.4743 Y52.2188 I-0.9084 J-0.4181
G1 X85.2151 Y52.6375
G3 X85.1438 Y52.7381 I-0.8503 J-0.5264
G1 X84.835 Y53.1218
G3 X84.7522 Y53.2127 I-0.779 J-0.627
G1 X84.3987 Y53.5555
G3 X84.3052 Y53.6356 I-0.6962 J-0.7179
G1 X83.9122 Y53.9324
G3 X83.8094 Y54.0005 I-0.6027 J-0.798
G1 X83.3828 Y54.2467
G3 X83.2728 Y54.3015 I-0.4999 J-0.8661
G1 X82.8193 Y54.4935
G3 X82.7031 Y54.5344 I-0.3899 J-0.9209
G1 X82.2294 Y54.6692
G3 X82.109 Y54.6956 I-0.2737 J-0.9618
G1 X81.6224 Y54.7711
G3 X81.5 Y54.7824 I-0.1533 J-0.9882
G1 X81.0077 Y54.7976
G3 X80.9768 Y54.7981 I-0.0309 J-0.9995
G1 X4.9768
G3 X4.8846 Y54.7938 I0.0 J-1.0
G1 X4.3942 Y54.7484
G3 X4.2724 Y54.7295 I0.0922 J-0.9957
G1 X3.7913 Y54.6241
G3 X3.6729 Y54.5904 I0.214 J-0.9768
G1 X3.2085 Y54.4267
G3 X3.0951 Y54.3788 I0.3324 J-0.9431
G1 X2.6543 Y54.1593
G3 X2.5477 Y54.0977 I0.4457 J-0.8952
G1 X2.1371 Y53.8257
G3 X2.0387 Y53.7514 I0.5523 J-0.8336
G1 X1.6647 Y53.4309
G3 X1.5765 Y53.3454 I0.6507 J-0.7593
G1 X1.2447 Y52.9815
G3 X1.1674 Y52.8854 I0.739 J-0.6738
G1 X0.8829 Y52.4834
G3 X0.8181 Y52.3788 I0.8162 J-0.5777
G1 X0.5851 Y51.9449
G3 X0.5337 Y51.8331 I0.881 J-0.4731
G1 X0.3558 Y51.3739
G3 X0.3184 Y51.2565 I0.9325 J-0.3613
G1 X0.1983 Y50.7789
G3 X0.1757 Y50.6579 I0.9698 J-0.2439
G1 X0.1152 Y50.1691
G3 X0.1076 Y50.0462 I0.9924 J-0.1229
G1 Y5.4
G3 X1.1076 Y4.4 I1.0 J0.0
G1 X85.1
G3 X86.1 Y5.4 I0.0 J1.0
G1 Y49.8
G3 X86.0981 Y49.8615 I-1.0 J0.0
G1 F200.0 Z-3.175
G1 F350.0 X86.0678 Y50.353
G3 X86.0527 Y50.4752 I-0.9981 J-0.0615
G1 X85.9622 Y50.9594
G3 X85.9321 Y51.0789 I-0.983 J-0.1837
G1 X85.7828 Y51.5482
G3 X85.7383 Y51.6631 I-0.9529 J-0.3032
G1 X85.5324 Y52.1105
G3 X85.4743 Y52.2188 I-0.9084 J-0.4181
G1 X85.2151 Y52.6375
G3 X85.1438 Y52.7381 I-0.8503 J-0.5264
G1 X84.835 Y53.1218
G3 X84.7522 Y53.2127 I-0.779 J-0.627
G1 X84.3987 Y53.5555
G3 X84.3052 Y53.6356 I-0.6962 J-0.7179
G1 X83.9122 Y53.9324
G3 X83.8094 Y54.0005 I-0.6027 J-0.798
G1 X83.3828 Y54.2467
G3 X83.2728 Y54.3015 I-0.4999 J-0.8661
G1 X82.8193 Y54.4935
G3 X82.7031 Y54.5344 I-0.3899 J-0.9209
G1 X82.2294 Y54.6692
G3 X82.109 Y54.6956 I-0.2737 J-0.9618
G1 X81.6224 Y54.7711
G3 X81.5 Y54.7824 I-0.1533 J-0.9882
G1 X81.0077 Y54.7976
G3 X80.9768 Y54.7981 I-0.0309 J-0.9995
G1 X4.9768
G3 X4.8846 Y54.7938 I0.0 J-1.0
G1 X4.3942 Y54.7484
G3 X4.2724 Y54.7295 I0.0922 J-0.9957
G1 X3.7913 Y54.6241
G3 X3.6729 Y54.5904 I0.214 J-0.9768
G1 X3.2085 Y54.4267
G3 X3.0951 Y54.3788 I0.3324 J-0.9431
G1 X2.6543 Y54.1593
G3 X2.5477 Y54.0977 I0.4457 J-0.8952
G1 X2.1371 Y53.8257
G3 X2.0387 Y53.7514 I0.5523 J-0.8336
G1 X1.6647 Y53.4309
G3 X1.5765 Y53.3454 I0.6507 J-0.7593
G1 X1.2447 Y52.9815
G3 X1.1674 Y52.8854 I0.739 J-0.6738
G1 X0.8829 Y52.4834
G3 X0.8181 Y52.3788 I0.8162 J-0.5777
G1 X0.5851 Y51.9449
G3 X0.5337 Y51.8331 I0.881 J-0.4731
G1 X0.3558 Y51.3739
G3 X0.3184 Y51.2565 I0.9325 J-0.3613
G1 X0.1983 Y50.7789
G3 X0.1757 Y50.6579 I0.9698 J-0.2439
G1 X0.1152 Y50.1691
G3 X0.1076 Y50.0462 I0.9924 J-0.1229
G1 Y5.4
G3 X1.1076 Y4.4 I1.0 J0.0
G1 X85.1
G3 X86.1 Y5.4 I0.0 J1.0
G1 Y49.8
G3 X86.0981 Y49.8615 I-1.0 J0.0
( Holes )
S10000
G0 Z2.0
G0 X22.4506 Y42.7232
G0 Z1.0
G1 F200.0 Z-0.53
G1 F350.0 X22.1561 Y42.5008
G1 X21.8364 Y42.3162
G1 X21.4964 Y42.1724
G1 X21.1414 Y42.0713
G1 X20.7767 Y42.0147
G1 X20.4076 Y42.0033
G1 X20.0401 Y42.0373
G1 X19.6796 Y42.1163
G1 X19.3314 Y42.239
G1 X19.0009 Y42.4036
G1 X18.6933 Y42.6074
G1 X18.413 Y42.8476
G1 X18.1643 Y43.1204
G1 X17.9509 Y43.4218
G1 X17.7763 Y43.747
G1 X17.643 Y44.0911
G1 X17.553 Y44.4491
G1 X17.5076 Y44.8155
G1 Y45.1845
G1 X17.553 Y45.5509
G1 X17.643 Y45.9089
G1 X17.7763 Y46.253
G1 X17.9509 Y46.5782
G1 X18.1642 Y46.8795
G1 X18.413 Y47.1523
G1 X18.6933 Y47.3926
G1 X19.0009 Y47.5964
G1 X19.3314 Y47.761
G1 X19.6796 Y47.8837
G1 X20.0401 Y47.9627
G1 X20.4076 Y47.9967
G1 X20.7767 Y47.9853
G1 X21.1414 Y47.9287
G1 X21.4963 Y47.8277
G1 X21.8364 Y47.6837
G1 X22.1561 Y47.4992
G1 X22.4506 Y47.2768
G1 X22.7156 Y47.0198
G1 X22.947 Y46.7322
G1 X23.1413 Y46.4184
G1 X23.2957 Y46.083
G1 X23.4076 Y45.7312
G1 X23.4754 Y45.3684
G1 X23.4981 Y45.0
G1 X23.4754 Y44.6315
G1 X23.4076 Y44.2687
G1 X23.2957 Y43.917
G1 X23.1413 Y43.5816
G1 X22.947 Y43.2678
G1 X22.7156 Y42.9802
G1 X22.4506 Y42.7232
G1 F200.0 Z-1.06
G1 F350.0 X22.1561 Y42.5008
G1 X21.8364 Y42.3162
G1 X21.4964 Y42.1724
G1 X21.1414 Y42.0713
G1 X20.7767 Y42.0147
G1 X20.4076 Y42.0033
G1 X20.0401 Y42.0373
G1 X19.6796 Y42.1163
G1 X19.3314 Y42.239
G1 X19.0009 Y42.4036
G1 X18.6933 Y42.6074
G1 X18.413 Y42.8476
G1 X18.1643 Y43.1204
G1 X17.9509 Y43.4218
G1 X17.7763 Y43.747
G1 X17.643 Y44.0911
G1 X17.553 Y44.4491
G1 X17.5076 Y44.8155
G1 Y45.1845
G1 X17.553 Y45.5509
G1 X17.643 Y45.9089
G1 X17.7763 Y46.253
G1 X17.9509 Y46.5782
G1 X18.1642 Y46.8795
G1 X18.413 Y47.1523
G1 X18.6933 Y47.3926
G1 X19.0009 Y47.5964
G1 X19.3314 Y47.761
G1 X19.6796 Y47.8837
G1 X20.0401 Y47.9627
G1 X20.4076 Y47.9967
G1 X20.7767 Y47.9853
G1 X21.1414 Y47.9287
G1 X21.4963 Y47.8277
G1 X21.8364 Y47.6837
G1 X22.1561 Y47.4992
G1 X22.4506 Y47.2768
G1 X22.7156 Y47.0198
G1 X22.947 Y46.7322
G1 X23.1413 Y46.4184
G1 X23.2957 Y46.083
G1 X23.4076 Y45.7312
G1 X23.4754 Y45.3684
G1 X23.4981 Y45.0
G1 X23.4754 Y44.6315
G1 X23.4076 Y44.2687
G1 X23.2957 Y43.917
G1 X23.1413 Y43.5816
G1 X22.947 Y43.2678
G1 X22.7156 Y42.9802
G1 X22.4506 Y42.7232
G1 F200.0 Z-1.59
G1 F350.0 X22.1561 Y42.5008
G1 X21.8364 Y42.3162
G1 X21.4964 Y42.1724
G1 X21.1414 Y42.0713
G1 X20.7767 Y42.0147
G1 X20.4076 Y42.0033
G1 X20.0401 Y42.0373
G1 X19.6796 Y42.1163
G1 X19.3314 Y42.239
G1 X19.0009 Y42.4036
G1 X18.6933 Y42.6074
G1 X18.413 Y42.8476
G1 X18.1643 Y43.1204
G1 X17.9509 Y43.4218
G1 X17.7763 Y43.747
G1 X17.643 Y44.0911
G1 X17.553 Y44.4491
G1 X17.5076 Y44.8155
G1 Y45.1845
G1 X17.553 Y45.5509
G1 X17.643 Y45.9089
G1 X17.7763 Y46.253
G1 X17.9509 Y46.5782
G1 X18.1642 Y46.8795
G1 X18.413 Y47.1523
G1 X18.6933 Y47.3926
G1 X19.0009 Y47.5964
G1 X19.3314 Y47.761
G1 X19.6796 Y47.8837
G1 X20.0401 Y47.9627
G1 X20.4076 Y47.9967
G1 X20.7767 Y47.9853
G1 X21.1414 Y47.9287
G1 X21.4963 Y47.8277
G1 X21.8364 Y47.6837
G1 X22.1561 Y47.4992
G1 X22.4506 Y47.2768
G1 X22.7156 Y47.0198
G1 X22.947 Y46.7322
G1 X23.1413 Y46.4184
G1 X23.2957 Y46.083
G1 X23.4076 Y45.7312
G1 X23.4754 Y45.3684
G1 X23.4981 Y45.0
G1 X23.4754 Y44.6315
G1 X23.4076 Y44.2687
G1 X23.2957 Y43.917
G1 X23.1413 Y43.5816
G1 X22.947 Y43.2678
G1 X22.7156 Y42.9802
G1 X22.4506 Y42.7232
G1 F200.0 Z-2.12
G1 F350.0 X22.1561 Y42.5008
G1 X21.8364 Y42.3162
G1 X21.4964 Y42.1724
G1 X21.1414 Y42.0713
G1 X20.7767 Y42.0147
G1 X20.4076 Y42.0033
G1 X20.0401 Y42.0373
G1 X19.6796 Y42.1163
G1 X19.3314 Y42.239
G1 X19.0009 Y42.4036
G1 X18.6933 Y42.6074
G1 X18.413 Y42.8476
G1 X18.1643 Y43.1204
G1 X17.9509 Y43.4218
G1 X17.7763 Y43.747
G1 X17.643 Y44.0911
G1 X17.553 Y44.4491
G1 X17.5076 Y44.8155
G1 Y45.1845
G1 X17.553 Y45.5509
G1 X17.643 Y45.9089
G1 X17.7763 Y46.253
G1 X17.9509 Y46.5782
G1 X18.1642 Y46.8795
G1 X18.413 Y47.1523
G1 X18.6933 Y47.3926
G1 X19.0009 Y47.5964
G1 X19.3314 Y47.761
G1 X19.6796 Y47.8837
G1 X20.0401 Y47.9627
G1 X20.4076 Y47.9967
G1 X20.7767 Y47.9853
G1 X21.1414 Y47.9287
G1 X21.4963 Y47.8277
G1 X21.8364 Y47.6837
G1 X22.1561 Y47.4992
G1 X22.4506 Y47.2768
G1 X22.7156 Y47.0198
G1 X22.947 Y46.7322
G1 X23.1413 Y46.4184
G1 X23.2957 Y46.083
G1 X23.4076 Y45.7312
G1 X23.4754 Y45.3684
G1 X23.4981 Y45.0
G1 X23.4754 Y44.6315
G1 X23.4076 Y44.2687
G1 X23.2957 Y43.917
G1 X23.1413 Y43.5816
G1 X22.947 Y43.2678
G1 X22.7156 Y42.9802
G1 X22.4506 Y42.7232
G1 F200.0 Z-2.65
G1 F350.0 X22.1561 Y42.5008
G1 X21.8364 Y42.3162
G1 X21.4964 Y42.1724
G1 X21.1414 Y42.0713
G1 X20.7767 Y42.0147
G1 X20.4076 Y42.0033
G1 X20.0401 Y42.0373
G1 X19.6796 Y42.1163
G1 X19.3314 Y42.239
G1 X19.0009 Y42.4036
G1 X18.6933 Y42.6074
G1 X18.413 Y42.8476
G1 X18.1643 Y43.1204
G1 X17.9509 Y43.4218
G1 X17.7763 Y43.747
G1 X17.643 Y44.0911
G1 X17.553 Y44.4491
G1 X17.5076 Y44.8155
G1 Y45.1845
G1 X17.553 Y45.5509
G1 X17.643 Y45.9089
G1 X17.7763 Y46.253
G1 X17.9509 Y46.5782
G1 X18.1642 Y46.8795
G1 X18.413 Y47.1523
G1 X18.6933 Y47.3926
G1 X19.0009 Y47.5964
G1 X19.3314 Y47.761
G1 X19.6796 Y47.8837
G1 X20.0401 Y47.9627
G1 X20.4076 Y47.9967
G1 X20.7767 Y47.9853
G1 X21.1414 Y47.9287
G1 X21.4963 Y47.8277
G1 X21.8364 Y47.6837
G1 X22.1561 Y47.4992
G1 X22.4506 Y47.2768
G1 X22.7156 Y47.0198
G1 X22.947 Y46.7322
G1 X23.1413 Y46.4184
G1 X23.2957 Y46.083
G1 X23.4076 Y45.7312
G1 X23.4754 Y45.3684
G1 X23.4981 Y45.0
G1 X23.4754 Y44.6315
G1 X23.4076 Y44.2687
G1 X23.2957 Y43.917
G1 X23.1413 Y43.5816
G1 X22.947 Y43.2678
G1 X22.7156 Y42.9802
G1 X22.4506 Y42.7232
G1 F200.0 Z-3.175
G1 F350.0 X22.1561 Y42.5008
G1 X21.8364 Y42.3162
G1 X21.4964 Y42.1724
G1 X21.1414 Y42.0713
G1 X20.7767 Y42.0147
G1 X20.4076 Y42.0033
G1 X20.0401 Y42.0373
G1 X19.6796 Y42.1163
G1 X19.3314 Y42.239
G1 X19.0009 Y42.4036
G1 X18.6933 Y42.6074
G1 X18.413 Y42.8476
G1 X18.1643 Y43.1204
G1 X17.9509 Y43.4218
G1 X17.7763 Y43.747
G1 X17.643 Y44.0911
G1 X17.553 Y44.4491
G1 X17.5076 Y44.8155
G1 Y45.1845
G1 X17.553 Y45.5509
G1 X17.643 Y45.9089
G1 X17.7763 Y46.253
G1 X17.9509 Y46.5782
G1 X18.1642 Y46.8795
G1 X18.413 Y47.1523
G1 X18.6933 Y47.3926
G1 X19.0009 Y47.5964
G1 X19.3314 Y47.761
G1 X19.6796 Y47.8837
G1 X20.0401 Y47.9627
G1 X20.4076 Y47.9967
G1 X20.7767 Y47.9853
G1 X21.1414 Y47.9287
G1 X21.4963 Y47.8277
G1 X21.8364 Y47.6837
G1 X22.1561 Y47.4992
G1 X22.4506 Y47.2768
G1 X22.7156 Y47.0198
G1 X22.947 Y46.7322
G1 X23.1413 Y46.4184
G1 X23.2957 Y46.083
G1 X23.4076 Y45.7312
G1 X23.4754 Y45.3684
G1 X23.4981 Y45.0
G1 X23.4754 Y44.6315
G1 X23.4076 Y44.2687
G1 X23.2957 Y43.917
G1 X23.1413 Y43.5816
G1 X22.947 Y43.2678
G1 X22.7156 Y42.9802
G1 X22.4506 Y42.7232
G0 Z2.0
G0 X29.553 Y44.4491
G0 Z1.0
G1 F200.0 Z-0.53
G1 F350.0 X29.5076 Y44.8155
G1 Y45.1845
G1 X29.553 Y45.5509
G1 X29.643 Y45.9089
G1 X29.7763 Y46.253
G1 X29.9509 Y46.5782
G1 X30.1642 Y46.8795
G1 X30.413 Y47.1523
G1 X30.6933 Y47.3926
G1 X31.0009 Y47.5964
G1 X31.3314 Y47.761
G1 X31.6796 Y47.8837
G1 X32.0401 Y47.9627
G1 X32.4076 Y47.9967
G1 X32.7767 Y47.9853
G1 X33.1414 Y47.9287
G1 X33.4963 Y47.8277
G1 X33.8364 Y47.6837
G1 X34.1561 Y47.4992
G1 X34.4506 Y47.2768
G1 X34.7156 Y47.0198
G1 X34.947 Y46.7322
G1 X35.1413 Y46.4184
G1 X35.2957 Y46.083
G1 X35.4076 Y45.7312
G1 X35.4754 Y45.3684
G1 X35.4981 Y45.0
G1 X35.4754 Y44.6315
G1 X35.4076 Y44.2687
G1 X35.2957 Y43.917
G1 X35.1413 Y43.5816
G1 X34.947 Y43.2678
G1 X34.7156 Y42.9802
G1 X34.4506 Y42.7232
G1 X34.1561 Y42.5008
G1 X33.8364 Y42.3162
G1 X33.4964 Y42.1724
G1 X33.1414 Y42.0713
G1 X32.7767 Y42.0147
G1 X32.4076 Y42.0033
G1 X32.0401 Y42.0373
G1 X31.6796 Y42.1163
G1 X31.3314 Y42.239
G1 X31.0009 Y42.4036
G1 X30.6933 Y42.6074
G1 X30.413 Y42.8476
G1 X30.1643 Y43.1204
G1 X29.9509 Y43.4218
G1 X29.7763 Y43.747
G1 X29.643 Y44.0911
G1 X29.553 Y44.4491
G1 F200.0 Z-1.06
G1 F350.0 X29.5076 Y44.8155
G1 Y45.1845
G1 X29.553 Y45.5509
G1 X29.643 Y45.9089
G1 X29.7763 Y46.253
G1 X29.9509 Y46.5782
G1 X30.1642 Y46.8795
G1 X30.413 Y47.1523
G1 X30.6933 Y47.3926
G1 X31.0009 Y47.5964
G1 X31.3314 Y47.761
G1 X31.6796 Y47.8837
G1 X32.0401 Y47.9627
G1 X32.4076 Y47.9967
G1 X32.7767 Y47.9853
G1 X33.1414 Y47.9287
G1 X33.4963 Y47.8277
G1 X33.8364 Y47.6837
G1 X34.1561 Y47.4992
G1 X34.4506 Y47.2768
G1 X34.7156 Y47.0198
G1 X34.947 Y46.7322
G1 X35.1413 Y46.4184
G1 X35.2957 Y46.083
G1 X35.4076 Y45.7312
G1 X35.4754 Y45.3684
G1 X35.4981 Y45.0
G1 X35.4754 Y44.6315
G1 X35.4076 Y44.2687
G1 X35.2957 Y43.917
G1 X35.1413 Y43.5816
G1 X34.947 Y43.2678
G1 X34.7156 Y42.9802
G1 X34.4506 Y42.7232
G1 X34.1561 Y42.5008
G1 X33.8364 Y42.3162
G1 X33.4964 Y42.1724
G1 X33.1414 Y42.0713
G1 X32.7767 Y42.0147
G1 X32.4076 Y42.0033
G1 X32.0401 Y42.0373
G1 X31.6796 Y42.1163
G1 X31.3314 Y42.239
G1 X31.0009 Y42.4036
G1 X30.6933 Y42.6074
G1 X30.413 Y42.8476
G1 X30.1643 Y43.1204
G1 X29.9509 Y43.4218
G1 X29.7763 Y43.747
G1 X29.643 Y44.0911
G1 X29.553 Y44.4491
G1 F200.0 Z-1.59
G1 F350.0 X29.5076 Y44.8155
G1 Y45.1845
G1 X29.553 Y45.5509
G1 X29.643 Y45.9089
G1 X29.7763 Y46.253
G1 X29.9509 Y46.5782
G1 X30.1642 Y46.8795
G1 X30.413 Y47.1523
G1 X30.6933 Y47.3926
G1 X31.0009 Y47.5964
G1 X31.3314 Y47.761
G1 X31.6796 Y47.8837
G1 X32.0401 Y47.9627
G1 X32.4076 Y47.9967
G1 X32.7767 Y47.9853
G1 X33.1414 Y47.9287
G1 X33.4963 Y47.8277
G1 X33.8364 Y47.6837
G1 X34.1561 Y47.4992
G1 X34.4506 Y47.2768
G1 X34.7156 Y47.0198
G1 X34.947 Y46.7322
G1 X35.1413 Y46.4184
G1 X35.2957 Y46.083
G1 X35.4076 Y45.7312
G1 X35.4754 Y45.3684
G1 X35.4981 Y45.0
G1 X35.4754 Y44.6315
G1 X35.4076 Y44.2687
G1 X35.2957 Y43.917
G1 X35.1413 Y43.5816
G1 X34.947 Y43.2678
G1 X34.7156 Y42.9802
G1 X34.4506 Y42.7232
G1 X34.1561 Y42.5008
G1 X33.8364 Y42.3162
G1 X33.4964 Y42.1724
G1 X33.1414 Y42.0713
G1 X32.7767 Y42.0147
G1 X32.4076 Y42.0033
G1 X32.0401 Y42.0373
G1 X31.6796 Y42.1163
G1 X31.3314 Y42.239
G1 X31.0009 Y42.4036
G1 X30.6933 Y42.6074
G1 X30.413 Y42.8476
G1 X30.1643 Y43.1204
G1 X29.9509 Y43.4218
G1 X29.7763 Y43.747
G1 X29.643 Y44.0911
G1 X29.553 Y44.4491
G1 F200.0 Z-2.12
G1 F350.0 X29.5076 Y44.8155
G1 Y45.1845
G1 X29.553 Y45.5509
G1 X29.643 Y45.9089
G1 X29.7763 Y46.253
G1 X29.9509 Y46.5782
G1 X30.1642 Y46.8795
G1 X30.413 Y47.1523
G1 X30.6933 Y47.3926
G1 X31.0009 Y47.5964
G1 X31.3314 Y47.761
G1 X31.6796 Y47.8837
G1 X32.0401 Y47.9627
G1 X32.4076 Y47.9967
G1 X32.7767 Y47.9853
G1 X33.1414 Y47.9287
G1 X33.4963 Y47.8277
G1 X33.8364 Y47.6837
G1 X34.1561 Y47.4992
G1 X34.4506 Y47.2768
G1 X34.7156 Y47.0198
G1 X34.947 Y46.7322
G1 X35.1413 Y46.4184
G1 X35.2957 Y46.083
G1 X35.4076 Y45.7312
G1 X35.4754 Y45.3684
G1 X35.4981 Y45.0
G1 X35.4754 Y44.6315
G1 X35.4076 Y44.2687
G1 X35.2957 Y43.917
G1 X35.1413 Y43.5816
G1 X34.947 Y43.2678
G1 X34.7156 Y42.9802
G1 X34.4506 Y42.7232
G1 X34.1561 Y42.5008
G1 X33.8364 Y42.3162
G1 X33.4964 Y42.1724
G1 X33.1414 Y42.0713
G1 X32.7767 Y42.0147
G1 X32.4076 Y42.0033
G1 X32.0401 Y42.0373
G1 X31.6796 Y42.1163
G1 X31.3314 Y42.239
G1 X31.0009 Y42.4036
G1 X30.6933 Y42.6074
G1 X30.413 Y42.8476
G1 X30.1643 Y43.1204
G1 X29.9509 Y43.4218
G1 X29.7763 Y43.747
G1 X29.643 Y44.0911
G1 X29.553 Y44.4491
G1 F200.0 Z-2.65
G1 F350.0 X29.5076 Y44.8155
G1 Y45.1845
G1 X29.553 Y45.5509
G1 X29.643 Y45.9089
G1 X29.7763 Y46.253
G1 X29.9509 Y46.5782
G1 X30.1642 Y46.8795
G1 X30.413 Y47.1523
G1 X30.6933 Y47.3926
G1 X31.0009 Y47.5964
G1 X31.3314 Y47.761
G1 X31.6796 Y47.8837
G1 X32.0401 Y47.9627
G1 X32.4076 Y47.9967
G1 X32.7767 Y47.9853
G1 X33.1414 Y47.9287
G1 X33.4963 Y47.8277
G1 X33.8364 Y47.6837
G1 X34.1561 Y47.4992
G1 X34.4506 Y47.2768
G1 X34.7156 Y47.0198
G1 X34.947 Y46.7322
G1 X35.1413 Y46.4184
G1 X35.2957 Y46.083
G1 X35.4076 Y45.7312
G1 X35.4754 Y45.3684
G1 X35.4981 Y45.0
G1 X35.4754 Y44.6315
G1 X35.4076 Y44.2687
G1 X35.2957 Y43.917
G1 X35.1413 Y43.5816
G1 X34.947 Y43.2678
G1 X34.7156 Y42.9802
G1 X34.4506 Y42.7232
G1 X34.1561 Y42.5008
G1 X33.8364 Y42.3162
G1 X33.4964 Y42.1724
G1 X33.1414 Y42.0713
G1 X32.7767 Y42.0147
G1 X32.4076 Y42.0033
G1 X32.0401 Y42.0373
G1 X31.6796 Y42.1163
G1 X31.3314 Y42.239
G1 X31.0009 Y42.4036
G1 X30.6933 Y42.6074
G1 X30.413 Y42.8476
G1 X30.1643 Y43.1204
G1 X29.9509 Y43.4218
G1 X29.7763 Y43.747
G1 X29.643 Y44.0911
G1 X29.553 Y44.4491
G1 F200.0 Z-3.175
G1 F350.0 X29.5076 Y44.8155
G1 Y45.1845
G1 X29.553 Y45.5509
G1 X29.643 Y45.9089
G1 X29.7763 Y46.253
G1 X29.9509 Y46.5782
G1 X30.1642 Y46.8795
G1 X30.413 Y47.1523
G1 X30.6933 Y47.3926
G1 X31.0009 Y47.5964
G1 X31.3314 Y47.761
G1 X31.6796 Y47.8837
G1 X32.0401 Y47.9627
G1 X32.4076 Y47.9967
G1 X32.7767 Y47.9853
G1 X33.1414 Y47.9287
G1 X33.4963 Y47.8277
G1 X33.8364 Y47.6837
G1 X34.1561 Y47.4992
G1 X34.4506 Y47.2768
G1 X34.7156 Y47.0198
G1 X34.947 Y46.7322
G1 X35.1413 Y46.4184
G1 X35.2957 Y46.083
G1 X35.4076 Y45.7312
G1 X35.4754 Y45.3684
G1 X35.4981 Y45.0
G1 X35.4754 Y44.6315
G1 X35.4076 Y44.2687
G1 X35.2957 Y43.917
G1 X35.1413 Y43.5816
G1 X34.947 Y43.2678
G1 X34.7156 Y42.9802
G1 X34.4506 Y42.7232
G1 X34.1561 Y42.5008
G1 X33.8364 Y42.3162
G1 X33.4964 Y42.1724
G1 X33.1414 Y42.0713
G1 X32.7767 Y42.0147
G1 X32.4076 Y42.0033
G1 X32.0401 Y42.0373
G1 X31.6796 Y42.1163
G1 X31.3314 Y42.239
G1 X31.0009 Y42.4036
G1 X30.6933 Y42.6074
G1 X30.413 Y42.8476
G1 X30.1643 Y43.1204
G1 X29.9509 Y43.4218
G1 X29.7763 Y43.747
G1 X29.643 Y44.0911
G1 X29.553 Y44.4491
G0 Z2.0
M5
M30
